(Exported by FreeCAD)
(Post Processor: grbl_post)
(Output Time:2019-06-11 11:48:24.423208)
(begin preamble)
G17 G90
G21
(begin operation: T2: 2mm)
(Path: T2: 2mm)
(T2: 2mm)
(begin toolchange)
; M6 T3
M3 S0.000
(finish operation: T2: 2mm)
(begin operation: MillFace)
(Path: MillFace)
(MillFace)
G0 Z6.000
G0 X73.783 Y-16.078
G0 Z4.000
G1 X73.783 Y-16.078 Z-1.000 F2100.00
G3 X74.075 Y-15.371 Z-1.000 I-0.707 J0.707 F2400.00
G1 X74.075 Y-14.371 Z-1.000 F2400.00
G1 X72.075 Y-16.371 Z-1.000 F2400.00
G1 X70.661 Y-16.371 Z-1.000 F2400.00
G1 X74.075 Y-12.957 Z-1.000 F2400.00
G1 X74.075 Y-11.542 Z-1.000 F2400.00
G1 X69.247 Y-16.371 Z-1.000 F2400.00
G1 X67.833 Y-16.371 Z-1.000 F2400.00
G1 X74.075 Y-10.128 Z-1.000 F2400.00
G1 X74.075 Y-8.714 Z-1.000 F2400.00
G1 X66.419 Y-16.371 Z-1.000 F2400.00
G1 X65.004 Y-16.371 Z-1.000 F2400.00
G1 X74.075 Y-7.300 Z-1.000 F2400.00
G1 X74.075 Y-5.886 Z-1.000 F2400.00
G1 X63.590 Y-16.371 Z-1.000 F2400.00
G1 X62.176 Y-16.371 Z-1.000 F2400.00
G1 X74.075 Y-4.471 Z-1.000 F2400.00
G1 X74.075 Y-3.057 Z-1.000 F2400.00
G1 X60.762 Y-16.371 Z-1.000 F2400.00
G1 X59.348 Y-16.371 Z-1.000 F2400.00
G1 X74.075 Y-1.643 Z-1.000 F2400.00
G1 X74.075 Y-0.229 Z-1.000 F2400.00
G1 X57.933 Y-16.371 Z-1.000 F2400.00
G1 X56.519 Y-16.371 Z-1.000 F2400.00
G1 X74.075 Y1.185 Z-1.000 F2400.00
G1 X74.075 Y2.600 Z-1.000 F2400.00
G1 X55.105 Y-16.371 Z-1.000 F2400.00
G1 X53.691 Y-16.371 Z-1.000 F2400.00
G1 X74.075 Y4.014 Z-1.000 F2400.00
G1 X74.075 Y5.428 Z-1.000 F2400.00
G1 X52.276 Y-16.371 Z-1.000 F2400.00
G1 X50.862 Y-16.371 Z-1.000 F2400.00
G1 X74.075 Y6.842 Z-1.000 F2400.00
G1 X74.075 Y8.257 Z-1.000 F2400.00
G1 X49.448 Y-16.371 Z-1.000 F2400.00
G1 X48.034 Y-16.371 Z-1.000 F2400.00
G1 X74.075 Y9.671 Z-1.000 F2400.00
G1 X74.075 Y11.085 Z-1.000 F2400.00
G1 X46.620 Y-16.371 Z-1.000 F2400.00
G1 X45.205 Y-16.371 Z-1.000 F2400.00
G1 X74.075 Y12.499 Z-1.000 F2400.00
G1 X74.075 Y13.913 Z-1.000 F2400.00
G1 X43.791 Y-16.371 Z-1.000 F2400.00
G1 X42.377 Y-16.371 Z-1.000 F2400.00
G1 X74.075 Y15.328 Z-1.000 F2400.00
G1 X74.075 Y16.742 Z-1.000 F2400.00
G1 X40.963 Y-16.371 Z-1.000 F2400.00
G1 X39.549 Y-16.371 Z-1.000 F2400.00
G1 X74.075 Y18.156 Z-1.000 F2400.00
G1 X74.075 Y19.570 Z-1.000 F2400.00
G1 X38.134 Y-16.371 Z-1.000 F2400.00
G1 X36.720 Y-16.371 Z-1.000 F2400.00
G1 X74.075 Y20.984 Z-1.000 F2400.00
G1 X74.075 Y22.399 Z-1.000 F2400.00
G1 X35.306 Y-16.371 Z-1.000 F2400.00
G1 X33.892 Y-16.371 Z-1.000 F2400.00
G1 X74.075 Y23.813 Z-1.000 F2400.00
G1 X74.075 Y25.227 Z-1.000 F2400.00
G1 X32.477 Y-16.371 Z-1.000 F2400.00
G1 X31.063 Y-16.371 Z-1.000 F2400.00
G1 X74.075 Y26.641 Z-1.000 F2400.00
G1 X74.075 Y28.056 Z-1.000 F2400.00
G1 X29.649 Y-16.371 Z-1.000 F2400.00
G1 X28.235 Y-16.371 Z-1.000 F2400.00
G1 X74.075 Y29.470 Z-1.000 F2400.00
G3 X74.041 Y30.493 Z-1.000 I-3.905 J0.382 F2400.00
G3 X73.935 Y30.743 Z-1.000 I-0.520 J-0.074 F2400.00
G1 X26.821 Y-16.371 Z-1.000 F2400.00
G1 X25.406 Y-16.371 Z-1.000 F2400.00
G1 X73.012 Y31.235 Z-1.000 F2400.00
G1 X71.598 Y31.235 Z-1.000 F2400.00
G1 X23.992 Y-16.371 Z-1.000 F2400.00
G1 X22.578 Y-16.371 Z-1.000 F2400.00
G1 X70.183 Y31.235 Z-1.000 F2400.00
G1 X68.769 Y31.235 Z-1.000 F2400.00
G1 X21.164 Y-16.371 Z-1.000 F2400.00
G1 X19.750 Y-16.371 Z-1.000 F2400.00
G1 X67.355 Y31.235 Z-1.000 F2400.00
G1 X65.941 Y31.235 Z-1.000 F2400.00
G1 X18.335 Y-16.371 Z-1.000 F2400.00
G1 X16.921 Y-16.371 Z-1.000 F2400.00
G1 X64.527 Y31.235 Z-1.000 F2400.00
G1 X63.112 Y31.235 Z-1.000 F2400.00
G1 X15.507 Y-16.371 Z-1.000 F2400.00
G1 X14.093 Y-16.371 Z-1.000 F2400.00
G1 X61.698 Y31.235 Z-1.000 F2400.00
G1 X60.284 Y31.235 Z-1.000 F2400.00
G1 X12.679 Y-16.371 Z-1.000 F2400.00
G1 X11.264 Y-16.371 Z-1.000 F2400.00
G1 X58.870 Y31.235 Z-1.000 F2400.00
G1 X57.456 Y31.235 Z-1.000 F2400.00
G1 X9.850 Y-16.371 Z-1.000 F2400.00
G1 X8.436 Y-16.371 Z-1.000 F2400.00
G1 X56.041 Y31.235 Z-1.000 F2400.00
G1 X54.627 Y31.235 Z-1.000 F2400.00
G1 X7.022 Y-16.371 Z-1.000 F2400.00
G1 X5.607 Y-16.371 Z-1.000 F2400.00
G1 X53.213 Y31.235 Z-1.000 F2400.00
G1 X51.799 Y31.235 Z-1.000 F2400.00
G1 X4.193 Y-16.371 Z-1.000 F2400.00
G1 X2.779 Y-16.371 Z-1.000 F2400.00
G1 X50.385 Y31.235 Z-1.000 F2400.00
G1 X48.970 Y31.235 Z-1.000 F2400.00
G1 X1.365 Y-16.371 Z-1.000 F2400.00
G1 X-0.049 Y-16.371 Z-1.000 F2400.00
G1 X47.556 Y31.235 Z-1.000 F2400.00
G1 X46.142 Y31.235 Z-1.000 F2400.00
G1 X-1.464 Y-16.371 Z-1.000 F2400.00
G1 X-2.878 Y-16.371 Z-1.000 F2400.00
G1 X44.728 Y31.235 Z-1.000 F2400.00
G1 X43.313 Y31.235 Z-1.000 F2400.00
G1 X-4.292 Y-16.371 Z-1.000 F2400.00
G1 X-5.706 Y-16.371 Z-1.000 F2400.00
G1 X41.899 Y31.235 Z-1.000 F2400.00
G1 X40.485 Y31.235 Z-1.000 F2400.00
G1 X-7.120 Y-16.371 Z-1.000 F2400.00
G1 X-8.535 Y-16.371 Z-1.000 F2400.00
G1 X39.071 Y31.235 Z-1.000 F2400.00
G1 X37.657 Y31.235 Z-1.000 F2400.00
G1 X-9.949 Y-16.371 Z-1.000 F2400.00
G1 X-11.363 Y-16.371 Z-1.000 F2400.00
G1 X36.242 Y31.235 Z-1.000 F2400.00
G1 X34.828 Y31.235 Z-1.000 F2400.00
G1 X-12.777 Y-16.371 Z-1.000 F2400.00
G1 X-14.192 Y-16.371 Z-1.000 F2400.00
G1 X33.414 Y31.235 Z-1.000 F2400.00
G1 X32.000 Y31.235 Z-1.000 F2400.00
G1 X-15.606 Y-16.371 Z-1.000 F2400.00
G1 X-17.020 Y-16.371 Z-1.000 F2400.00
G1 X30.586 Y31.235 Z-1.000 F2400.00
G1 X29.171 Y31.235 Z-1.000 F2400.00
G1 X-18.434 Y-16.371 Z-1.000 F2400.00
G1 X-19.848 Y-16.371 Z-1.000 F2400.00
G1 X27.757 Y31.235 Z-1.000 F2400.00
G1 X26.343 Y31.235 Z-1.000 F2400.00
G1 X-21.263 Y-16.371 Z-1.000 F2400.00
G1 X-22.677 Y-16.371 Z-1.000 F2400.00
G1 X24.929 Y31.235 Z-1.000 F2400.00
G1 X23.514 Y31.235 Z-1.000 F2400.00
G1 X-24.091 Y-16.371 Z-1.000 F2400.00
G1 X-25.505 Y-16.371 Z-1.000 F2400.00
G1 X22.100 Y31.235 Z-1.000 F2400.00
G1 X20.686 Y31.235 Z-1.000 F2400.00
G1 X-26.919 Y-16.371 Z-1.000 F2400.00
G1 X-28.334 Y-16.371 Z-1.000 F2400.00
G1 X19.272 Y31.235 Z-1.000 F2400.00
G1 X17.858 Y31.235 Z-1.000 F2400.00
G1 X-29.748 Y-16.371 Z-1.000 F2400.00
G1 X-31.162 Y-16.371 Z-1.000 F2400.00
G1 X16.443 Y31.235 Z-1.000 F2400.00
G1 X15.029 Y31.235 Z-1.000 F2400.00
G1 X-32.576 Y-16.371 Z-1.000 F2400.00
G1 X-33.991 Y-16.371 Z-1.000 F2400.00
G1 X13.615 Y31.235 Z-1.000 F2400.00
G1 X12.201 Y31.235 Z-1.000 F2400.00
G1 X-35.405 Y-16.371 Z-1.000 F2400.00
G1 X-36.819 Y-16.371 Z-1.000 F2400.00
G1 X10.787 Y31.235 Z-1.000 F2400.00
G1 X9.372 Y31.235 Z-1.000 F2400.00
G1 X-38.233 Y-16.371 Z-1.000 F2400.00
G1 X-39.647 Y-16.371 Z-1.000 F2400.00
G1 X7.958 Y31.235 Z-1.000 F2400.00
G1 X6.544 Y31.235 Z-1.000 F2400.00
G1 X-41.062 Y-16.371 Z-1.000 F2400.00
G1 X-42.476 Y-16.371 Z-1.000 F2400.00
G1 X5.130 Y31.235 Z-1.000 F2400.00
G1 X3.715 Y31.235 Z-1.000 F2400.00
G1 X-43.890 Y-16.371 Z-1.000 F2400.00
G1 X-45.304 Y-16.371 Z-1.000 F2400.00
G1 X2.301 Y31.235 Z-1.000 F2400.00
G1 X0.887 Y31.235 Z-1.000 F2400.00
G1 X-46.718 Y-16.371 Z-1.000 F2400.00
G1 X-48.133 Y-16.371 Z-1.000 F2400.00
G1 X-0.527 Y31.235 Z-1.000 F2400.00
G1 X-1.941 Y31.235 Z-1.000 F2400.00
G1 X-49.547 Y-16.371 Z-1.000 F2400.00
G1 X-50.961 Y-16.371 Z-1.000 F2400.00
G1 X-3.356 Y31.235 Z-1.000 F2400.00
G1 X-4.770 Y31.235 Z-1.000 F2400.00
G1 X-52.375 Y-16.371 Z-1.000 F2400.00
G1 X-53.790 Y-16.371 Z-1.000 F2400.00
G1 X-6.184 Y31.235 Z-1.000 F2400.00
G1 X-7.598 Y31.235 Z-1.000 F2400.00
G1 X-55.204 Y-16.371 Z-1.000 F2400.00
G1 X-56.618 Y-16.371 Z-1.000 F2400.00
G1 X-9.012 Y31.235 Z-1.000 F2400.00
G1 X-10.427 Y31.235 Z-1.000 F2400.00
G1 X-58.032 Y-16.371 Z-1.000 F2400.00
G1 X-59.446 Y-16.371 Z-1.000 F2400.00
G1 X-11.841 Y31.235 Z-1.000 F2400.00
G1 X-13.255 Y31.235 Z-1.000 F2400.00
G1 X-60.861 Y-16.371 Z-1.000 F2400.00
G1 X-62.275 Y-16.371 Z-1.000 F2400.00
G1 X-14.669 Y31.235 Z-1.000 F2400.00
G1 X-16.084 Y31.235 Z-1.000 F2400.00
G1 X-63.689 Y-16.371 Z-1.000 F2400.00
G1 X-65.103 Y-16.371 Z-1.000 F2400.00
G1 X-17.498 Y31.235 Z-1.000 F2400.00
G1 X-18.912 Y31.235 Z-1.000 F2400.00
G1 X-66.517 Y-16.371 Z-1.000 F2400.00
G1 X-67.932 Y-16.371 Z-1.000 F2400.00
G1 X-20.326 Y31.235 Z-1.000 F2400.00
G1 X-21.740 Y31.235 Z-1.000 F2400.00
G1 X-69.346 Y-16.371 Z-1.000 F2400.00
G1 X-70.760 Y-16.371 Z-1.000 F2400.00
G1 X-23.155 Y31.235 Z-1.000 F2400.00
G1 X-24.569 Y31.235 Z-1.000 F2400.00
G1 X-72.174 Y-16.371 Z-1.000 F2400.00
G2 X-73.334 Y-16.337 Z-1.000 I-0.451 J4.423 F2400.00
G1 X-73.490 Y-16.272 Z-1.000 F2400.00
G1 X-25.983 Y31.235 Z-1.000 F2400.00
G1 X-27.397 Y31.235 Z-1.000 F2400.00
G1 X-74.067 Y-15.435 Z-1.000 F2400.00
G1 X-74.075 Y-15.371 Z-1.000 F2400.00
G1 X-74.075 Y-14.029 Z-1.000 F2400.00
G1 X-28.811 Y31.235 Z-1.000 F2400.00
G1 X-30.226 Y31.235 Z-1.000 F2400.00
G1 X-74.075 Y-12.615 Z-1.000 F2400.00
G1 X-74.075 Y-11.201 Z-1.000 F2400.00
G1 X-31.640 Y31.235 Z-1.000 F2400.00
G1 X-33.054 Y31.235 Z-1.000 F2400.00
G1 X-74.075 Y-9.787 Z-1.000 F2400.00
G1 X-74.075 Y-8.373 Z-1.000 F2400.00
G1 X-34.468 Y31.235 Z-1.000 F2400.00
G1 X-35.883 Y31.235 Z-1.000 F2400.00
G1 X-74.075 Y-6.958 Z-1.000 F2400.00
G1 X-74.075 Y-5.544 Z-1.000 F2400.00
G1 X-37.297 Y31.235 Z-1.000 F2400.00
G1 X-38.711 Y31.235 Z-1.000 F2400.00
G1 X-74.075 Y-4.130 Z-1.000 F2400.00
G1 X-74.075 Y-2.716 Z-1.000 F2400.00
G1 X-40.125 Y31.235 Z-1.000 F2400.00
G1 X-41.539 Y31.235 Z-1.000 F2400.00
G1 X-74.075 Y-1.302 Z-1.000 F2400.00
G1 X-74.075 Y0.113 Z-1.000 F2400.00
G1 X-42.954 Y31.235 Z-1.000 F2400.00
G1 X-44.368 Y31.235 Z-1.000 F2400.00
G1 X-74.075 Y1.527 Z-1.000 F2400.00
G1 X-74.075 Y2.941 Z-1.000 F2400.00
G1 X-45.782 Y31.235 Z-1.000 F2400.00
G1 X-47.196 Y31.235 Z-1.000 F2400.00
G1 X-74.075 Y4.355 Z-1.000 F2400.00
G1 X-74.075 Y5.770 Z-1.000 F2400.00
G1 X-48.610 Y31.235 Z-1.000 F2400.00
G1 X-50.025 Y31.235 Z-1.000 F2400.00
G1 X-74.075 Y7.184 Z-1.000 F2400.00
G1 X-74.075 Y8.598 Z-1.000 F2400.00
G1 X-51.439 Y31.235 Z-1.000 F2400.00
G1 X-52.853 Y31.235 Z-1.000 F2400.00
G1 X-74.075 Y10.012 Z-1.000 F2400.00
G1 X-74.075 Y11.426 Z-1.000 F2400.00
G1 X-54.267 Y31.235 Z-1.000 F2400.00
G1 X-55.682 Y31.235 Z-1.000 F2400.00
G1 X-74.075 Y12.841 Z-1.000 F2400.00
G1 X-74.075 Y14.255 Z-1.000 F2400.00
G1 X-57.096 Y31.235 Z-1.000 F2400.00
G1 X-58.510 Y31.235 Z-1.000 F2400.00
G1 X-74.075 Y15.669 Z-1.000 F2400.00
G1 X-74.075 Y17.083 Z-1.000 F2400.00
G1 X-59.924 Y31.235 Z-1.000 F2400.00
G1 X-61.338 Y31.235 Z-1.000 F2400.00
G1 X-74.075 Y18.497 Z-1.000 F2400.00
G1 X-74.075 Y19.912 Z-1.000 F2400.00
G1 X-62.753 Y31.235 Z-1.000 F2400.00
G1 X-64.167 Y31.235 Z-1.000 F2400.00
G1 X-74.075 Y21.326 Z-1.000 F2400.00
G1 X-74.075 Y22.740 Z-1.000 F2400.00
G1 X-65.581 Y31.235 Z-1.000 F2400.00
G1 X-66.995 Y31.235 Z-1.000 F2400.00
G1 X-74.075 Y24.154 Z-1.000 F2400.00
G1 X-74.075 Y25.569 Z-1.000 F2400.00
G1 X-68.409 Y31.235 Z-1.000 F2400.00
G1 X-69.824 Y31.235 Z-1.000 F2400.00
G1 X-74.075 Y26.983 Z-1.000 F2400.00
G1 X-74.075 Y28.397 Z-1.000 F2400.00
G1 X-71.238 Y31.235 Z-1.000 F2400.00
G1 X-72.652 Y31.235 Z-1.000 F2400.00
G1 X-74.075 Y29.811 Z-1.000 F2400.00
G2 X-74.041 Y30.493 Z-1.000 I2.608 J0.212 F2400.00
G2 X-73.075 Y31.235 Z-1.000 I0.966 J-0.259 F2400.00
G1 X-72.652 Y31.235 Z-1.000 F2400.00
G1 X-72.652 Y31.235 Z-3.000 F2100.00
G1 X-73.075 Y31.235 Z-3.000 F2400.00
G3 X-74.041 Y30.493 Z-3.000 I-0.000 J-1.000 F2400.00
G3 X-74.075 Y29.811 Z-3.000 I2.574 J-0.471 F2400.00
G1 X-72.652 Y31.235 Z-3.000 F2400.00
G1 X-71.238 Y31.235 Z-3.000 F2400.00
G1 X-74.075 Y28.397 Z-3.000 F2400.00
G1 X-74.075 Y26.983 Z-3.000 F2400.00
G1 X-69.824 Y31.235 Z-3.000 F2400.00
G1 X-68.409 Y31.235 Z-3.000 F2400.00
G1 X-74.075 Y25.569 Z-3.000 F2400.00
G1 X-74.075 Y24.154 Z-3.000 F2400.00
G1 X-66.995 Y31.235 Z-3.000 F2400.00
G1 X-65.581 Y31.235 Z-3.000 F2400.00
G1 X-74.075 Y22.740 Z-3.000 F2400.00
G1 X-74.075 Y21.326 Z-3.000 F2400.00
G1 X-64.167 Y31.235 Z-3.000 F2400.00
G1 X-62.753 Y31.235 Z-3.000 F2400.00
G1 X-74.075 Y19.912 Z-3.000 F2400.00
G1 X-74.075 Y18.497 Z-3.000 F2400.00
G1 X-61.338 Y31.235 Z-3.000 F2400.00
G1 X-59.924 Y31.235 Z-3.000 F2400.00
G1 X-74.075 Y17.083 Z-3.000 F2400.00
G1 X-74.075 Y15.669 Z-3.000 F2400.00
G1 X-58.510 Y31.235 Z-3.000 F2400.00
G1 X-57.096 Y31.235 Z-3.000 F2400.00
G1 X-74.075 Y14.255 Z-3.000 F2400.00
G1 X-74.075 Y12.841 Z-3.000 F2400.00
G1 X-55.682 Y31.235 Z-3.000 F2400.00
G1 X-54.267 Y31.235 Z-3.000 F2400.00
G1 X-74.075 Y11.426 Z-3.000 F2400.00
G1 X-74.075 Y10.012 Z-3.000 F2400.00
G1 X-52.853 Y31.235 Z-3.000 F2400.00
G1 X-51.439 Y31.235 Z-3.000 F2400.00
G1 X-74.075 Y8.598 Z-3.000 F2400.00
G1 X-74.075 Y7.184 Z-3.000 F2400.00
G1 X-50.025 Y31.235 Z-3.000 F2400.00
G1 X-48.610 Y31.235 Z-3.000 F2400.00
G1 X-74.075 Y5.770 Z-3.000 F2400.00
G1 X-74.075 Y4.355 Z-3.000 F2400.00
G1 X-47.196 Y31.235 Z-3.000 F2400.00
G1 X-45.782 Y31.235 Z-3.000 F2400.00
G1 X-74.075 Y2.941 Z-3.000 F2400.00
G1 X-74.075 Y1.527 Z-3.000 F2400.00
G1 X-44.368 Y31.235 Z-3.000 F2400.00
G1 X-42.954 Y31.235 Z-3.000 F2400.00
G1 X-74.075 Y0.113 Z-3.000 F2400.00
G1 X-74.075 Y-1.302 Z-3.000 F2400.00
G1 X-41.539 Y31.235 Z-3.000 F2400.00
G1 X-40.125 Y31.235 Z-3.000 F2400.00
G1 X-74.075 Y-2.716 Z-3.000 F2400.00
G1 X-74.075 Y-4.130 Z-3.000 F2400.00
G1 X-38.711 Y31.235 Z-3.000 F2400.00
G1 X-37.297 Y31.235 Z-3.000 F2400.00
G1 X-74.075 Y-5.544 Z-3.000 F2400.00
G1 X-74.075 Y-6.958 Z-3.000 F2400.00
G1 X-35.883 Y31.235 Z-3.000 F2400.00
G1 X-34.468 Y31.235 Z-3.000 F2400.00
G1 X-74.075 Y-8.373 Z-3.000 F2400.00
G1 X-74.075 Y-9.787 Z-3.000 F2400.00
G1 X-33.054 Y31.235 Z-3.000 F2400.00
G1 X-31.640 Y31.235 Z-3.000 F2400.00
G1 X-74.075 Y-11.201 Z-3.000 F2400.00
G1 X-74.075 Y-12.615 Z-3.000 F2400.00
G1 X-30.226 Y31.235 Z-3.000 F2400.00
G1 X-28.811 Y31.235 Z-3.000 F2400.00
G1 X-74.075 Y-14.029 Z-3.000 F2400.00
G1 X-74.075 Y-15.371 Z-3.000 F2400.00
G1 X-74.067 Y-15.435 Z-3.000 F2400.00
G1 X-27.397 Y31.235 Z-3.000 F2400.00
G1 X-25.983 Y31.235 Z-3.000 F2400.00
G1 X-73.490 Y-16.272 Z-3.000 F2400.00
G1 X-73.334 Y-16.337 Z-3.000 F2400.00
G3 X-72.174 Y-16.371 Z-3.000 I0.709 J4.388 F2400.00
G1 X-24.569 Y31.235 Z-3.000 F2400.00
G1 X-23.155 Y31.235 Z-3.000 F2400.00
G1 X-70.760 Y-16.371 Z-3.000 F2400.00
G1 X-69.346 Y-16.371 Z-3.000 F2400.00
G1 X-21.740 Y31.235 Z-3.000 F2400.00
G1 X-20.326 Y31.235 Z-3.000 F2400.00
G1 X-67.932 Y-16.371 Z-3.000 F2400.00
G1 X-66.517 Y-16.371 Z-3.000 F2400.00
G1 X-18.912 Y31.235 Z-3.000 F2400.00
G1 X-17.498 Y31.235 Z-3.000 F2400.00
G1 X-65.103 Y-16.371 Z-3.000 F2400.00
G1 X-63.689 Y-16.371 Z-3.000 F2400.00
G1 X-16.084 Y31.235 Z-3.000 F2400.00
G1 X-14.669 Y31.235 Z-3.000 F2400.00
G1 X-62.275 Y-16.371 Z-3.000 F2400.00
G1 X-60.861 Y-16.371 Z-3.000 F2400.00
G1 X-13.255 Y31.235 Z-3.000 F2400.00
G1 X-11.841 Y31.235 Z-3.000 F2400.00
G1 X-59.446 Y-16.371 Z-3.000 F2400.00
G1 X-58.032 Y-16.371 Z-3.000 F2400.00
G1 X-10.427 Y31.235 Z-3.000 F2400.00
G1 X-9.012 Y31.235 Z-3.000 F2400.00
G1 X-56.618 Y-16.371 Z-3.000 F2400.00
G1 X-55.204 Y-16.371 Z-3.000 F2400.00
G1 X-7.598 Y31.235 Z-3.000 F2400.00
G1 X-6.184 Y31.235 Z-3.000 F2400.00
G1 X-53.790 Y-16.371 Z-3.000 F2400.00
G1 X-52.375 Y-16.371 Z-3.000 F2400.00
G1 X-4.770 Y31.235 Z-3.000 F2400.00
G1 X-3.356 Y31.235 Z-3.000 F2400.00
G1 X-50.961 Y-16.371 Z-3.000 F2400.00
G1 X-49.547 Y-16.371 Z-3.000 F2400.00
G1 X-1.941 Y31.235 Z-3.000 F2400.00
G1 X-0.527 Y31.235 Z-3.000 F2400.00
G1 X-48.133 Y-16.371 Z-3.000 F2400.00
G1 X-46.718 Y-16.371 Z-3.000 F2400.00
G1 X0.887 Y31.235 Z-3.000 F2400.00
G1 X2.301 Y31.235 Z-3.000 F2400.00
G1 X-45.304 Y-16.371 Z-3.000 F2400.00
G1 X-43.890 Y-16.371 Z-3.000 F2400.00
G1 X3.715 Y31.235 Z-3.000 F2400.00
G1 X5.130 Y31.235 Z-3.000 F2400.00
G1 X-42.476 Y-16.371 Z-3.000 F2400.00
G1 X-41.062 Y-16.371 Z-3.000 F2400.00
G1 X6.544 Y31.235 Z-3.000 F2400.00
G1 X7.958 Y31.235 Z-3.000 F2400.00
G1 X-39.647 Y-16.371 Z-3.000 F2400.00
G1 X-38.233 Y-16.371 Z-3.000 F2400.00
G1 X9.372 Y31.235 Z-3.000 F2400.00
G1 X10.787 Y31.235 Z-3.000 F2400.00
G1 X-36.819 Y-16.371 Z-3.000 F2400.00
G1 X-35.405 Y-16.371 Z-3.000 F2400.00
G1 X12.201 Y31.235 Z-3.000 F2400.00
G1 X13.615 Y31.235 Z-3.000 F2400.00
G1 X-33.991 Y-16.371 Z-3.000 F2400.00
G1 X-32.576 Y-16.371 Z-3.000 F2400.00
G1 X15.029 Y31.235 Z-3.000 F2400.00
G1 X16.443 Y31.235 Z-3.000 F2400.00
G1 X-31.162 Y-16.371 Z-3.000 F2400.00
G1 X-29.748 Y-16.371 Z-3.000 F2400.00
G1 X17.858 Y31.235 Z-3.000 F2400.00
G1 X19.272 Y31.235 Z-3.000 F2400.00
G1 X-28.334 Y-16.371 Z-3.000 F2400.00
G1 X-26.919 Y-16.371 Z-3.000 F2400.00
G1 X20.686 Y31.235 Z-3.000 F2400.00
G1 X22.100 Y31.235 Z-3.000 F2400.00
G1 X-25.505 Y-16.371 Z-3.000 F2400.00
G1 X-24.091 Y-16.371 Z-3.000 F2400.00
G1 X23.514 Y31.235 Z-3.000 F2400.00
G1 X24.929 Y31.235 Z-3.000 F2400.00
G1 X-22.677 Y-16.371 Z-3.000 F2400.00
G1 X-21.263 Y-16.371 Z-3.000 F2400.00
G1 X26.343 Y31.235 Z-3.000 F2400.00
G1 X27.757 Y31.235 Z-3.000 F2400.00
G1 X-19.848 Y-16.371 Z-3.000 F2400.00
G1 X-18.434 Y-16.371 Z-3.000 F2400.00
G1 X29.171 Y31.235 Z-3.000 F2400.00
G1 X30.586 Y31.235 Z-3.000 F2400.00
G1 X-17.020 Y-16.371 Z-3.000 F2400.00
G1 X-15.606 Y-16.371 Z-3.000 F2400.00
G1 X32.000 Y31.235 Z-3.000 F2400.00
G1 X33.414 Y31.235 Z-3.000 F2400.00
G1 X-14.192 Y-16.371 Z-3.000 F2400.00
G1 X-12.777 Y-16.371 Z-3.000 F2400.00
G1 X34.828 Y31.235 Z-3.000 F2400.00
G1 X36.242 Y31.235 Z-3.000 F2400.00
G1 X-11.363 Y-16.371 Z-3.000 F2400.00
G1 X-9.949 Y-16.371 Z-3.000 F2400.00
G1 X37.657 Y31.235 Z-3.000 F2400.00
G1 X39.071 Y31.235 Z-3.000 F2400.00
G1 X-8.535 Y-16.371 Z-3.000 F2400.00
G1 X-7.120 Y-16.371 Z-3.000 F2400.00
G1 X40.485 Y31.235 Z-3.000 F2400.00
G1 X41.899 Y31.235 Z-3.000 F2400.00
G1 X-5.706 Y-16.371 Z-3.000 F2400.00
G1 X-4.292 Y-16.371 Z-3.000 F2400.00
G1 X43.313 Y31.235 Z-3.000 F2400.00
G1 X44.728 Y31.235 Z-3.000 F2400.00
G1 X-2.878 Y-16.371 Z-3.000 F2400.00
G1 X-1.464 Y-16.371 Z-3.000 F2400.00
G1 X46.142 Y31.235 Z-3.000 F2400.00
G1 X47.556 Y31.235 Z-3.000 F2400.00
G1 X-0.049 Y-16.371 Z-3.000 F2400.00
G1 X1.365 Y-16.371 Z-3.000 F2400.00
G1 X48.970 Y31.235 Z-3.000 F2400.00
G1 X50.385 Y31.235 Z-3.000 F2400.00
G1 X2.779 Y-16.371 Z-3.000 F2400.00
G1 X4.193 Y-16.371 Z-3.000 F2400.00
G1 X51.799 Y31.235 Z-3.000 F2400.00
G1 X53.213 Y31.235 Z-3.000 F2400.00
G1 X5.607 Y-16.371 Z-3.000 F2400.00
G1 X7.022 Y-16.371 Z-3.000 F2400.00
G1 X54.627 Y31.235 Z-3.000 F2400.00
G1 X56.041 Y31.235 Z-3.000 F2400.00
G1 X8.436 Y-16.371 Z-3.000 F2400.00
G1 X9.850 Y-16.371 Z-3.000 F2400.00
G1 X57.456 Y31.235 Z-3.000 F2400.00
G1 X58.870 Y31.235 Z-3.000 F2400.00
G1 X11.264 Y-16.371 Z-3.000 F2400.00
G1 X12.679 Y-16.371 Z-3.000 F2400.00
G1 X60.284 Y31.235 Z-3.000 F2400.00
G1 X61.698 Y31.235 Z-3.000 F2400.00
G1 X14.093 Y-16.371 Z-3.000 F2400.00
G1 X15.507 Y-16.371 Z-3.000 F2400.00
G1 X63.112 Y31.235 Z-3.000 F2400.00
G1 X64.527 Y31.235 Z-3.000 F2400.00
G1 X16.921 Y-16.371 Z-3.000 F2400.00
G1 X18.335 Y-16.371 Z-3.000 F2400.00
G1 X65.941 Y31.235 Z-3.000 F2400.00
G1 X67.355 Y31.235 Z-3.000 F2400.00
G1 X19.750 Y-16.371 Z-3.000 F2400.00
G1 X21.164 Y-16.371 Z-3.000 F2400.00
G1 X68.769 Y31.235 Z-3.000 F2400.00
G1 X70.183 Y31.235 Z-3.000 F2400.00
G1 X22.578 Y-16.371 Z-3.000 F2400.00
G1 X23.992 Y-16.371 Z-3.000 F2400.00
G1 X71.598 Y31.235 Z-3.000 F2400.00
G1 X73.012 Y31.235 Z-3.000 F2400.00
G1 X25.406 Y-16.371 Z-3.000 F2400.00
G1 X26.821 Y-16.371 Z-3.000 F2400.00
G1 X73.935 Y30.743 Z-3.000 F2400.00
G2 X74.041 Y30.493 Z-3.000 I-0.413 J-0.324 F2400.00
G2 X74.075 Y29.470 Z-3.000 I-3.871 J-0.641 F2400.00
G1 X28.235 Y-16.371 Z-3.000 F2400.00
G1 X29.649 Y-16.371 Z-3.000 F2400.00
G1 X74.075 Y28.056 Z-3.000 F2400.00
G1 X74.075 Y26.641 Z-3.000 F2400.00
G1 X31.063 Y-16.371 Z-3.000 F2400.00
G1 X32.477 Y-16.371 Z-3.000 F2400.00
G1 X74.075 Y25.227 Z-3.000 F2400.00
G1 X74.075 Y23.813 Z-3.000 F2400.00
G1 X33.892 Y-16.371 Z-3.000 F2400.00
G1 X35.306 Y-16.371 Z-3.000 F2400.00
G1 X74.075 Y22.399 Z-3.000 F2400.00
G1 X74.075 Y20.984 Z-3.000 F2400.00
G1 X36.720 Y-16.371 Z-3.000 F2400.00
G1 X38.134 Y-16.371 Z-3.000 F2400.00
G1 X74.075 Y19.570 Z-3.000 F2400.00
G1 X74.075 Y18.156 Z-3.000 F2400.00
G1 X39.549 Y-16.371 Z-3.000 F2400.00
G1 X40.963 Y-16.371 Z-3.000 F2400.00
G1 X74.075 Y16.742 Z-3.000 F2400.00
G1 X74.075 Y15.328 Z-3.000 F2400.00
G1 X42.377 Y-16.371 Z-3.000 F2400.00
G1 X43.791 Y-16.371 Z-3.000 F2400.00
G1 X74.075 Y13.913 Z-3.000 F2400.00
G1 X74.075 Y12.499 Z-3.000 F2400.00
G1 X45.205 Y-16.371 Z-3.000 F2400.00
G1 X46.620 Y-16.371 Z-3.000 F2400.00
G1 X74.075 Y11.085 Z-3.000 F2400.00
G1 X74.075 Y9.671 Z-3.000 F2400.00
G1 X48.034 Y-16.371 Z-3.000 F2400.00
G1 X49.448 Y-16.371 Z-3.000 F2400.00
G1 X74.075 Y8.257 Z-3.000 F2400.00
G1 X74.075 Y6.842 Z-3.000 F2400.00
G1 X50.862 Y-16.371 Z-3.000 F2400.00
G1 X52.276 Y-16.371 Z-3.000 F2400.00
G1 X74.075 Y5.428 Z-3.000 F2400.00
G1 X74.075 Y4.014 Z-3.000 F2400.00
G1 X53.691 Y-16.371 Z-3.000 F2400.00
G1 X55.105 Y-16.371 Z-3.000 F2400.00
G1 X74.075 Y2.600 Z-3.000 F2400.00
G1 X74.075 Y1.185 Z-3.000 F2400.00
G1 X56.519 Y-16.371 Z-3.000 F2400.00
G1 X57.933 Y-16.371 Z-3.000 F2400.00
G1 X74.075 Y-0.229 Z-3.000 F2400.00
G1 X74.075 Y-1.643 Z-3.000 F2400.00
G1 X59.348 Y-16.371 Z-3.000 F2400.00
G1 X60.762 Y-16.371 Z-3.000 F2400.00
G1 X74.075 Y-3.057 Z-3.000 F2400.00
G1 X74.075 Y-4.471 Z-3.000 F2400.00
G1 X62.176 Y-16.371 Z-3.000 F2400.00
G1 X63.590 Y-16.371 Z-3.000 F2400.00
G1 X74.075 Y-5.886 Z-3.000 F2400.00
G1 X74.075 Y-7.300 Z-3.000 F2400.00
G1 X65.004 Y-16.371 Z-3.000 F2400.00
G1 X66.419 Y-16.371 Z-3.000 F2400.00
G1 X74.075 Y-8.714 Z-3.000 F2400.00
G1 X74.075 Y-10.128 Z-3.000 F2400.00
G1 X67.833 Y-16.371 Z-3.000 F2400.00
G1 X69.247 Y-16.371 Z-3.000 F2400.00
G1 X74.075 Y-11.542 Z-3.000 F2400.00
G1 X74.075 Y-12.957 Z-3.000 F2400.00
G1 X70.661 Y-16.371 Z-3.000 F2400.00
G1 X72.075 Y-16.371 Z-3.000 F2400.00
G1 X74.075 Y-14.371 Z-3.000 F2400.00
G1 X74.075 Y-15.371 Z-3.000 F2400.00
G2 X73.783 Y-16.078 Z-3.000 I-1.000 J0.000 F2400.00
G1 X73.783 Y-16.078 Z-5.000 F2100.00
G3 X74.075 Y-15.371 Z-5.000 I-0.707 J0.707 F2400.00
G1 X74.075 Y-14.371 Z-5.000 F2400.00
G1 X72.075 Y-16.371 Z-5.000 F2400.00
G1 X70.661 Y-16.371 Z-5.000 F2400.00
G1 X74.075 Y-12.957 Z-5.000 F2400.00
G1 X74.075 Y-11.542 Z-5.000 F2400.00
G1 X69.247 Y-16.371 Z-5.000 F2400.00
G1 X67.833 Y-16.371 Z-5.000 F2400.00
G1 X74.075 Y-10.128 Z-5.000 F2400.00
G1 X74.075 Y-8.714 Z-5.000 F2400.00
G1 X66.419 Y-16.371 Z-5.000 F2400.00
G1 X65.004 Y-16.371 Z-5.000 F2400.00
G1 X74.075 Y-7.300 Z-5.000 F2400.00
G1 X74.075 Y-5.886 Z-5.000 F2400.00
G1 X63.590 Y-16.371 Z-5.000 F2400.00
G1 X62.176 Y-16.371 Z-5.000 F2400.00
G1 X74.075 Y-4.471 Z-5.000 F2400.00
G1 X74.075 Y-3.057 Z-5.000 F2400.00
G1 X60.762 Y-16.371 Z-5.000 F2400.00
G1 X59.348 Y-16.371 Z-5.000 F2400.00
G1 X74.075 Y-1.643 Z-5.000 F2400.00
G1 X74.075 Y-0.229 Z-5.000 F2400.00
G1 X57.933 Y-16.371 Z-5.000 F2400.00
G1 X56.519 Y-16.371 Z-5.000 F2400.00
G1 X74.075 Y1.185 Z-5.000 F2400.00
G1 X74.075 Y2.600 Z-5.000 F2400.00
G1 X55.105 Y-16.371 Z-5.000 F2400.00
G1 X53.691 Y-16.371 Z-5.000 F2400.00
G1 X74.075 Y4.014 Z-5.000 F2400.00
G1 X74.075 Y5.428 Z-5.000 F2400.00
G1 X52.276 Y-16.371 Z-5.000 F2400.00
G1 X50.862 Y-16.371 Z-5.000 F2400.00
G1 X74.075 Y6.842 Z-5.000 F2400.00
G1 X74.075 Y8.257 Z-5.000 F2400.00
G1 X49.448 Y-16.371 Z-5.000 F2400.00
G1 X48.034 Y-16.371 Z-5.000 F2400.00
G1 X74.075 Y9.671 Z-5.000 F2400.00
G1 X74.075 Y11.085 Z-5.000 F2400.00
G1 X46.620 Y-16.371 Z-5.000 F2400.00
G1 X45.205 Y-16.371 Z-5.000 F2400.00
G1 X74.075 Y12.499 Z-5.000 F2400.00
G1 X74.075 Y13.913 Z-5.000 F2400.00
G1 X43.791 Y-16.371 Z-5.000 F2400.00
G1 X42.377 Y-16.371 Z-5.000 F2400.00
G1 X74.075 Y15.328 Z-5.000 F2400.00
G1 X74.075 Y16.742 Z-5.000 F2400.00
G1 X40.963 Y-16.371 Z-5.000 F2400.00
G1 X39.549 Y-16.371 Z-5.000 F2400.00
G1 X74.075 Y18.156 Z-5.000 F2400.00
G1 X74.075 Y19.570 Z-5.000 F2400.00
G1 X38.134 Y-16.371 Z-5.000 F2400.00
G1 X36.720 Y-16.371 Z-5.000 F2400.00
G1 X74.075 Y20.984 Z-5.000 F2400.00
G1 X74.075 Y22.399 Z-5.000 F2400.00
G1 X35.306 Y-16.371 Z-5.000 F2400.00
G1 X33.892 Y-16.371 Z-5.000 F2400.00
G1 X74.075 Y23.813 Z-5.000 F2400.00
G1 X74.075 Y25.227 Z-5.000 F2400.00
G1 X32.477 Y-16.371 Z-5.000 F2400.00
G1 X31.063 Y-16.371 Z-5.000 F2400.00
G1 X74.075 Y26.641 Z-5.000 F2400.00
G1 X74.075 Y28.056 Z-5.000 F2400.00
G1 X29.649 Y-16.371 Z-5.000 F2400.00
G1 X28.235 Y-16.371 Z-5.000 F2400.00
G1 X74.075 Y29.470 Z-5.000 F2400.00
G3 X74.041 Y30.493 Z-5.000 I-3.905 J0.382 F2400.00
G3 X73.935 Y30.743 Z-5.000 I-0.520 J-0.074 F2400.00
G1 X26.821 Y-16.371 Z-5.000 F2400.00
G1 X25.406 Y-16.371 Z-5.000 F2400.00
G1 X73.012 Y31.235 Z-5.000 F2400.00
G1 X71.598 Y31.235 Z-5.000 F2400.00
G1 X23.992 Y-16.371 Z-5.000 F2400.00
G1 X22.578 Y-16.371 Z-5.000 F2400.00
G1 X70.183 Y31.235 Z-5.000 F2400.00
G1 X68.769 Y31.235 Z-5.000 F2400.00
G1 X21.164 Y-16.371 Z-5.000 F2400.00
G1 X19.750 Y-16.371 Z-5.000 F2400.00
G1 X67.355 Y31.235 Z-5.000 F2400.00
G1 X65.941 Y31.235 Z-5.000 F2400.00
G1 X18.335 Y-16.371 Z-5.000 F2400.00
G1 X16.921 Y-16.371 Z-5.000 F2400.00
G1 X64.527 Y31.235 Z-5.000 F2400.00
G1 X63.112 Y31.235 Z-5.000 F2400.00
G1 X15.507 Y-16.371 Z-5.000 F2400.00
G1 X14.093 Y-16.371 Z-5.000 F2400.00
G1 X61.698 Y31.235 Z-5.000 F2400.00
G1 X60.284 Y31.235 Z-5.000 F2400.00
G1 X12.679 Y-16.371 Z-5.000 F2400.00
G1 X11.264 Y-16.371 Z-5.000 F2400.00
G1 X58.870 Y31.235 Z-5.000 F2400.00
G1 X57.456 Y31.235 Z-5.000 F2400.00
G1 X9.850 Y-16.371 Z-5.000 F2400.00
G1 X8.436 Y-16.371 Z-5.000 F2400.00
G1 X56.041 Y31.235 Z-5.000 F2400.00
G1 X54.627 Y31.235 Z-5.000 F2400.00
G1 X7.022 Y-16.371 Z-5.000 F2400.00
G1 X5.607 Y-16.371 Z-5.000 F2400.00
G1 X53.213 Y31.235 Z-5.000 F2400.00
G1 X51.799 Y31.235 Z-5.000 F2400.00
G1 X4.193 Y-16.371 Z-5.000 F2400.00
G1 X2.779 Y-16.371 Z-5.000 F2400.00
G1 X50.385 Y31.235 Z-5.000 F2400.00
G1 X48.970 Y31.235 Z-5.000 F2400.00
G1 X1.365 Y-16.371 Z-5.000 F2400.00
G1 X-0.049 Y-16.371 Z-5.000 F2400.00
G1 X47.556 Y31.235 Z-5.000 F2400.00
G1 X46.142 Y31.235 Z-5.000 F2400.00
G1 X-1.464 Y-16.371 Z-5.000 F2400.00
G1 X-2.878 Y-16.371 Z-5.000 F2400.00
G1 X44.728 Y31.235 Z-5.000 F2400.00
G1 X43.313 Y31.235 Z-5.000 F2400.00
G1 X-4.292 Y-16.371 Z-5.000 F2400.00
G1 X-5.706 Y-16.371 Z-5.000 F2400.00
G1 X41.899 Y31.235 Z-5.000 F2400.00
G1 X40.485 Y31.235 Z-5.000 F2400.00
G1 X-7.120 Y-16.371 Z-5.000 F2400.00
G1 X-8.535 Y-16.371 Z-5.000 F2400.00
G1 X39.071 Y31.235 Z-5.000 F2400.00
G1 X37.657 Y31.235 Z-5.000 F2400.00
G1 X-9.949 Y-16.371 Z-5.000 F2400.00
G1 X-11.363 Y-16.371 Z-5.000 F2400.00
G1 X36.242 Y31.235 Z-5.000 F2400.00
G1 X34.828 Y31.235 Z-5.000 F2400.00
G1 X-12.777 Y-16.371 Z-5.000 F2400.00
G1 X-14.192 Y-16.371 Z-5.000 F2400.00
G1 X33.414 Y31.235 Z-5.000 F2400.00
G1 X32.000 Y31.235 Z-5.000 F2400.00
G1 X-15.606 Y-16.371 Z-5.000 F2400.00
G1 X-17.020 Y-16.371 Z-5.000 F2400.00
G1 X30.586 Y31.235 Z-5.000 F2400.00
G1 X29.171 Y31.235 Z-5.000 F2400.00
G1 X-18.434 Y-16.371 Z-5.000 F2400.00
G1 X-19.848 Y-16.371 Z-5.000 F2400.00
G1 X27.757 Y31.235 Z-5.000 F2400.00
G1 X26.343 Y31.235 Z-5.000 F2400.00
G1 X-21.263 Y-16.371 Z-5.000 F2400.00
G1 X-22.677 Y-16.371 Z-5.000 F2400.00
G1 X24.929 Y31.235 Z-5.000 F2400.00
G1 X23.514 Y31.235 Z-5.000 F2400.00
G1 X-24.091 Y-16.371 Z-5.000 F2400.00
G1 X-25.505 Y-16.371 Z-5.000 F2400.00
G1 X22.100 Y31.235 Z-5.000 F2400.00
G1 X20.686 Y31.235 Z-5.000 F2400.00
G1 X-26.919 Y-16.371 Z-5.000 F2400.00
G1 X-28.334 Y-16.371 Z-5.000 F2400.00
G1 X19.272 Y31.235 Z-5.000 F2400.00
G1 X17.858 Y31.235 Z-5.000 F2400.00
G1 X-29.748 Y-16.371 Z-5.000 F2400.00
G1 X-31.162 Y-16.371 Z-5.000 F2400.00
G1 X16.443 Y31.235 Z-5.000 F2400.00
G1 X15.029 Y31.235 Z-5.000 F2400.00
G1 X-32.576 Y-16.371 Z-5.000 F2400.00
G1 X-33.991 Y-16.371 Z-5.000 F2400.00
G1 X13.615 Y31.235 Z-5.000 F2400.00
G1 X12.201 Y31.235 Z-5.000 F2400.00
G1 X-35.405 Y-16.371 Z-5.000 F2400.00
G1 X-36.819 Y-16.371 Z-5.000 F2400.00
G1 X10.787 Y31.235 Z-5.000 F2400.00
G1 X9.372 Y31.235 Z-5.000 F2400.00
G1 X-38.233 Y-16.371 Z-5.000 F2400.00
G1 X-39.647 Y-16.371 Z-5.000 F2400.00
G1 X7.958 Y31.235 Z-5.000 F2400.00
G1 X6.544 Y31.235 Z-5.000 F2400.00
G1 X-41.062 Y-16.371 Z-5.000 F2400.00
G1 X-42.476 Y-16.371 Z-5.000 F2400.00
G1 X5.130 Y31.235 Z-5.000 F2400.00
G1 X3.715 Y31.235 Z-5.000 F2400.00
G1 X-43.890 Y-16.371 Z-5.000 F2400.00
G1 X-45.304 Y-16.371 Z-5.000 F2400.00
G1 X2.301 Y31.235 Z-5.000 F2400.00
G1 X0.887 Y31.235 Z-5.000 F2400.00
G1 X-46.718 Y-16.371 Z-5.000 F2400.00
G1 X-48.133 Y-16.371 Z-5.000 F2400.00
G1 X-0.527 Y31.235 Z-5.000 F2400.00
G1 X-1.941 Y31.235 Z-5.000 F2400.00
G1 X-49.547 Y-16.371 Z-5.000 F2400.00
G1 X-50.961 Y-16.371 Z-5.000 F2400.00
G1 X-3.356 Y31.235 Z-5.000 F2400.00
G1 X-4.770 Y31.235 Z-5.000 F2400.00
G1 X-52.375 Y-16.371 Z-5.000 F2400.00
G1 X-53.790 Y-16.371 Z-5.000 F2400.00
G1 X-6.184 Y31.235 Z-5.000 F2400.00
G1 X-7.598 Y31.235 Z-5.000 F2400.00
G1 X-55.204 Y-16.371 Z-5.000 F2400.00
G1 X-56.618 Y-16.371 Z-5.000 F2400.00
G1 X-9.012 Y31.235 Z-5.000 F2400.00
G1 X-10.427 Y31.235 Z-5.000 F2400.00
G1 X-58.032 Y-16.371 Z-5.000 F2400.00
G1 X-59.446 Y-16.371 Z-5.000 F2400.00
G1 X-11.841 Y31.235 Z-5.000 F2400.00
G1 X-13.255 Y31.235 Z-5.000 F2400.00
G1 X-60.861 Y-16.371 Z-5.000 F2400.00
G1 X-62.275 Y-16.371 Z-5.000 F2400.00
G1 X-14.669 Y31.235 Z-5.000 F2400.00
G1 X-16.084 Y31.235 Z-5.000 F2400.00
G1 X-63.689 Y-16.371 Z-5.000 F2400.00
G1 X-65.103 Y-16.371 Z-5.000 F2400.00
G1 X-17.498 Y31.235 Z-5.000 F2400.00
G1 X-18.912 Y31.235 Z-5.000 F2400.00
G1 X-66.517 Y-16.371 Z-5.000 F2400.00
G1 X-67.932 Y-16.371 Z-5.000 F2400.00
G1 X-20.326 Y31.235 Z-5.000 F2400.00
G1 X-21.740 Y31.235 Z-5.000 F2400.00
G1 X-69.346 Y-16.371 Z-5.000 F2400.00
G1 X-70.760 Y-16.371 Z-5.000 F2400.00
G1 X-23.155 Y31.235 Z-5.000 F2400.00
G1 X-24.569 Y31.235 Z-5.000 F2400.00
G1 X-72.174 Y-16.371 Z-5.000 F2400.00
G2 X-73.334 Y-16.337 Z-5.000 I-0.451 J4.423 F2400.00
G1 X-73.490 Y-16.272 Z-5.000 F2400.00
G1 X-25.983 Y31.235 Z-5.000 F2400.00
G1 X-27.397 Y31.235 Z-5.000 F2400.00
G1 X-74.067 Y-15.435 Z-5.000 F2400.00
G1 X-74.075 Y-15.371 Z-5.000 F2400.00
G1 X-74.075 Y-14.029 Z-5.000 F2400.00
G1 X-28.811 Y31.235 Z-5.000 F2400.00
G1 X-30.226 Y31.235 Z-5.000 F2400.00
G1 X-74.075 Y-12.615 Z-5.000 F2400.00
G1 X-74.075 Y-11.201 Z-5.000 F2400.00
G1 X-31.640 Y31.235 Z-5.000 F2400.00
G1 X-33.054 Y31.235 Z-5.000 F2400.00
G1 X-74.075 Y-9.787 Z-5.000 F2400.00
G1 X-74.075 Y-8.373 Z-5.000 F2400.00
G1 X-34.468 Y31.235 Z-5.000 F2400.00
G1 X-35.883 Y31.235 Z-5.000 F2400.00
G1 X-74.075 Y-6.958 Z-5.000 F2400.00
G1 X-74.075 Y-5.544 Z-5.000 F2400.00
G1 X-37.297 Y31.235 Z-5.000 F2400.00
G1 X-38.711 Y31.235 Z-5.000 F2400.00
G1 X-74.075 Y-4.130 Z-5.000 F2400.00
G1 X-74.075 Y-2.716 Z-5.000 F2400.00
G1 X-40.125 Y31.235 Z-5.000 F2400.00
G1 X-41.539 Y31.235 Z-5.000 F2400.00
G1 X-74.075 Y-1.302 Z-5.000 F2400.00
G1 X-74.075 Y0.113 Z-5.000 F2400.00
G1 X-42.954 Y31.235 Z-5.000 F2400.00
G1 X-44.368 Y31.235 Z-5.000 F2400.00
G1 X-74.075 Y1.527 Z-5.000 F2400.00
G1 X-74.075 Y2.941 Z-5.000 F2400.00
G1 X-45.782 Y31.235 Z-5.000 F2400.00
G1 X-47.196 Y31.235 Z-5.000 F2400.00
G1 X-74.075 Y4.355 Z-5.000 F2400.00
G1 X-74.075 Y5.770 Z-5.000 F2400.00
G1 X-48.610 Y31.235 Z-5.000 F2400.00
G1 X-50.025 Y31.235 Z-5.000 F2400.00
G1 X-74.075 Y7.184 Z-5.000 F2400.00
G1 X-74.075 Y8.598 Z-5.000 F2400.00
G1 X-51.439 Y31.235 Z-5.000 F2400.00
G1 X-52.853 Y31.235 Z-5.000 F2400.00
G1 X-74.075 Y10.012 Z-5.000 F2400.00
G1 X-74.075 Y11.426 Z-5.000 F2400.00
G1 X-54.267 Y31.235 Z-5.000 F2400.00
G1 X-55.682 Y31.235 Z-5.000 F2400.00
G1 X-74.075 Y12.841 Z-5.000 F2400.00
G1 X-74.075 Y14.255 Z-5.000 F2400.00
G1 X-57.096 Y31.235 Z-5.000 F2400.00
G1 X-58.510 Y31.235 Z-5.000 F2400.00
G1 X-74.075 Y15.669 Z-5.000 F2400.00
G1 X-74.075 Y17.083 Z-5.000 F2400.00
G1 X-59.924 Y31.235 Z-5.000 F2400.00
G1 X-61.338 Y31.235 Z-5.000 F2400.00
G1 X-74.075 Y18.497 Z-5.000 F2400.00
G1 X-74.075 Y19.912 Z-5.000 F2400.00
G1 X-62.753 Y31.235 Z-5.000 F2400.00
G1 X-64.167 Y31.235 Z-5.000 F2400.00
G1 X-74.075 Y21.326 Z-5.000 F2400.00
G1 X-74.075 Y22.740 Z-5.000 F2400.00
G1 X-65.581 Y31.235 Z-5.000 F2400.00
G1 X-66.995 Y31.235 Z-5.000 F2400.00
G1 X-74.075 Y24.154 Z-5.000 F2400.00
G1 X-74.075 Y25.569 Z-5.000 F2400.00
G1 X-68.409 Y31.235 Z-5.000 F2400.00
G1 X-69.824 Y31.235 Z-5.000 F2400.00
G1 X-74.075 Y26.983 Z-5.000 F2400.00
G1 X-74.075 Y28.397 Z-5.000 F2400.00
G1 X-71.238 Y31.235 Z-5.000 F2400.00
G1 X-72.652 Y31.235 Z-5.000 F2400.00
G1 X-74.075 Y29.811 Z-5.000 F2400.00
G2 X-74.041 Y30.493 Z-5.000 I2.608 J0.212 F2400.00
G2 X-73.075 Y31.235 Z-5.000 I0.966 J-0.259 F2400.00
G1 X-72.652 Y31.235 Z-5.000 F2400.00
G0 Z6.000
(finish operation: MillFace)
(begin postamble)
M5
G17 G90
; M2
