(Created with emc2b post processor 2019/06/05 15:00)
(tool change to 2 mm Ball End Mill)
T4 M06 G43
G17 G90 G21
G00 Z5 S10000 M03
X-64.674 Y22.694
Z2
G01 Z-0.2 F600
G03 X-65.552 Y21.563 I8.833 J-7.763
G02 X-65.744 Y22.468 I5.553 J1.651
X-64.674 Y22.694 I2.085 J-7.224
G00 Z5
X-61.975 Y23.947
Z2
G01 Z-0.2
G03 X-65.08 Y20.496 I9.678 J-11.83
X-65.797 Y19.168 I8.89 J-5.657
G02 X-66.315 Y20.593 I19.96 J8.062
X-66.837 Y23.198 I10.295 J3.418
G01 X-66.759 Y23.229
G02 X-63.605 Y23.841 I4.338 J-13.921
G01 X-61.975 Y23.947
G00 Z5
X-59.542 Y25.038
Z2
G01 Z-0.2
X-58.616 Y25.029
G03 X-63.77 Y20.648 I7.608 J-14.172
X-65.691 Y16.333 I8.811 J-6.508
G02 X-67.267 Y20.285 I37.057 J17.068
X-67.87 Y23.562 I11.704 J3.848
X-67.847 Y23.794 I1.459 J-0.027
X-67.085 Y24.177 I1.56 J-2.154
X-63.694 Y24.838 I4.677 J-14.964
X-59.583 Y25.038 I5.12 J-62.888
G01 X-59.542 Y25.038
G00 Z5
X-59.574 Y26.038
Z2
G01 Z-0.2
G02 X-54.252 Y25.934 I0.24 J-123.944
G03 X-59.121 Y23.588 I9.707 J-26.372
X-62.944 Y20.087 I8.419 J-13.031
X-64.929 Y13.885 I8.094 J-6.009
G02 X-64.886 Y13.055 I-3.077 J-0.576
G03 X-64.83 Y12.487 I8.278 J0.529
G02 X-66.607 Y15.931 I52.998 J29.526
X-68.219 Y19.978 I38.04 J17.497
X-68.873 Y23.562 I12.655 J4.161
X-68.805 Y24.145 I3.48 J-0.11
X-68.577 Y24.507 I0.666 J-0.167
X-67.402 Y25.127 I2.32 J-2.974
X-63.782 Y25.835 I4.99 J-15.907
X-59.615 Y26.038 I5.192 J-63.708
G01 X-59.574 Y26.038
G00 Z5
X-59.572 Y27.038
Z2
G01 Z-0.2
G02 X-48.164 Y26.564 I0.167 J-133.5
G03 X-57.788 Y23.226 I5.354 J-30.98
X-62.118 Y19.526 I7.132 J-12.73
X-63.944 Y14.273 I7.424 J-5.524
X-63.882 Y13.584 I3.46 J-0.036
X-63.851 Y12.712 I3.757 J-0.303
X-62.456 Y6.778 I24.131 J2.542
G02 X-67.515 Y15.509 I51.723 J35.801
X-69.171 Y19.67 I39.095 J17.969
X-69.876 Y23.562 I13.63 J4.479
X-69.777 Y24.402 I4.591 J-0.115
X-69.229 Y25.272 I1.613 J-0.409
X-67.721 Y26.078 I2.974 J-3.75
X-63.87 Y26.832 I5.317 J-16.945
X-59.606 Y27.038 I5.201 J-63.413
G01 X-59.572 Y27.038
G00 Z5
X-57.424 Y28.033
Z2
G01 Z-0.2
G02 X-38.287 Y26.426 I-2.652 J-146.331
G03 X-49.267 Y25.337 I-0.461 J-51.246
X-57.271 Y22.371 I6.577 J-30.032
X-60.878 Y19.478 I6.954 J-12.366
X-62.922 Y14.828 I6.429 J-5.6
X-62.916 Y13.842 I4.442 J-0.466
G02 X-62.886 Y13.499 I-0.477 J-0.215
G03 X-62.86 Y12.841 I2.562 J-0.228
X-61.648 Y7.471 I23.394 J2.458
X-60.021 Y3.731 I24.728 J8.533
X-55.732 Y-3.009 I35.716 J17.993
G01 X-55.818 Y-2.926
G02 X-61.403 Y3.599 I43.868 J43.201
X-67.759 Y13.711 I54.413 J41.255
X-70.124 Y19.365 I39.079 J19.668
X-70.864 Y23.052 I16.434 J5.216
X-70.751 Y24.646 I5.599 J0.404
X-69.877 Y26.038 I2.567 J-0.641
X-68.034 Y27.029 I3.601 J-4.489
X-63.959 Y27.829 I5.601 J-17.753
X-57.424 Y28.033 I5.291 J-64.714
G00 Z5
X57.452 Y7.946
Z2
G01 Z-0.2
X52.812 Y8.364
G03 X60.589 Y8.323 I7.761 J734.527
X61.096 Y8.337 I0.158 J3.449
G02 X60.102 Y6.914 I-20.553 J13.298
G03 X57.452 Y7.946 I-3.135 J-4.131
G00 Z5
X63.704 Y10.584
Z2
G01 Z-0.2
X63.762 Y10.645
G02 X60.244 Y5.401 I-52.781 J31.607
G03 X57.364 Y6.951 I-3.274 J-2.632
G01 X29.123 Y9.49
X60.563 Y9.323
G03 X63.704 Y10.584 I0.136 J4.205
G00 Z5
X4.273 Y15.914
Z2
G01 Z-0.2
G03 X3.897 Y13.764 I5.596 J-2.087
G01 X-3.968 Y14.471
G03 X-4.265 Y15.907 I-5.188 J-0.324
X4.273 Y15.914 I4.213 J68.056
G00 Z5
X-5.777 Y16.932
Z2
G01 Z-0.2
X-5.827 Y17.026
G03 X-3.361 Y16.861 I4.148 J43.482
G01 X-3.329 Y16.859
X-1.13 Y16.789
G03 X5.824 Y17.022 I1.185 J68.52
X5.131 Y15.351 I11.075 J-5.572
X5.028 Y12.659 I4.932 J-1.537
G01 X-4.952 Y13.556
G03 X-5.361 Y15.996 I-5.219 J0.379
X-5.777 Y16.932 I-11.282 J-4.454
G00 Z5
X-7.613 Y18.113
Z2
G01 Z-0.2
X-7.683 Y18.209
G03 X7.684 Y18.204 I7.706 J68.984
X6.102 Y15.106 I10.069 J-7.094
X6.581 Y11.506 I4 J-1.3
X6.42 Y11.53 I-0.358 J-1.851
G01 X-5.217 Y12.576
G03 X-6.173 Y12.539 I-0.329 J-3.864
X-6.278 Y15.593 I-3.981 J1.392
X-7.613 Y18.113 I-12.167 J-4.832
G00 Z5
X64.931 Y22.404
Z2
G01 Z-0.2
X64.701 Y22.672
X65.593 Y22.533
X65.745 Y22.493
G02 X65.536 Y21.582 I-7.192 J1.17
G03 X64.931 Y22.404 I-9.738 J-6.534
G00 Z5
X61.992 Y23.94
Z2
G01 Z-0.2
X61.956 Y23.969
G02 X65.799 Y23.513 I-2.068 J-33.853
X66.847 Y23.184 I-1.166 J-5.547
X66.781 Y22.541 I-3.481 J0.032
X65.8 Y19.13 I-20.08 J3.929
G03 X61.992 Y23.94 I-12.219 J-5.762
G00 Z5
X59.077 Y25.039
Z2
G01 Z-0.2
G02 X66.005 Y24.495 I0.619 J-36.499
X67.834 Y23.823 I-1.441 J-6.746
G01 X67.836 Y23.822
G02 X67.766 Y22.363 I-5.366 J-0.474
X66.412 Y17.956 I-21.733 J4.266
G01 X65.711 Y16.388
G03 X63.273 Y21.279 I-11.649 J-2.754
X61.378 Y23.152 I-9.764 J-7.983
X58.645 Y25.034 I-11.871 J-14.314
G02 X59.077 Y25.039 I0.423 J-17.839
G00 Z5
X59.067 Y26.04
Z2
G01 Z-0.2
G02 X65.498 Y25.604 I0.486 J-40.482
X68.304 Y24.718 I-1.185 J-8.639
X68.789 Y24.194 I-0.594 J-1.036
G01 X68.826 Y24.033
G02 X68.752 Y22.187 I-6.413 J-0.667
X67.334 Y17.57 I-22.499 J4.384
X64.698 Y12.228 I-46.949 J19.845
G03 X64.925 Y13.567 I-5.004 J1.537
X63.873 Y18.546 I-9.278 J0.64
X60.762 Y22.366 I-10.406 J-5.298
X57.161 Y24.685 I-11.233 J-13.488
X54.325 Y25.902 I-15.032 J-31.116
G01 X54.243 Y25.931
G02 X59.067 Y26.04 I4.813 J-106.228
G00 Z5
X59.055 Y27.041
Z2
G01 Z-0.2
G02 X65.653 Y26.594 I0.483 J-41.789
X68.547 Y25.729 I-1.577 J-10.549
X69.596 Y24.837 I-1.148 J-2.413
X69.82 Y24.175 I-1.446 J-0.858
X69.738 Y22.013 I-7.436 J-0.801
X68.256 Y17.183 I-23.384 J4.533
X64.48 Y9.896 I-48.63 J20.577
X60.086 Y3.536 I-56.489 J34.329
G03 X57.275 Y5.957 I-3.112 J-0.771
G01 X10.553 Y10.156
G03 X8.366 Y9.533 I-0.272 J-3.196
X6.332 Y10.535 I-2.334 J-2.173
G01 X-5.307 Y11.581
G03 X-7.555 Y10.911 I-0.264 J-3.221
X-8.132 Y11.423 I-2.139 J-1.829
X-7.195 Y15.194 I-2.028 J2.506
X-10.123 Y19.533 I-11.237 J-4.426
X2.153 Y18.817 I10.04 J66.549
X10.129 Y19.533 I-1.691 J63.615
X7.07 Y14.853 I8.163 J-8.676
X9.336 Y10.69 I3.036 J-1.046
X9.939 Y10.593 I0.818 J3.16
G01 X60.569 Y10.323
G03 X63.849 Y12.926 I0.134 J3.199
X63.001 Y18.058 I-8.17 J1.286
X60.145 Y21.58 I-9.483 J-4.771
X56.747 Y23.776 I-10.557 J-12.608
X48.226 Y26.572 I-14.658 J-30.289
G02 X59.055 Y27.041 I11.388 J-137.69
G00 Z5
X59.041 Y28.041
Z2
G01 Z-0.2
G02 X65.81 Y27.583 I0.512 J-42.689
X68.997 Y26.626 I-1.733 J-11.555
X70.252 Y25.652 I-1.847 J-3.675
X70.814 Y24.306 I-2.104 J-1.669
X70.723 Y21.834 I-8.479 J-0.926
X69.179 Y16.798 I-24.229 J4.674
X65.333 Y9.373 I-49.576 J20.971
X55.687 Y-3.067 I-60.323 J36.815
G03 X58.936 Y1.755 I-28.047 J22.403
X57.187 Y4.962 I-1.954 J1.015
G01 X10.464 Y9.161
G03 X8.236 Y7.793 I-0.192 J-2.185
X7.457 Y9.033 I-2.471 J-0.688
X6.244 Y9.54 I-1.434 J-1.726
G01 X-5.397 Y10.586
G03 X-7.622 Y9.246 I-0.183 J-2.214
G01 X-7.748 Y8.938
G03 X-9.738 Y10.976 I-2.187 J-0.145
G01 X-18.28 Y11.744
X-10.139 Y11.701
G03 X-8.111 Y14.792 I-0.021 J2.224
X-11.262 Y19.228 I-10.491 J-4.115
X-14.114 Y21.28 I-12.737 J-14.695
X-1.744 Y19.801 I14.062 J65.139
X4.042 Y19.895 I1.589 J80.302
X14.137 Y21.293 I-3.846 J64.919
X10.573 Y18.585 I9.453 J-16.14
X8.037 Y14.593 I7.971 J-7.865
X8.44 Y12.344 I2.122 J-0.78
X10.375 Y11.59 I1.737 J1.598
G01 X60.575 Y11.323
G03 X62.856 Y13.042 I0.129 J2.201
X62.127 Y17.575 I-7.169 J1.172
X59.525 Y20.797 I-8.594 J-4.278
X56.332 Y22.868 I-9.891 J-11.752
X46.944 Y25.782 I-14.396 J-29.798
X38.289 Y26.426 I-8.387 J-54.229
G02 X41.67 Y26.898 I15.307 J-97.303
X59.041 Y28.041 I17.962 J-140.407
G00 Z5
X-57.413 Y29.034
Z2
G01 Z-0.2
X-57.383 Y29.034
G02 X-48.839 Y28.633 I-1.672 J-126.848
X-38.394 Y27.455 I-11.747 J-151.051
G01 X-38.394 Y25.428
G03 X-48.999 Y24.371 I-0.359 J-50.123
G02 X-49.029 Y24.366 I-0.018 J0.017
G03 X-55.955 Y21.94 I6.549 J-29.795
X-59.623 Y19.363 I6.254 J-12.8
X-61.725 Y15.851 I5.642 J-5.762
X-61.942 Y14.123 I5.298 J-1.543
X-61.878 Y13.795 I1.047 J0.034
G01 X-61.837 Y13.702
G03 X-61.868 Y12.965 I1.471 J-0.431
X-61.11 Y9.079 I21.305 J2.139
X-59.138 Y4.199 I24.421 J7.03
X-52.848 Y-4.852 I35.079 J17.667
X-42.575 Y-11.923 I20.971 J19.47
X-31.418 Y-13.969 I10.889 J27.934
X-24.582 Y-13.106 I0.26 J25.447
X-19.507 Y-10.849 I-4.803 J17.633
X-14.942 Y-6.616 I-9.786 J15.131
X-11.616 Y-0.869 I-21.765 J16.432
G02 X-11.119 Y0.27 I32.538 J-13.52
G03 X-10.936 Y0.711 I-0.992 J0.67
G02 X-10.127 Y2.976 I66.703 J-22.548
G03 X-8.745 Y8.679 I-29.367 J10.135
X-9.829 Y9.981 I-1.188 J0.113
G01 X-41.994 Y12.871
X-10.134 Y12.701
X-9.853 Y12.732
G03 X-9.028 Y14.393 I-0.313 J1.191
X-11.896 Y18.455 I-9.566 J-3.711
X-16.568 Y21.427 I-12.335 J-14.233
X-25.356 Y24.16 I-16.145 J-36.419
X-38.394 Y25.428 I-13.085 J-66.877
G01 X-38.394 Y27.455
G02 X-23.106 Y24.418 I-21.604 J-148.749
G03 X-15.032 Y22.498 I59.438 J232.012
X-5.227 Y20.971 I16.193 J71.734
X0.001 Y20.8 I4.412 J54.89
X11.85 Y21.858 I0.563 J60.571
X19.845 Y23.619 I-24.909 J132.117
G02 X28.452 Y25.667 I65.478 J-256.07
X38.394 Y27.455 I31.29 J-145.45
G01 X38.394 Y25.428
G03 X23.796 Y23.823 I-0.048 J-66.75
X16.538 Y21.413 I8.148 J-36.673
X11.896 Y18.455 I7.662 J-17.146
X9.111 Y14.598 I6.685 J-7.761
X8.9 Y13.799 I1.906 J-0.931
X10.086 Y12.593 I1.187 J-0.019
G01 X10.375 Y12.591
X10.375 Y8.166
G03 X9.093 Y6.728 I-0.106 J-1.196
X10.839 Y1.067 I32.567 J6.945
X10.951 Y0.778 I0.777 J0.135
X14.445 Y-5.948 I28.109 J10.332
X18.939 Y-10.469 I15.273 J10.687
X19.753 Y-11.005 I0.975 J0.594
X26.994 Y-13.631 I10.082 J16.504
X41.694 Y-12.257 I4.569 J30.435
X52.195 Y-5.523 I-9.692 J26.669
X58.025 Y2.166 I-26.286 J25.985
X58.178 Y2.666 I-0.885 J0.544
G01 X58.19 Y2.74
G03 X57.098 Y3.968 I-1.201 J0.031
G01 X10.375 Y8.166
X10.375 Y12.591
X60.581 Y12.323
G03 X61.865 Y13.174 I0.121 J1.212
X61.943 Y14.199 I-4.483 J0.857
X61.534 Y16.441 I-5.729 J0.113
X59.569 Y19.417 I-7.675 J-2.931
X55.919 Y21.959 I-9.964 J-10.416
X46.808 Y24.792 I-13.955 J-28.812
X38.394 Y25.428 I-8.277 J-53.53
G01 X38.394 Y27.455
G02 X57.398 Y29.033 I21.503 J-143.742
X60.712 Y29.018 I1.269 J-85.83
X65.97 Y28.571 I-0.587 J-38.055
X68.997 Y27.728 I-2.074 J-13.304
X70.697 Y26.649 I-2.139 J-5.249
X71.807 Y24.439 I-2.53 J-2.655
X71.708 Y21.655 I-9.381 J-1.06
X70.102 Y16.412 I-25.126 J4.829
X66.185 Y8.849 I-50.483 J21.35
X56.745 Y-3.422 I-61.78 J37.76
X51.729 Y-7.891 I-29.72 J28.309
X45.904 Y-11.181 I-16.742 J22.841
X31.434 Y-14.169 I-14.985 J36.039
X23.907 Y-13.163 I-0.325 J26.231
X14.857 Y-7.313 I5.263 J18.067
X10.296 Y0.044 I22.314 J18.926
X9.586 Y1.711 I42.218 J18.966
X7.16 Y7.799 I494.206 J200.463
G03 X6.155 Y8.545 I-1.114 J-0.451
G01 X-5.487 Y9.591
G03 X-6.697 Y8.869 I-0.106 J-1.197
X-8.81 Y3.582 I154.538 J-64.828
G02 X-9.503 Y1.864 I-129.222 J51.126
G03 X-9.704 Y1.385 I0.739 J-0.592
G02 X-13.179 Y-5.185 I-32.192 J12.823
X-16.183 Y-8.715 I-18.281 J12.514
X-16.439 Y-8.951 I-0.566 J0.357
X-24.752 Y-13.396 I-12.773 J13.892
X-33.485 Y-14.099 I-6.633 J27.808
X-47.164 Y-10.615 I2.587 J38.752
X-53.714 Y-6.296 I11.852 J25.101
X-61.61 Y2.223 I39.481 J44.512
X-62.157 Y2.945 I15.456 J12.278
G01 X-62.183 Y2.972
G02 X-68.654 Y13.263 I55.196 J41.887
X-70.725 Y18.028 I44.298 J22.086
X-71.799 Y22.29 I18.971 J7.047
X-71.807 Y24.439 I8.077 J1.105
X-70.52 Y26.809 I3.631 J-0.437
X-68.347 Y27.98 I4.23 J-5.247
X-64.05 Y28.826 I5.921 J-18.74
X-60.124 Y29.03 I4.734 J-53.222
G01 X-57.413 Y29.034
G00 Z5
X-64.674 Y22.694
Z1.8
G01 Z-0.4
G03 X-65.552 Y21.563 I8.833 J-7.763
G02 X-65.744 Y22.468 I5.553 J1.651
X-64.674 Y22.694 I2.085 J-7.224
G00 Z5
X-61.975 Y23.947
Z1.8
G01 Z-0.4
G03 X-65.08 Y20.496 I9.678 J-11.83
X-65.797 Y19.168 I8.89 J-5.657
G02 X-66.315 Y20.593 I19.96 J8.062
X-66.837 Y23.198 I10.295 J3.418
G01 X-66.759 Y23.229
G02 X-63.605 Y23.841 I4.338 J-13.921
G01 X-61.975 Y23.947
G00 Z5
X-59.542 Y25.038
Z1.8
G01 Z-0.4
X-58.616 Y25.029
G03 X-63.77 Y20.648 I7.608 J-14.172
X-65.691 Y16.333 I8.811 J-6.508
G02 X-67.267 Y20.285 I37.057 J17.068
X-67.87 Y23.562 I11.704 J3.848
X-67.847 Y23.794 I1.459 J-0.027
X-67.085 Y24.177 I1.56 J-2.154
X-63.694 Y24.838 I4.677 J-14.964
X-59.583 Y25.038 I5.12 J-62.888
G01 X-59.542 Y25.038
G00 Z5
X-59.574 Y26.038
Z1.8
G01 Z-0.4
G02 X-54.252 Y25.934 I0.24 J-123.944
G03 X-59.121 Y23.588 I9.707 J-26.372
X-62.944 Y20.087 I8.419 J-13.031
X-64.929 Y13.885 I8.094 J-6.009
G02 X-64.886 Y13.055 I-3.077 J-0.576
G03 X-64.83 Y12.487 I8.278 J0.529
G02 X-66.607 Y15.931 I52.998 J29.526
X-68.219 Y19.978 I38.04 J17.497
X-68.873 Y23.562 I12.655 J4.161
X-68.805 Y24.145 I3.48 J-0.11
X-68.577 Y24.507 I0.666 J-0.167
X-67.402 Y25.127 I2.32 J-2.974
X-63.782 Y25.835 I4.99 J-15.907
X-59.615 Y26.038 I5.192 J-63.708
G01 X-59.574 Y26.038
G00 Z5
X-59.572 Y27.038
Z1.8
G01 Z-0.4
G02 X-48.164 Y26.564 I0.167 J-133.5
G03 X-57.788 Y23.226 I5.354 J-30.98
X-62.118 Y19.526 I7.132 J-12.73
X-63.944 Y14.273 I7.424 J-5.524
X-63.882 Y13.584 I3.46 J-0.036
X-63.851 Y12.712 I3.757 J-0.303
X-62.456 Y6.778 I24.131 J2.542
G02 X-67.515 Y15.509 I51.723 J35.801
X-69.171 Y19.67 I39.095 J17.969
X-69.876 Y23.562 I13.63 J4.479
X-69.777 Y24.402 I4.591 J-0.115
X-69.229 Y25.272 I1.613 J-0.409
X-67.721 Y26.078 I2.974 J-3.75
X-63.87 Y26.832 I5.317 J-16.945
X-59.606 Y27.038 I5.201 J-63.413
G01 X-59.572 Y27.038
G00 Z5
X-57.424 Y28.033
Z1.8
G01 Z-0.4
G02 X-38.287 Y26.426 I-2.652 J-146.331
G03 X-49.267 Y25.337 I-0.461 J-51.246
X-57.271 Y22.371 I6.577 J-30.032
X-60.878 Y19.478 I6.954 J-12.366
X-62.922 Y14.828 I6.429 J-5.6
X-62.916 Y13.842 I4.442 J-0.466
G02 X-62.886 Y13.499 I-0.477 J-0.215
G03 X-62.86 Y12.841 I2.562 J-0.228
X-61.648 Y7.471 I23.394 J2.458
X-60.021 Y3.731 I24.728 J8.533
X-55.732 Y-3.009 I35.716 J17.993
G01 X-55.818 Y-2.926
G02 X-61.403 Y3.599 I43.868 J43.201
X-67.759 Y13.711 I54.413 J41.255
X-70.124 Y19.365 I39.079 J19.668
X-70.864 Y23.052 I16.434 J5.216
X-70.751 Y24.646 I5.599 J0.404
X-69.877 Y26.038 I2.567 J-0.641
X-68.034 Y27.029 I3.601 J-4.489
X-63.959 Y27.829 I5.601 J-17.753
X-57.424 Y28.033 I5.291 J-64.714
G00 Z5
X57.452 Y7.946
Z1.8
G01 Z-0.4
X52.812 Y8.364
G03 X60.589 Y8.323 I7.761 J734.527
X61.096 Y8.337 I0.158 J3.449
G02 X60.102 Y6.914 I-20.553 J13.298
G03 X57.452 Y7.946 I-3.135 J-4.131
G00 Z5
X63.704 Y10.584
Z1.8
G01 Z-0.4
X63.762 Y10.645
G02 X60.244 Y5.401 I-52.781 J31.607
G03 X57.364 Y6.951 I-3.274 J-2.632
G01 X29.123 Y9.49
X60.563 Y9.323
G03 X63.704 Y10.584 I0.136 J4.205
G00 Z5
X4.273 Y15.914
Z1.8
G01 Z-0.4
G03 X3.897 Y13.764 I5.596 J-2.087
G01 X-3.968 Y14.471
G03 X-4.265 Y15.907 I-5.188 J-0.324
X4.273 Y15.914 I4.213 J68.056
G00 Z5
X-5.777 Y16.932
Z1.8
G01 Z-0.4
X-5.827 Y17.026
G03 X-3.361 Y16.861 I4.148 J43.482
G01 X-3.329 Y16.859
X-1.13 Y16.789
G03 X5.824 Y17.022 I1.185 J68.52
X5.131 Y15.351 I11.075 J-5.572
X5.028 Y12.659 I4.932 J-1.537
G01 X-4.952 Y13.556
G03 X-5.361 Y15.996 I-5.219 J0.379
X-5.777 Y16.932 I-11.282 J-4.454
G00 Z5
X-7.613 Y18.113
Z1.8
G01 Z-0.4
X-7.683 Y18.209
G03 X7.684 Y18.204 I7.706 J68.984
X6.102 Y15.106 I10.069 J-7.094
X6.581 Y11.506 I4 J-1.3
X6.42 Y11.53 I-0.358 J-1.851
G01 X-5.217 Y12.576
G03 X-6.173 Y12.539 I-0.329 J-3.864
X-6.278 Y15.593 I-3.981 J1.392
X-7.613 Y18.113 I-12.167 J-4.832
G00 Z5
X64.931 Y22.404
Z1.8
G01 Z-0.4
X64.701 Y22.672
X65.593 Y22.533
X65.745 Y22.493
G02 X65.536 Y21.582 I-7.192 J1.17
G03 X64.931 Y22.404 I-9.738 J-6.534
G00 Z5
X61.992 Y23.94
Z1.8
G01 Z-0.4
X61.956 Y23.969
G02 X65.799 Y23.513 I-2.068 J-33.853
X66.847 Y23.184 I-1.166 J-5.547
X66.781 Y22.541 I-3.481 J0.032
X65.8 Y19.13 I-20.08 J3.929
G03 X61.992 Y23.94 I-12.219 J-5.762
G00 Z5
X59.077 Y25.039
Z1.8
G01 Z-0.4
G02 X66.005 Y24.495 I0.619 J-36.499
X67.834 Y23.823 I-1.441 J-6.746
G01 X67.836 Y23.822
G02 X67.766 Y22.363 I-5.366 J-0.474
X66.412 Y17.956 I-21.733 J4.266
G01 X65.711 Y16.388
G03 X63.273 Y21.279 I-11.649 J-2.754
X61.378 Y23.152 I-9.764 J-7.983
X58.645 Y25.034 I-11.871 J-14.314
G02 X59.077 Y25.039 I0.423 J-17.839
G00 Z5
X59.067 Y26.04
Z1.8
G01 Z-0.4
G02 X65.498 Y25.604 I0.486 J-40.482
X68.304 Y24.718 I-1.185 J-8.639
X68.789 Y24.194 I-0.594 J-1.036
G01 X68.826 Y24.033
G02 X68.752 Y22.187 I-6.413 J-0.667
X67.334 Y17.57 I-22.499 J4.384
X64.698 Y12.228 I-46.949 J19.845
G03 X64.925 Y13.567 I-5.004 J1.537
X63.873 Y18.546 I-9.278 J0.64
X60.762 Y22.366 I-10.406 J-5.298
X57.161 Y24.685 I-11.233 J-13.488
X54.325 Y25.902 I-15.032 J-31.116
G01 X54.243 Y25.931
G02 X59.067 Y26.04 I4.813 J-106.228
G00 Z5
X59.055 Y27.041
Z1.8
G01 Z-0.4
G02 X65.653 Y26.594 I0.483 J-41.789
X68.547 Y25.729 I-1.577 J-10.549
X69.596 Y24.837 I-1.148 J-2.413
X69.82 Y24.175 I-1.446 J-0.858
X69.738 Y22.013 I-7.436 J-0.801
X68.256 Y17.183 I-23.384 J4.533
X64.48 Y9.896 I-48.63 J20.577
X60.086 Y3.536 I-56.489 J34.329
G03 X57.275 Y5.957 I-3.112 J-0.771
G01 X10.553 Y10.156
G03 X8.366 Y9.533 I-0.272 J-3.196
X6.332 Y10.535 I-2.334 J-2.173
G01 X-5.307 Y11.581
G03 X-7.555 Y10.911 I-0.264 J-3.221
X-8.132 Y11.423 I-2.139 J-1.829
X-7.195 Y15.194 I-2.028 J2.506
X-10.123 Y19.533 I-11.237 J-4.426
X2.153 Y18.817 I10.04 J66.549
X10.129 Y19.533 I-1.691 J63.615
X7.07 Y14.853 I8.163 J-8.676
X9.336 Y10.69 I3.036 J-1.046
X9.939 Y10.593 I0.818 J3.16
G01 X60.569 Y10.323
G03 X63.849 Y12.926 I0.134 J3.199
X63.001 Y18.058 I-8.17 J1.286
X60.145 Y21.58 I-9.483 J-4.771
X56.747 Y23.776 I-10.557 J-12.608
X48.226 Y26.572 I-14.658 J-30.289
G02 X59.055 Y27.041 I11.388 J-137.69
G00 Z5
X59.041 Y28.041
Z1.8
G01 Z-0.4
G02 X65.81 Y27.583 I0.512 J-42.689
X68.997 Y26.626 I-1.733 J-11.555
X70.252 Y25.652 I-1.847 J-3.675
X70.814 Y24.306 I-2.104 J-1.669
X70.723 Y21.834 I-8.479 J-0.926
X69.179 Y16.798 I-24.229 J4.674
X65.333 Y9.373 I-49.576 J20.971
X55.687 Y-3.067 I-60.323 J36.815
G03 X58.936 Y1.755 I-28.047 J22.403
X57.187 Y4.962 I-1.954 J1.015
G01 X10.464 Y9.161
G03 X8.236 Y7.793 I-0.192 J-2.185
X7.457 Y9.033 I-2.471 J-0.688
X6.244 Y9.54 I-1.434 J-1.726
G01 X-5.397 Y10.586
G03 X-7.622 Y9.246 I-0.183 J-2.214
G01 X-7.748 Y8.938
G03 X-9.738 Y10.976 I-2.187 J-0.145
G01 X-18.28 Y11.744
X-10.139 Y11.701
G03 X-8.111 Y14.792 I-0.021 J2.224
X-11.262 Y19.228 I-10.491 J-4.115
X-14.114 Y21.28 I-12.737 J-14.695
X-1.744 Y19.801 I14.062 J65.139
X4.042 Y19.895 I1.589 J80.302
X14.137 Y21.293 I-3.846 J64.919
X10.573 Y18.585 I9.453 J-16.14
X8.037 Y14.593 I7.971 J-7.865
X8.44 Y12.344 I2.122 J-0.78
X10.375 Y11.59 I1.737 J1.598
G01 X60.575 Y11.323
G03 X62.856 Y13.042 I0.129 J2.201
X62.127 Y17.575 I-7.169 J1.172
X59.525 Y20.797 I-8.594 J-4.278
X56.332 Y22.868 I-9.891 J-11.752
X46.944 Y25.782 I-14.396 J-29.798
X38.289 Y26.426 I-8.387 J-54.229
G02 X41.67 Y26.898 I15.307 J-97.303
X59.041 Y28.041 I17.962 J-140.407
G00 Z5
X-57.413 Y29.034
Z1.8
G01 Z-0.4
X-57.383 Y29.034
G02 X-48.839 Y28.633 I-1.672 J-126.848
X-38.394 Y27.455 I-11.747 J-151.051
G01 X-38.394 Y25.428
G03 X-48.999 Y24.371 I-0.359 J-50.123
G02 X-49.029 Y24.366 I-0.018 J0.017
G03 X-55.955 Y21.94 I6.549 J-29.795
X-59.623 Y19.363 I6.254 J-12.8
X-61.725 Y15.851 I5.642 J-5.762
X-61.942 Y14.123 I5.298 J-1.543
X-61.878 Y13.795 I1.047 J0.034
G01 X-61.837 Y13.702
G03 X-61.868 Y12.965 I1.471 J-0.431
X-61.11 Y9.079 I21.305 J2.139
X-59.138 Y4.199 I24.421 J7.03
X-52.848 Y-4.852 I35.079 J17.667
X-42.575 Y-11.923 I20.971 J19.47
X-31.418 Y-13.969 I10.889 J27.934
X-24.582 Y-13.106 I0.26 J25.447
X-19.507 Y-10.849 I-4.803 J17.633
X-14.942 Y-6.616 I-9.786 J15.131
X-11.616 Y-0.869 I-21.765 J16.432
G02 X-11.119 Y0.27 I32.538 J-13.52
G03 X-10.936 Y0.711 I-0.992 J0.67
G02 X-10.127 Y2.976 I66.703 J-22.548
G03 X-8.745 Y8.679 I-29.367 J10.135
X-9.829 Y9.981 I-1.188 J0.113
G01 X-41.994 Y12.871
X-10.134 Y12.701
X-9.853 Y12.732
G03 X-9.028 Y14.393 I-0.313 J1.191
X-11.896 Y18.455 I-9.566 J-3.711
X-16.568 Y21.427 I-12.335 J-14.233
X-25.356 Y24.16 I-16.145 J-36.419
X-38.394 Y25.428 I-13.085 J-66.877
G01 X-38.394 Y27.455
G02 X-23.106 Y24.418 I-21.604 J-148.749
G03 X-15.032 Y22.498 I59.438 J232.012
X-5.227 Y20.971 I16.193 J71.734
X0.001 Y20.8 I4.412 J54.89
X11.85 Y21.858 I0.563 J60.571
X19.845 Y23.619 I-24.909 J132.117
G02 X28.452 Y25.667 I65.478 J-256.07
X38.394 Y27.455 I31.29 J-145.45
G01 X38.394 Y25.428
G03 X23.796 Y23.823 I-0.048 J-66.75
X16.538 Y21.413 I8.148 J-36.673
X11.896 Y18.455 I7.662 J-17.146
X9.111 Y14.598 I6.685 J-7.761
X8.9 Y13.799 I1.906 J-0.931
X10.086 Y12.593 I1.187 J-0.019
G01 X10.375 Y12.591
X10.375 Y8.166
G03 X9.093 Y6.728 I-0.106 J-1.196
X10.839 Y1.067 I32.567 J6.945
X10.951 Y0.778 I0.777 J0.135
X14.445 Y-5.948 I28.109 J10.332
X18.939 Y-10.469 I15.273 J10.687
X19.753 Y-11.005 I0.975 J0.594
X26.994 Y-13.631 I10.082 J16.504
X41.694 Y-12.257 I4.569 J30.435
X52.195 Y-5.523 I-9.692 J26.669
X58.025 Y2.166 I-26.286 J25.985
X58.178 Y2.666 I-0.885 J0.544
G01 X58.19 Y2.74
G03 X57.098 Y3.968 I-1.201 J0.031
G01 X10.375 Y8.166
X10.375 Y12.591
X60.581 Y12.323
G03 X61.865 Y13.174 I0.121 J1.212
X61.943 Y14.199 I-4.483 J0.857
X61.534 Y16.441 I-5.729 J0.113
X59.569 Y19.417 I-7.675 J-2.931
X55.919 Y21.959 I-9.964 J-10.416
X46.808 Y24.792 I-13.955 J-28.812
X38.394 Y25.428 I-8.277 J-53.53
G01 X38.394 Y27.455
G02 X57.398 Y29.033 I21.503 J-143.742
X60.712 Y29.018 I1.269 J-85.83
X65.97 Y28.571 I-0.587 J-38.055
X68.997 Y27.728 I-2.074 J-13.304
X70.697 Y26.649 I-2.139 J-5.249
X71.807 Y24.439 I-2.53 J-2.655
X71.708 Y21.655 I-9.381 J-1.06
X70.102 Y16.412 I-25.126 J4.829
X66.185 Y8.849 I-50.483 J21.35
X56.745 Y-3.422 I-61.78 J37.76
X51.729 Y-7.891 I-29.72 J28.309
X45.904 Y-11.181 I-16.742 J22.841
X31.434 Y-14.169 I-14.985 J36.039
X23.907 Y-13.163 I-0.325 J26.231
X14.857 Y-7.313 I5.263 J18.067
X10.296 Y0.044 I22.314 J18.926
X9.586 Y1.711 I42.218 J18.966
X7.16 Y7.799 I494.206 J200.463
G03 X6.155 Y8.545 I-1.114 J-0.451
G01 X-5.487 Y9.591
G03 X-6.697 Y8.869 I-0.106 J-1.197
X-8.81 Y3.582 I154.538 J-64.828
G02 X-9.503 Y1.864 I-129.222 J51.126
G03 X-9.704 Y1.385 I0.739 J-0.592
G02 X-13.179 Y-5.185 I-32.192 J12.823
X-16.183 Y-8.715 I-18.281 J12.514
X-16.439 Y-8.951 I-0.566 J0.357
X-24.752 Y-13.396 I-12.773 J13.892
X-33.485 Y-14.099 I-6.633 J27.808
X-47.164 Y-10.615 I2.587 J38.752
X-53.714 Y-6.296 I11.852 J25.101
X-61.61 Y2.223 I39.481 J44.512
X-62.157 Y2.945 I15.456 J12.278
G01 X-62.183 Y2.972
G02 X-68.654 Y13.263 I55.196 J41.887
X-70.725 Y18.028 I44.298 J22.086
X-71.799 Y22.29 I18.971 J7.047
X-71.807 Y24.439 I8.077 J1.105
X-70.52 Y26.809 I3.631 J-0.437
X-68.347 Y27.98 I4.23 J-5.247
X-64.05 Y28.826 I5.921 J-18.74
X-60.124 Y29.03 I4.734 J-53.222
G01 X-57.413 Y29.034
G00 Z5
X-64.674 Y22.694
Z1.6
G01 Z-0.6
G03 X-65.552 Y21.563 I8.833 J-7.763
G02 X-65.744 Y22.468 I5.553 J1.651
X-64.674 Y22.694 I2.085 J-7.224
G00 Z5
X-61.975 Y23.947
Z1.6
G01 Z-0.6
G03 X-65.08 Y20.496 I9.678 J-11.83
X-65.797 Y19.168 I8.89 J-5.657
G02 X-66.315 Y20.593 I19.96 J8.062
X-66.837 Y23.198 I10.295 J3.418
G01 X-66.759 Y23.229
G02 X-63.605 Y23.841 I4.338 J-13.921
G01 X-61.975 Y23.947
G00 Z5
X-59.542 Y25.038
Z1.6
G01 Z-0.6
X-58.616 Y25.029
G03 X-63.77 Y20.648 I7.608 J-14.172
X-65.691 Y16.333 I8.811 J-6.508
G02 X-67.267 Y20.285 I37.057 J17.068
X-67.87 Y23.562 I11.704 J3.848
X-67.847 Y23.794 I1.459 J-0.027
X-67.085 Y24.177 I1.56 J-2.154
X-63.694 Y24.838 I4.677 J-14.964
X-59.583 Y25.038 I5.12 J-62.888
G01 X-59.542 Y25.038
G00 Z5
X-59.574 Y26.038
Z1.6
G01 Z-0.6
G02 X-54.252 Y25.934 I0.24 J-123.944
G03 X-59.121 Y23.588 I9.707 J-26.372
X-62.944 Y20.087 I8.419 J-13.031
X-64.929 Y13.885 I8.094 J-6.009
G02 X-64.886 Y13.055 I-3.077 J-0.576
G03 X-64.83 Y12.487 I8.278 J0.529
G02 X-66.607 Y15.931 I52.998 J29.526
X-68.219 Y19.978 I38.04 J17.497
X-68.873 Y23.562 I12.655 J4.161
X-68.805 Y24.145 I3.48 J-0.11
X-68.577 Y24.507 I0.666 J-0.167
X-67.402 Y25.127 I2.32 J-2.974
X-63.782 Y25.835 I4.99 J-15.907
X-59.615 Y26.038 I5.192 J-63.708
G01 X-59.574 Y26.038
G00 Z5
X-59.572 Y27.038
Z1.6
G01 Z-0.6
G02 X-48.164 Y26.564 I0.167 J-133.5
G03 X-57.788 Y23.226 I5.354 J-30.98
X-62.118 Y19.526 I7.132 J-12.73
X-63.944 Y14.273 I7.424 J-5.524
X-63.882 Y13.584 I3.46 J-0.036
X-63.851 Y12.712 I3.757 J-0.303
X-62.456 Y6.778 I24.131 J2.542
G02 X-67.515 Y15.509 I51.723 J35.801
X-69.171 Y19.67 I39.095 J17.969
X-69.876 Y23.562 I13.63 J4.479
X-69.777 Y24.402 I4.591 J-0.115
X-69.229 Y25.272 I1.613 J-0.409
X-67.721 Y26.078 I2.974 J-3.75
X-63.87 Y26.832 I5.317 J-16.945
X-59.606 Y27.038 I5.201 J-63.413
G01 X-59.572 Y27.038
G00 Z5
X-57.424 Y28.033
Z1.6
G01 Z-0.6
G02 X-38.287 Y26.426 I-2.652 J-146.331
G03 X-49.267 Y25.337 I-0.461 J-51.246
X-57.271 Y22.371 I6.577 J-30.032
X-60.878 Y19.478 I6.954 J-12.366
X-62.922 Y14.828 I6.429 J-5.6
X-62.916 Y13.842 I4.442 J-0.466
G02 X-62.886 Y13.499 I-0.477 J-0.215
G03 X-62.86 Y12.841 I2.562 J-0.228
X-61.648 Y7.471 I23.394 J2.458
X-60.021 Y3.731 I24.728 J8.533
X-55.732 Y-3.009 I35.716 J17.993
G01 X-55.818 Y-2.926
G02 X-61.403 Y3.599 I43.868 J43.201
X-67.759 Y13.711 I54.413 J41.255
X-70.124 Y19.365 I39.079 J19.668
X-70.864 Y23.052 I16.434 J5.216
X-70.751 Y24.646 I5.599 J0.404
X-69.877 Y26.038 I2.567 J-0.641
X-68.034 Y27.029 I3.601 J-4.489
X-63.959 Y27.829 I5.601 J-17.753
X-57.424 Y28.033 I5.291 J-64.714
G00 Z5
X57.452 Y7.946
Z1.6
G01 Z-0.6
X52.812 Y8.364
G03 X60.589 Y8.323 I7.761 J734.527
X61.096 Y8.337 I0.158 J3.449
G02 X60.102 Y6.914 I-20.553 J13.298
G03 X57.452 Y7.946 I-3.135 J-4.131
G00 Z5
X63.704 Y10.584
Z1.6
G01 Z-0.6
X63.762 Y10.645
G02 X60.244 Y5.401 I-52.781 J31.607
G03 X57.364 Y6.951 I-3.274 J-2.632
G01 X29.123 Y9.49
X60.563 Y9.323
G03 X63.704 Y10.584 I0.136 J4.205
G00 Z5
X4.273 Y15.914
Z1.6
G01 Z-0.6
G03 X3.897 Y13.764 I5.596 J-2.087
G01 X-3.968 Y14.471
G03 X-4.265 Y15.907 I-5.188 J-0.324
X4.273 Y15.914 I4.213 J68.056
G00 Z5
X-5.777 Y16.932
Z1.6
G01 Z-0.6
X-5.827 Y17.026
G03 X-3.361 Y16.861 I4.148 J43.482
G01 X-3.329 Y16.859
X-1.13 Y16.789
G03 X5.824 Y17.022 I1.185 J68.52
X5.131 Y15.351 I11.075 J-5.572
X5.028 Y12.659 I4.932 J-1.537
G01 X-4.952 Y13.556
G03 X-5.361 Y15.996 I-5.219 J0.379
X-5.777 Y16.932 I-11.282 J-4.454
G00 Z5
X-7.613 Y18.113
Z1.6
G01 Z-0.6
X-7.683 Y18.209
G03 X7.684 Y18.204 I7.706 J68.984
X6.102 Y15.106 I10.069 J-7.094
X6.581 Y11.506 I4 J-1.3
X6.42 Y11.53 I-0.358 J-1.851
G01 X-5.217 Y12.576
G03 X-6.173 Y12.539 I-0.329 J-3.864
X-6.278 Y15.593 I-3.981 J1.392
X-7.613 Y18.113 I-12.167 J-4.832
G00 Z5
X64.931 Y22.404
Z1.6
G01 Z-0.6
X64.701 Y22.672
X65.593 Y22.533
X65.745 Y22.493
G02 X65.536 Y21.582 I-7.192 J1.17
G03 X64.931 Y22.404 I-9.738 J-6.534
G00 Z5
X61.992 Y23.94
Z1.6
G01 Z-0.6
X61.956 Y23.969
G02 X65.799 Y23.513 I-2.068 J-33.853
X66.847 Y23.184 I-1.166 J-5.547
X66.781 Y22.541 I-3.481 J0.032
X65.8 Y19.13 I-20.08 J3.929
G03 X61.992 Y23.94 I-12.219 J-5.762
G00 Z5
X59.077 Y25.039
Z1.6
G01 Z-0.6
G02 X66.005 Y24.495 I0.619 J-36.499
X67.834 Y23.823 I-1.441 J-6.746
G01 X67.836 Y23.822
G02 X67.766 Y22.363 I-5.366 J-0.474
X66.412 Y17.956 I-21.733 J4.266
G01 X65.711 Y16.388
G03 X63.273 Y21.279 I-11.649 J-2.754
X61.378 Y23.152 I-9.764 J-7.983
X58.645 Y25.034 I-11.871 J-14.314
G02 X59.077 Y25.039 I0.423 J-17.839
G00 Z5
X59.067 Y26.04
Z1.6
G01 Z-0.6
G02 X65.498 Y25.604 I0.486 J-40.482
X68.304 Y24.718 I-1.185 J-8.639
X68.789 Y24.194 I-0.594 J-1.036
G01 X68.826 Y24.033
G02 X68.752 Y22.187 I-6.413 J-0.667
X67.334 Y17.57 I-22.499 J4.384
X64.698 Y12.228 I-46.949 J19.845
G03 X64.925 Y13.567 I-5.004 J1.537
X63.873 Y18.546 I-9.278 J0.64
X60.762 Y22.366 I-10.406 J-5.298
X57.161 Y24.685 I-11.233 J-13.488
X54.325 Y25.902 I-15.032 J-31.116
G01 X54.243 Y25.931
G02 X59.067 Y26.04 I4.813 J-106.228
G00 Z5
X59.055 Y27.041
Z1.6
G01 Z-0.6
G02 X65.653 Y26.594 I0.483 J-41.789
X68.547 Y25.729 I-1.577 J-10.549
X69.596 Y24.837 I-1.148 J-2.413
X69.82 Y24.175 I-1.446 J-0.858
X69.738 Y22.013 I-7.436 J-0.801
X68.256 Y17.183 I-23.384 J4.533
X64.48 Y9.896 I-48.63 J20.577
X60.086 Y3.536 I-56.489 J34.329
G03 X57.275 Y5.957 I-3.112 J-0.771
G01 X10.553 Y10.156
G03 X8.366 Y9.533 I-0.272 J-3.196
X6.332 Y10.535 I-2.334 J-2.173
G01 X-5.307 Y11.581
G03 X-7.555 Y10.911 I-0.264 J-3.221
X-8.132 Y11.423 I-2.139 J-1.829
X-7.195 Y15.194 I-2.028 J2.506
X-10.123 Y19.533 I-11.237 J-4.426
X2.153 Y18.817 I10.04 J66.549
X10.129 Y19.533 I-1.691 J63.615
X7.07 Y14.853 I8.163 J-8.676
X9.336 Y10.69 I3.036 J-1.046
X9.939 Y10.593 I0.818 J3.16
G01 X60.569 Y10.323
G03 X63.849 Y12.926 I0.134 J3.199
X63.001 Y18.058 I-8.17 J1.286
X60.145 Y21.58 I-9.483 J-4.771
X56.747 Y23.776 I-10.557 J-12.608
X48.226 Y26.572 I-14.658 J-30.289
G02 X59.055 Y27.041 I11.388 J-137.69
G00 Z5
X59.041 Y28.041
Z1.6
G01 Z-0.6
G02 X65.81 Y27.583 I0.512 J-42.689
X68.997 Y26.626 I-1.733 J-11.555
X70.252 Y25.652 I-1.847 J-3.675
X70.814 Y24.306 I-2.104 J-1.669
X70.723 Y21.834 I-8.479 J-0.926
X69.179 Y16.798 I-24.229 J4.674
X65.333 Y9.373 I-49.576 J20.971
X55.687 Y-3.067 I-60.323 J36.815
G03 X58.936 Y1.755 I-28.047 J22.403
X57.187 Y4.962 I-1.954 J1.015
G01 X10.464 Y9.161
G03 X8.236 Y7.793 I-0.192 J-2.185
X7.457 Y9.033 I-2.471 J-0.688
X6.244 Y9.54 I-1.434 J-1.726
G01 X-5.397 Y10.586
G03 X-7.622 Y9.246 I-0.183 J-2.214
G01 X-7.748 Y8.938
G03 X-9.738 Y10.976 I-2.187 J-0.145
G01 X-18.28 Y11.744
X-10.139 Y11.701
G03 X-8.111 Y14.792 I-0.021 J2.224
X-11.262 Y19.228 I-10.491 J-4.115
X-14.114 Y21.28 I-12.737 J-14.695
X-1.744 Y19.801 I14.062 J65.139
X4.042 Y19.895 I1.589 J80.302
X14.137 Y21.293 I-3.846 J64.919
X10.573 Y18.585 I9.453 J-16.14
X8.037 Y14.593 I7.971 J-7.865
X8.44 Y12.344 I2.122 J-0.78
X10.375 Y11.59 I1.737 J1.598
G01 X60.575 Y11.323
G03 X62.856 Y13.042 I0.129 J2.201
X62.127 Y17.575 I-7.169 J1.172
X59.525 Y20.797 I-8.594 J-4.278
X56.332 Y22.868 I-9.891 J-11.752
X46.944 Y25.782 I-14.396 J-29.798
X38.289 Y26.426 I-8.387 J-54.229
G02 X41.67 Y26.898 I15.307 J-97.303
X59.041 Y28.041 I17.962 J-140.407
G00 Z5
X-57.413 Y29.034
Z1.6
G01 Z-0.6
X-57.383 Y29.034
G02 X-48.839 Y28.633 I-1.672 J-126.848
X-38.394 Y27.455 I-11.747 J-151.051
G01 X-38.394 Y25.428
G03 X-48.999 Y24.371 I-0.359 J-50.123
G02 X-49.029 Y24.366 I-0.018 J0.017
G03 X-55.955 Y21.94 I6.549 J-29.795
X-59.623 Y19.363 I6.254 J-12.8
X-61.725 Y15.851 I5.642 J-5.762
X-61.942 Y14.123 I5.298 J-1.543
X-61.878 Y13.795 I1.047 J0.034
G01 X-61.837 Y13.702
G03 X-61.868 Y12.965 I1.471 J-0.431
X-61.11 Y9.079 I21.305 J2.139
X-59.138 Y4.199 I24.421 J7.03
X-52.848 Y-4.852 I35.079 J17.667
X-42.575 Y-11.923 I20.971 J19.47
X-31.418 Y-13.969 I10.889 J27.934
X-24.582 Y-13.106 I0.26 J25.447
X-19.507 Y-10.849 I-4.803 J17.633
X-14.942 Y-6.616 I-9.786 J15.131
X-11.616 Y-0.869 I-21.765 J16.432
G02 X-11.119 Y0.27 I32.538 J-13.52
G03 X-10.936 Y0.711 I-0.992 J0.67
G02 X-10.127 Y2.976 I66.703 J-22.548
G03 X-8.745 Y8.679 I-29.367 J10.135
X-9.829 Y9.981 I-1.188 J0.113
G01 X-41.994 Y12.871
X-10.134 Y12.701
X-9.853 Y12.732
G03 X-9.028 Y14.393 I-0.313 J1.191
X-11.896 Y18.455 I-9.566 J-3.711
X-16.568 Y21.427 I-12.335 J-14.233
X-25.356 Y24.16 I-16.145 J-36.419
X-38.394 Y25.428 I-13.085 J-66.877
G01 X-38.394 Y27.455
G02 X-23.106 Y24.418 I-21.604 J-148.749
G03 X-15.032 Y22.498 I59.438 J232.012
X-5.227 Y20.971 I16.193 J71.734
X0.001 Y20.8 I4.412 J54.89
X11.85 Y21.858 I0.563 J60.571
X19.845 Y23.619 I-24.909 J132.117
G02 X28.452 Y25.667 I65.478 J-256.07
X38.394 Y27.455 I31.29 J-145.45
G01 X38.394 Y25.428
G03 X23.796 Y23.823 I-0.048 J-66.75
X16.538 Y21.413 I8.148 J-36.673
X11.896 Y18.455 I7.662 J-17.146
X9.111 Y14.598 I6.685 J-7.761
X8.9 Y13.799 I1.906 J-0.931
X10.086 Y12.593 I1.187 J-0.019
G01 X10.375 Y12.591
X10.375 Y8.166
G03 X9.093 Y6.728 I-0.106 J-1.196
X10.839 Y1.067 I32.567 J6.945
X10.951 Y0.778 I0.777 J0.135
X14.445 Y-5.948 I28.109 J10.332
X18.939 Y-10.469 I15.273 J10.687
X19.753 Y-11.005 I0.975 J0.594
X26.994 Y-13.631 I10.082 J16.504
X41.694 Y-12.257 I4.569 J30.435
X52.195 Y-5.523 I-9.692 J26.669
X58.025 Y2.166 I-26.286 J25.985
X58.178 Y2.666 I-0.885 J0.544
G01 X58.19 Y2.74
G03 X57.098 Y3.968 I-1.201 J0.031
G01 X10.375 Y8.166
X10.375 Y12.591
X60.581 Y12.323
G03 X61.865 Y13.174 I0.121 J1.212
X61.943 Y14.199 I-4.483 J0.857
X61.534 Y16.441 I-5.729 J0.113
X59.569 Y19.417 I-7.675 J-2.931
X55.919 Y21.959 I-9.964 J-10.416
X46.808 Y24.792 I-13.955 J-28.812
X38.394 Y25.428 I-8.277 J-53.53
G01 X38.394 Y27.455
G02 X57.398 Y29.033 I21.503 J-143.742
X60.712 Y29.018 I1.269 J-85.83
X65.97 Y28.571 I-0.587 J-38.055
X68.997 Y27.728 I-2.074 J-13.304
X70.697 Y26.649 I-2.139 J-5.249
X71.807 Y24.439 I-2.53 J-2.655
X71.708 Y21.655 I-9.381 J-1.06
X70.102 Y16.412 I-25.126 J4.829
X66.185 Y8.849 I-50.483 J21.35
X56.745 Y-3.422 I-61.78 J37.76
X51.729 Y-7.891 I-29.72 J28.309
X45.904 Y-11.181 I-16.742 J22.841
X31.434 Y-14.169 I-14.985 J36.039
X23.907 Y-13.163 I-0.325 J26.231
X14.857 Y-7.313 I5.263 J18.067
X10.296 Y0.044 I22.314 J18.926
X9.586 Y1.711 I42.218 J18.966
X7.16 Y7.799 I494.206 J200.463
G03 X6.155 Y8.545 I-1.114 J-0.451
G01 X-5.487 Y9.591
G03 X-6.697 Y8.869 I-0.106 J-1.197
X-8.81 Y3.582 I154.538 J-64.828
G02 X-9.503 Y1.864 I-129.222 J51.126
G03 X-9.704 Y1.385 I0.739 J-0.592
G02 X-13.179 Y-5.185 I-32.192 J12.823
X-16.183 Y-8.715 I-18.281 J12.514
X-16.439 Y-8.951 I-0.566 J0.357
X-24.752 Y-13.396 I-12.773 J13.892
X-33.485 Y-14.099 I-6.633 J27.808
X-47.164 Y-10.615 I2.587 J38.752
X-53.714 Y-6.296 I11.852 J25.101
X-61.61 Y2.223 I39.481 J44.512
X-62.157 Y2.945 I15.456 J12.278
G01 X-62.183 Y2.972
G02 X-68.654 Y13.263 I55.196 J41.887
X-70.725 Y18.028 I44.298 J22.086
X-71.799 Y22.29 I18.971 J7.047
X-71.807 Y24.439 I8.077 J1.105
X-70.52 Y26.809 I3.631 J-0.437
X-68.347 Y27.98 I4.23 J-5.247
X-64.05 Y28.826 I5.921 J-18.74
X-60.124 Y29.03 I4.734 J-53.222
G01 X-57.413 Y29.034
G00 Z5
X-64.674 Y22.694
Z1.4
G01 Z-0.8
G03 X-65.552 Y21.563 I8.833 J-7.763
G02 X-65.744 Y22.468 I5.553 J1.651
X-64.674 Y22.694 I2.085 J-7.224
G00 Z5
X-61.975 Y23.947
Z1.4
G01 Z-0.8
G03 X-65.08 Y20.496 I9.678 J-11.83
X-65.797 Y19.168 I8.89 J-5.657
G02 X-66.315 Y20.593 I19.96 J8.062
X-66.837 Y23.198 I10.295 J3.418
G01 X-66.759 Y23.229
G02 X-63.605 Y23.841 I4.338 J-13.921
G01 X-61.975 Y23.947
G00 Z5
X-59.542 Y25.038
Z1.4
G01 Z-0.8
X-58.616 Y25.029
G03 X-63.77 Y20.648 I7.608 J-14.172
X-65.691 Y16.333 I8.811 J-6.508
G02 X-67.267 Y20.285 I37.057 J17.068
X-67.87 Y23.562 I11.704 J3.848
X-67.847 Y23.794 I1.459 J-0.027
X-67.085 Y24.177 I1.56 J-2.154
X-63.694 Y24.838 I4.677 J-14.964
X-59.583 Y25.038 I5.12 J-62.888
G01 X-59.542 Y25.038
G00 Z5
X-59.574 Y26.038
Z1.4
G01 Z-0.8
G02 X-54.252 Y25.934 I0.24 J-123.944
G03 X-59.121 Y23.588 I9.707 J-26.372
X-62.944 Y20.087 I8.419 J-13.031
X-64.929 Y13.885 I8.094 J-6.009
G02 X-64.886 Y13.055 I-3.077 J-0.576
G03 X-64.83 Y12.487 I8.278 J0.529
G02 X-66.607 Y15.931 I52.998 J29.526
X-68.219 Y19.978 I38.04 J17.497
X-68.873 Y23.562 I12.655 J4.161
X-68.805 Y24.145 I3.48 J-0.11
X-68.577 Y24.507 I0.666 J-0.167
X-67.402 Y25.127 I2.32 J-2.974
X-63.782 Y25.835 I4.99 J-15.907
X-59.615 Y26.038 I5.192 J-63.708
G01 X-59.574 Y26.038
G00 Z5
X-59.572 Y27.038
Z1.4
G01 Z-0.8
G02 X-48.164 Y26.564 I0.167 J-133.5
G03 X-57.788 Y23.226 I5.354 J-30.98
X-62.118 Y19.526 I7.132 J-12.73
X-63.944 Y14.273 I7.424 J-5.524
X-63.882 Y13.584 I3.46 J-0.036
X-63.851 Y12.712 I3.757 J-0.303
X-62.456 Y6.778 I24.131 J2.542
G02 X-67.515 Y15.509 I51.723 J35.801
X-69.171 Y19.67 I39.095 J17.969
X-69.876 Y23.562 I13.63 J4.479
X-69.777 Y24.402 I4.591 J-0.115
X-69.229 Y25.272 I1.613 J-0.409
X-67.721 Y26.078 I2.974 J-3.75
X-63.87 Y26.832 I5.317 J-16.945
X-59.606 Y27.038 I5.201 J-63.413
G01 X-59.572 Y27.038
G00 Z5
X-57.424 Y28.033
Z1.4
G01 Z-0.8
G02 X-38.287 Y26.426 I-2.652 J-146.331
G03 X-49.267 Y25.337 I-0.461 J-51.246
X-57.271 Y22.371 I6.577 J-30.032
X-60.878 Y19.478 I6.954 J-12.366
X-62.922 Y14.828 I6.429 J-5.6
X-62.916 Y13.842 I4.442 J-0.466
G02 X-62.886 Y13.499 I-0.477 J-0.215
G03 X-62.86 Y12.841 I2.562 J-0.228
X-61.648 Y7.471 I23.394 J2.458
X-60.021 Y3.731 I24.728 J8.533
X-55.732 Y-3.009 I35.716 J17.993
G01 X-55.818 Y-2.926
G02 X-61.403 Y3.599 I43.868 J43.201
X-67.759 Y13.711 I54.413 J41.255
X-70.124 Y19.365 I39.079 J19.668
X-70.864 Y23.052 I16.434 J5.216
X-70.751 Y24.646 I5.599 J0.404
X-69.877 Y26.038 I2.567 J-0.641
X-68.034 Y27.029 I3.601 J-4.489
X-63.959 Y27.829 I5.601 J-17.753
X-57.424 Y28.033 I5.291 J-64.714
G00 Z5
X57.452 Y7.946
Z1.4
G01 Z-0.8
X52.812 Y8.364
G03 X60.589 Y8.323 I7.761 J734.527
X61.096 Y8.337 I0.158 J3.449
G02 X60.102 Y6.914 I-20.553 J13.298
G03 X57.452 Y7.946 I-3.135 J-4.131
G00 Z5
X63.704 Y10.584
Z1.4
G01 Z-0.8
X63.762 Y10.645
G02 X60.244 Y5.401 I-52.781 J31.607
G03 X57.364 Y6.951 I-3.274 J-2.632
G01 X29.123 Y9.49
X60.563 Y9.323
G03 X63.704 Y10.584 I0.136 J4.205
G00 Z5
X4.273 Y15.914
Z1.4
G01 Z-0.8
G03 X3.897 Y13.764 I5.596 J-2.087
G01 X-3.968 Y14.471
G03 X-4.265 Y15.907 I-5.188 J-0.324
X4.273 Y15.914 I4.213 J68.056
G00 Z5
X-5.777 Y16.932
Z1.4
G01 Z-0.8
X-5.827 Y17.026
G03 X-3.361 Y16.861 I4.148 J43.482
G01 X-3.329 Y16.859
X-1.13 Y16.789
G03 X5.824 Y17.022 I1.185 J68.52
X5.131 Y15.351 I11.075 J-5.572
X5.028 Y12.659 I4.932 J-1.537
G01 X-4.952 Y13.556
G03 X-5.361 Y15.996 I-5.219 J0.379
X-5.777 Y16.932 I-11.282 J-4.454
G00 Z5
X-7.613 Y18.113
Z1.4
G01 Z-0.8
X-7.683 Y18.209
G03 X7.684 Y18.204 I7.706 J68.984
X6.102 Y15.106 I10.069 J-7.094
X6.581 Y11.506 I4 J-1.3
X6.42 Y11.53 I-0.358 J-1.851
G01 X-5.217 Y12.576
G03 X-6.173 Y12.539 I-0.329 J-3.864
X-6.278 Y15.593 I-3.981 J1.392
X-7.613 Y18.113 I-12.167 J-4.832
G00 Z5
X64.931 Y22.404
Z1.4
G01 Z-0.8
X64.701 Y22.672
X65.593 Y22.533
X65.745 Y22.493
G02 X65.536 Y21.582 I-7.192 J1.17
G03 X64.931 Y22.404 I-9.738 J-6.534
G00 Z5
X61.992 Y23.94
Z1.4
G01 Z-0.8
X61.956 Y23.969
G02 X65.799 Y23.513 I-2.068 J-33.853
X66.847 Y23.184 I-1.166 J-5.547
X66.781 Y22.541 I-3.481 J0.032
X65.8 Y19.13 I-20.08 J3.929
G03 X61.992 Y23.94 I-12.219 J-5.762
G00 Z5
X59.077 Y25.039
Z1.4
G01 Z-0.8
G02 X66.005 Y24.495 I0.619 J-36.499
X67.834 Y23.823 I-1.441 J-6.746
G01 X67.836 Y23.822
G02 X67.766 Y22.363 I-5.366 J-0.474
X66.412 Y17.956 I-21.733 J4.266
G01 X65.711 Y16.388
G03 X63.273 Y21.279 I-11.649 J-2.754
X61.378 Y23.152 I-9.764 J-7.983
X58.645 Y25.034 I-11.871 J-14.314
G02 X59.077 Y25.039 I0.423 J-17.839
G00 Z5
X59.067 Y26.04
Z1.4
G01 Z-0.8
G02 X65.498 Y25.604 I0.486 J-40.482
X68.304 Y24.718 I-1.185 J-8.639
X68.789 Y24.194 I-0.594 J-1.036
G01 X68.826 Y24.033
G02 X68.752 Y22.187 I-6.413 J-0.667
X67.334 Y17.57 I-22.499 J4.384
X64.698 Y12.228 I-46.949 J19.845
G03 X64.925 Y13.567 I-5.004 J1.537
X63.873 Y18.546 I-9.278 J0.64
X60.762 Y22.366 I-10.406 J-5.298
X57.161 Y24.685 I-11.233 J-13.488
X54.325 Y25.902 I-15.032 J-31.116
G01 X54.243 Y25.931
G02 X59.067 Y26.04 I4.813 J-106.228
G00 Z5
X59.055 Y27.041
Z1.4
G01 Z-0.8
G02 X65.653 Y26.594 I0.483 J-41.789
X68.547 Y25.729 I-1.577 J-10.549
X69.596 Y24.837 I-1.148 J-2.413
X69.82 Y24.175 I-1.446 J-0.858
X69.738 Y22.013 I-7.436 J-0.801
X68.256 Y17.183 I-23.384 J4.533
X64.48 Y9.896 I-48.63 J20.577
X60.086 Y3.536 I-56.489 J34.329
G03 X57.275 Y5.957 I-3.112 J-0.771
G01 X10.553 Y10.156
G03 X8.366 Y9.533 I-0.272 J-3.196
X6.332 Y10.535 I-2.334 J-2.173
G01 X-5.307 Y11.581
G03 X-7.555 Y10.911 I-0.264 J-3.221
X-8.132 Y11.423 I-2.139 J-1.829
X-7.195 Y15.194 I-2.028 J2.506
X-10.123 Y19.533 I-11.237 J-4.426
X2.153 Y18.817 I10.04 J66.549
X10.129 Y19.533 I-1.691 J63.615
X7.07 Y14.853 I8.163 J-8.676
X9.336 Y10.69 I3.036 J-1.046
X9.939 Y10.593 I0.818 J3.16
G01 X60.569 Y10.323
G03 X63.849 Y12.926 I0.134 J3.199
X63.001 Y18.058 I-8.17 J1.286
X60.145 Y21.58 I-9.483 J-4.771
X56.747 Y23.776 I-10.557 J-12.608
X48.226 Y26.572 I-14.658 J-30.289
G02 X59.055 Y27.041 I11.388 J-137.69
G00 Z5
X59.041 Y28.041
Z1.4
G01 Z-0.8
G02 X65.81 Y27.583 I0.512 J-42.689
X68.997 Y26.626 I-1.733 J-11.555
X70.252 Y25.652 I-1.847 J-3.675
X70.814 Y24.306 I-2.104 J-1.669
X70.723 Y21.834 I-8.479 J-0.926
X69.179 Y16.798 I-24.229 J4.674
X65.333 Y9.373 I-49.576 J20.971
X55.687 Y-3.067 I-60.323 J36.815
G03 X58.936 Y1.755 I-28.047 J22.403
X57.187 Y4.962 I-1.954 J1.015
G01 X10.464 Y9.161
G03 X8.236 Y7.793 I-0.192 J-2.185
X7.457 Y9.033 I-2.471 J-0.688
X6.244 Y9.54 I-1.434 J-1.726
G01 X-5.397 Y10.586
G03 X-7.622 Y9.246 I-0.183 J-2.214
G01 X-7.748 Y8.938
G03 X-9.738 Y10.976 I-2.187 J-0.145
G01 X-18.28 Y11.744
X-10.139 Y11.701
G03 X-8.111 Y14.792 I-0.021 J2.224
X-11.262 Y19.228 I-10.491 J-4.115
X-14.114 Y21.28 I-12.737 J-14.695
X-1.744 Y19.801 I14.062 J65.139
X4.042 Y19.895 I1.589 J80.302
X14.137 Y21.293 I-3.846 J64.919
X10.573 Y18.585 I9.453 J-16.14
X8.037 Y14.593 I7.971 J-7.865
X8.44 Y12.344 I2.122 J-0.78
X10.375 Y11.59 I1.737 J1.598
G01 X60.575 Y11.323
G03 X62.856 Y13.042 I0.129 J2.201
X62.127 Y17.575 I-7.169 J1.172
X59.525 Y20.797 I-8.594 J-4.278
X56.332 Y22.868 I-9.891 J-11.752
X46.944 Y25.782 I-14.396 J-29.798
X38.289 Y26.426 I-8.387 J-54.229
G02 X41.67 Y26.898 I15.307 J-97.303
X59.041 Y28.041 I17.962 J-140.407
G00 Z5
X-57.413 Y29.034
Z1.4
G01 Z-0.8
X-57.383 Y29.034
G02 X-48.839 Y28.633 I-1.672 J-126.848
X-38.394 Y27.455 I-11.747 J-151.051
G01 X-38.394 Y25.428
G03 X-48.999 Y24.371 I-0.359 J-50.123
G02 X-49.029 Y24.366 I-0.018 J0.017
G03 X-55.955 Y21.94 I6.549 J-29.795
X-59.623 Y19.363 I6.254 J-12.8
X-61.725 Y15.851 I5.642 J-5.762
X-61.942 Y14.123 I5.298 J-1.543
X-61.878 Y13.795 I1.047 J0.034
G01 X-61.837 Y13.702
G03 X-61.868 Y12.965 I1.471 J-0.431
X-61.11 Y9.079 I21.305 J2.139
X-59.138 Y4.199 I24.421 J7.03
X-52.848 Y-4.852 I35.079 J17.667
X-42.575 Y-11.923 I20.971 J19.47
X-31.418 Y-13.969 I10.889 J27.934
X-24.582 Y-13.106 I0.26 J25.447
X-19.507 Y-10.849 I-4.803 J17.633
X-14.942 Y-6.616 I-9.786 J15.131
X-11.616 Y-0.869 I-21.765 J16.432
G02 X-11.119 Y0.27 I32.538 J-13.52
G03 X-10.936 Y0.711 I-0.992 J0.67
G02 X-10.127 Y2.976 I66.703 J-22.548
G03 X-8.745 Y8.679 I-29.367 J10.135
X-9.829 Y9.981 I-1.188 J0.113
G01 X-41.994 Y12.871
X-10.134 Y12.701
X-9.853 Y12.732
G03 X-9.028 Y14.393 I-0.313 J1.191
X-11.896 Y18.455 I-9.566 J-3.711
X-16.568 Y21.427 I-12.335 J-14.233
X-25.356 Y24.16 I-16.145 J-36.419
X-38.394 Y25.428 I-13.085 J-66.877
G01 X-38.394 Y27.455
G02 X-23.106 Y24.418 I-21.604 J-148.749
G03 X-15.032 Y22.498 I59.438 J232.012
X-5.227 Y20.971 I16.193 J71.734
X0.001 Y20.8 I4.412 J54.89
X11.85 Y21.858 I0.563 J60.571
X19.845 Y23.619 I-24.909 J132.117
G02 X28.452 Y25.667 I65.478 J-256.07
X38.394 Y27.455 I31.29 J-145.45
G01 X38.394 Y25.428
G03 X23.796 Y23.823 I-0.048 J-66.75
X16.538 Y21.413 I8.148 J-36.673
X11.896 Y18.455 I7.662 J-17.146
X9.111 Y14.598 I6.685 J-7.761
X8.9 Y13.799 I1.906 J-0.931
X10.086 Y12.593 I1.187 J-0.019
G01 X10.375 Y12.591
X10.375 Y8.166
G03 X9.093 Y6.728 I-0.106 J-1.196
X10.839 Y1.067 I32.567 J6.945
X10.951 Y0.778 I0.777 J0.135
X14.445 Y-5.948 I28.109 J10.332
X18.939 Y-10.469 I15.273 J10.687
X19.753 Y-11.005 I0.975 J0.594
X26.994 Y-13.631 I10.082 J16.504
X41.694 Y-12.257 I4.569 J30.435
X52.195 Y-5.523 I-9.692 J26.669
X58.025 Y2.166 I-26.286 J25.985
X58.178 Y2.666 I-0.885 J0.544
G01 X58.19 Y2.74
G03 X57.098 Y3.968 I-1.201 J0.031
G01 X10.375 Y8.166
X10.375 Y12.591
X60.581 Y12.323
G03 X61.865 Y13.174 I0.121 J1.212
X61.943 Y14.199 I-4.483 J0.857
X61.534 Y16.441 I-5.729 J0.113
X59.569 Y19.417 I-7.675 J-2.931
X55.919 Y21.959 I-9.964 J-10.416
X46.808 Y24.792 I-13.955 J-28.812
X38.394 Y25.428 I-8.277 J-53.53
G01 X38.394 Y27.455
G02 X57.398 Y29.033 I21.503 J-143.742
X60.712 Y29.018 I1.269 J-85.83
X65.97 Y28.571 I-0.587 J-38.055
X68.997 Y27.728 I-2.074 J-13.304
X70.697 Y26.649 I-2.139 J-5.249
X71.807 Y24.439 I-2.53 J-2.655
X71.708 Y21.655 I-9.381 J-1.06
X70.102 Y16.412 I-25.126 J4.829
X66.185 Y8.849 I-50.483 J21.35
X56.745 Y-3.422 I-61.78 J37.76
X51.729 Y-7.891 I-29.72 J28.309
X45.904 Y-11.181 I-16.742 J22.841
X31.434 Y-14.169 I-14.985 J36.039
X23.907 Y-13.163 I-0.325 J26.231
X14.857 Y-7.313 I5.263 J18.067
X10.296 Y0.044 I22.314 J18.926
X9.586 Y1.711 I42.218 J18.966
X7.16 Y7.799 I494.206 J200.463
G03 X6.155 Y8.545 I-1.114 J-0.451
G01 X-5.487 Y9.591
G03 X-6.697 Y8.869 I-0.106 J-1.197
X-8.81 Y3.582 I154.538 J-64.828
G02 X-9.503 Y1.864 I-129.222 J51.126
G03 X-9.704 Y1.385 I0.739 J-0.592
G02 X-13.179 Y-5.185 I-32.192 J12.823
X-16.183 Y-8.715 I-18.281 J12.514
X-16.439 Y-8.951 I-0.566 J0.357
X-24.752 Y-13.396 I-12.773 J13.892
X-33.485 Y-14.099 I-6.633 J27.808
X-47.164 Y-10.615 I2.587 J38.752
X-53.714 Y-6.296 I11.852 J25.101
X-61.61 Y2.223 I39.481 J44.512
X-62.157 Y2.945 I15.456 J12.278
G01 X-62.183 Y2.972
G02 X-68.654 Y13.263 I55.196 J41.887
X-70.725 Y18.028 I44.298 J22.086
X-71.799 Y22.29 I18.971 J7.047
X-71.807 Y24.439 I8.077 J1.105
X-70.52 Y26.809 I3.631 J-0.437
X-68.347 Y27.98 I4.23 J-5.247
X-64.05 Y28.826 I5.921 J-18.74
X-60.124 Y29.03 I4.734 J-53.222
G01 X-57.413 Y29.034
G00 Z5
X-64.674 Y22.694
Z1.2
G01 Z-1
G03 X-65.552 Y21.563 I8.833 J-7.763
G02 X-65.744 Y22.468 I5.553 J1.651
X-64.674 Y22.694 I2.085 J-7.224
G00 Z5
X-61.975 Y23.947
Z1.2
G01 Z-1
G03 X-65.08 Y20.496 I9.678 J-11.83
X-65.797 Y19.168 I8.89 J-5.657
G02 X-66.315 Y20.593 I19.96 J8.062
X-66.837 Y23.198 I10.295 J3.418
G01 X-66.759 Y23.229
G02 X-63.605 Y23.841 I4.338 J-13.921
G01 X-61.975 Y23.947
G00 Z5
X-59.542 Y25.038
Z1.2
G01 Z-1
X-58.616 Y25.029
G03 X-63.77 Y20.648 I7.608 J-14.172
X-65.691 Y16.333 I8.811 J-6.508
G02 X-67.267 Y20.285 I37.057 J17.068
X-67.87 Y23.562 I11.704 J3.848
X-67.847 Y23.794 I1.459 J-0.027
X-67.085 Y24.177 I1.56 J-2.154
X-63.694 Y24.838 I4.677 J-14.964
X-59.583 Y25.038 I5.12 J-62.888
G01 X-59.542 Y25.038
G00 Z5
X-59.574 Y26.038
Z1.2
G01 Z-1
G02 X-54.252 Y25.934 I0.24 J-123.944
G03 X-59.121 Y23.588 I9.707 J-26.372
X-62.944 Y20.087 I8.419 J-13.031
X-64.929 Y13.885 I8.094 J-6.009
G02 X-64.886 Y13.055 I-3.077 J-0.576
G03 X-64.83 Y12.487 I8.278 J0.529
G02 X-66.607 Y15.931 I52.998 J29.526
X-68.219 Y19.978 I38.04 J17.497
X-68.873 Y23.562 I12.655 J4.161
X-68.805 Y24.145 I3.48 J-0.11
X-68.577 Y24.507 I0.666 J-0.167
X-67.402 Y25.127 I2.32 J-2.974
X-63.782 Y25.835 I4.99 J-15.907
X-59.615 Y26.038 I5.192 J-63.708
G01 X-59.574 Y26.038
G00 Z5
X-59.572 Y27.038
Z1.2
G01 Z-1
G02 X-48.164 Y26.564 I0.167 J-133.5
G03 X-57.788 Y23.226 I5.354 J-30.98
X-62.118 Y19.526 I7.132 J-12.73
X-63.944 Y14.273 I7.424 J-5.524
X-63.882 Y13.584 I3.46 J-0.036
X-63.851 Y12.712 I3.757 J-0.303
X-62.456 Y6.778 I24.131 J2.542
G02 X-67.515 Y15.509 I51.723 J35.801
X-69.171 Y19.67 I39.095 J17.969
X-69.876 Y23.562 I13.63 J4.479
X-69.777 Y24.402 I4.591 J-0.115
X-69.229 Y25.272 I1.613 J-0.409
X-67.721 Y26.078 I2.974 J-3.75
X-63.87 Y26.832 I5.317 J-16.945
X-59.606 Y27.038 I5.201 J-63.413
G01 X-59.572 Y27.038
G00 Z5
X-57.424 Y28.033
Z1.2
G01 Z-1
G02 X-38.287 Y26.426 I-2.652 J-146.331
G03 X-49.267 Y25.337 I-0.461 J-51.246
X-57.271 Y22.371 I6.577 J-30.032
X-60.878 Y19.478 I6.954 J-12.366
X-62.922 Y14.828 I6.429 J-5.6
X-62.916 Y13.842 I4.442 J-0.466
G02 X-62.886 Y13.499 I-0.477 J-0.215
G03 X-62.86 Y12.841 I2.562 J-0.228
X-61.648 Y7.471 I23.394 J2.458
X-60.021 Y3.731 I24.728 J8.533
X-55.732 Y-3.009 I35.716 J17.993
G01 X-55.818 Y-2.926
G02 X-61.403 Y3.599 I43.868 J43.201
X-67.759 Y13.711 I54.413 J41.255
X-70.124 Y19.365 I39.079 J19.668
X-70.864 Y23.052 I16.434 J5.216
X-70.751 Y24.646 I5.599 J0.404
X-69.877 Y26.038 I2.567 J-0.641
X-68.034 Y27.029 I3.601 J-4.489
X-63.959 Y27.829 I5.601 J-17.753
X-57.424 Y28.033 I5.291 J-64.714
G00 Z5
X57.452 Y7.946
Z1.2
G01 Z-1
X52.812 Y8.364
G03 X60.589 Y8.323 I7.761 J734.527
X61.096 Y8.337 I0.158 J3.449
G02 X60.102 Y6.914 I-20.553 J13.298
G03 X57.452 Y7.946 I-3.135 J-4.131
G00 Z5
X63.704 Y10.584
Z1.2
G01 Z-1
X63.762 Y10.645
G02 X60.244 Y5.401 I-52.781 J31.607
G03 X57.364 Y6.951 I-3.274 J-2.632
G01 X29.123 Y9.49
X60.563 Y9.323
G03 X63.704 Y10.584 I0.136 J4.205
G00 Z5
X4.273 Y15.914
Z1.2
G01 Z-1
G03 X3.897 Y13.764 I5.596 J-2.087
G01 X-3.968 Y14.471
G03 X-4.265 Y15.907 I-5.188 J-0.324
X4.273 Y15.914 I4.213 J68.056
G00 Z5
X-5.777 Y16.932
Z1.2
G01 Z-1
X-5.827 Y17.026
G03 X-3.361 Y16.861 I4.148 J43.482
G01 X-3.329 Y16.859
X-1.13 Y16.789
G03 X5.824 Y17.022 I1.185 J68.52
X5.131 Y15.351 I11.075 J-5.572
X5.028 Y12.659 I4.932 J-1.537
G01 X-4.952 Y13.556
G03 X-5.361 Y15.996 I-5.219 J0.379
X-5.777 Y16.932 I-11.282 J-4.454
G00 Z5
X-7.613 Y18.113
Z1.2
G01 Z-1
X-7.683 Y18.209
G03 X7.684 Y18.204 I7.706 J68.984
X6.102 Y15.106 I10.069 J-7.094
X6.581 Y11.506 I4 J-1.3
X6.42 Y11.53 I-0.358 J-1.851
G01 X-5.217 Y12.576
G03 X-6.173 Y12.539 I-0.329 J-3.864
X-6.278 Y15.593 I-3.981 J1.392
X-7.613 Y18.113 I-12.167 J-4.832
G00 Z5
X64.931 Y22.404
Z1.2
G01 Z-1
X64.701 Y22.672
X65.593 Y22.533
X65.745 Y22.493
G02 X65.536 Y21.582 I-7.192 J1.17
G03 X64.931 Y22.404 I-9.738 J-6.534
G00 Z5
X61.992 Y23.94
Z1.2
G01 Z-1
X61.956 Y23.969
G02 X65.799 Y23.513 I-2.068 J-33.853
X66.847 Y23.184 I-1.166 J-5.547
X66.781 Y22.541 I-3.481 J0.032
X65.8 Y19.13 I-20.08 J3.929
G03 X61.992 Y23.94 I-12.219 J-5.762
G00 Z5
X59.077 Y25.039
Z1.2
G01 Z-1
G02 X66.005 Y24.495 I0.619 J-36.499
X67.834 Y23.823 I-1.441 J-6.746
G01 X67.836 Y23.822
G02 X67.766 Y22.363 I-5.366 J-0.474
X66.412 Y17.956 I-21.733 J4.266
G01 X65.711 Y16.388
G03 X63.273 Y21.279 I-11.649 J-2.754
X61.378 Y23.152 I-9.764 J-7.983
X58.645 Y25.034 I-11.871 J-14.314
G02 X59.077 Y25.039 I0.423 J-17.839
G00 Z5
X59.067 Y26.04
Z1.2
G01 Z-1
G02 X65.498 Y25.604 I0.486 J-40.482
X68.304 Y24.718 I-1.185 J-8.639
X68.789 Y24.194 I-0.594 J-1.036
G01 X68.826 Y24.033
G02 X68.752 Y22.187 I-6.413 J-0.667
X67.334 Y17.57 I-22.499 J4.384
X64.698 Y12.228 I-46.949 J19.845
G03 X64.925 Y13.567 I-5.004 J1.537
X63.873 Y18.546 I-9.278 J0.64
X60.762 Y22.366 I-10.406 J-5.298
X57.161 Y24.685 I-11.233 J-13.488
X54.325 Y25.902 I-15.032 J-31.116
G01 X54.243 Y25.931
G02 X59.067 Y26.04 I4.813 J-106.228
G00 Z5
X59.055 Y27.041
Z1.2
G01 Z-1
G02 X65.653 Y26.594 I0.483 J-41.789
X68.547 Y25.729 I-1.577 J-10.549
X69.596 Y24.837 I-1.148 J-2.413
X69.82 Y24.175 I-1.446 J-0.858
X69.738 Y22.013 I-7.436 J-0.801
X68.256 Y17.183 I-23.384 J4.533
X64.48 Y9.896 I-48.63 J20.577
X60.086 Y3.536 I-56.489 J34.329
G03 X57.275 Y5.957 I-3.112 J-0.771
G01 X10.553 Y10.156
G03 X8.366 Y9.533 I-0.272 J-3.196
X6.332 Y10.535 I-2.334 J-2.173
G01 X-5.307 Y11.581
G03 X-7.555 Y10.911 I-0.264 J-3.221
X-8.132 Y11.423 I-2.139 J-1.829
X-7.195 Y15.194 I-2.028 J2.506
X-10.123 Y19.533 I-11.237 J-4.426
X2.153 Y18.817 I10.04 J66.549
X10.129 Y19.533 I-1.691 J63.615
X7.07 Y14.853 I8.163 J-8.676
X9.336 Y10.69 I3.036 J-1.046
X9.939 Y10.593 I0.818 J3.16
G01 X60.569 Y10.323
G03 X63.849 Y12.926 I0.134 J3.199
X63.001 Y18.058 I-8.17 J1.286
X60.145 Y21.58 I-9.483 J-4.771
X56.747 Y23.776 I-10.557 J-12.608
X48.226 Y26.572 I-14.658 J-30.289
G02 X59.055 Y27.041 I11.388 J-137.69
G00 Z5
X59.041 Y28.041
Z1.2
G01 Z-1
G02 X65.81 Y27.583 I0.512 J-42.689
X68.997 Y26.626 I-1.733 J-11.555
X70.252 Y25.652 I-1.847 J-3.675
X70.814 Y24.306 I-2.104 J-1.669
X70.723 Y21.834 I-8.479 J-0.926
X69.179 Y16.798 I-24.229 J4.674
X65.333 Y9.373 I-49.576 J20.971
X55.687 Y-3.067 I-60.323 J36.815
G03 X58.936 Y1.755 I-28.047 J22.403
X57.187 Y4.962 I-1.954 J1.015
G01 X10.464 Y9.161
G03 X8.236 Y7.793 I-0.192 J-2.185
X7.457 Y9.033 I-2.471 J-0.688
X6.244 Y9.54 I-1.434 J-1.726
G01 X-5.397 Y10.586
G03 X-7.622 Y9.246 I-0.183 J-2.214
G01 X-7.748 Y8.938
G03 X-9.738 Y10.976 I-2.187 J-0.145
G01 X-18.28 Y11.744
X-10.139 Y11.701
G03 X-8.111 Y14.792 I-0.021 J2.224
X-11.262 Y19.228 I-10.491 J-4.115
X-14.114 Y21.28 I-12.737 J-14.695
X-1.744 Y19.801 I14.062 J65.139
X4.042 Y19.895 I1.589 J80.302
X14.137 Y21.293 I-3.846 J64.919
X10.573 Y18.585 I9.453 J-16.14
X8.037 Y14.593 I7.971 J-7.865
X8.44 Y12.344 I2.122 J-0.78
X10.375 Y11.59 I1.737 J1.598
G01 X60.575 Y11.323
G03 X62.856 Y13.042 I0.129 J2.201
X62.127 Y17.575 I-7.169 J1.172
X59.525 Y20.797 I-8.594 J-4.278
X56.332 Y22.868 I-9.891 J-11.752
X46.944 Y25.782 I-14.396 J-29.798
X38.289 Y26.426 I-8.387 J-54.229
G02 X41.67 Y26.898 I15.307 J-97.303
X59.041 Y28.041 I17.962 J-140.407
G00 Z5
X-57.413 Y29.034
Z1.2
G01 Z-1
X-57.383 Y29.034
G02 X-48.839 Y28.633 I-1.672 J-126.848
X-38.394 Y27.455 I-11.747 J-151.051
G01 X-38.394 Y25.428
G03 X-48.999 Y24.371 I-0.359 J-50.123
G02 X-49.029 Y24.366 I-0.018 J0.017
G03 X-55.955 Y21.94 I6.549 J-29.795
X-59.623 Y19.363 I6.254 J-12.8
X-61.725 Y15.851 I5.642 J-5.762
X-61.942 Y14.123 I5.298 J-1.543
X-61.878 Y13.795 I1.047 J0.034
G01 X-61.837 Y13.702
G03 X-61.868 Y12.965 I1.471 J-0.431
X-61.11 Y9.079 I21.305 J2.139
X-59.138 Y4.199 I24.421 J7.03
X-52.848 Y-4.852 I35.079 J17.667
X-42.575 Y-11.923 I20.971 J19.47
X-31.418 Y-13.969 I10.889 J27.934
X-24.582 Y-13.106 I0.26 J25.447
X-19.507 Y-10.849 I-4.803 J17.633
X-14.942 Y-6.616 I-9.786 J15.131
X-11.616 Y-0.869 I-21.765 J16.432
G02 X-11.119 Y0.27 I32.538 J-13.52
G03 X-10.936 Y0.711 I-0.992 J0.67
G02 X-10.127 Y2.976 I66.703 J-22.548
G03 X-8.745 Y8.679 I-29.367 J10.135
X-9.829 Y9.981 I-1.188 J0.113
G01 X-41.994 Y12.871
X-10.134 Y12.701
X-9.853 Y12.732
G03 X-9.028 Y14.393 I-0.313 J1.191
X-11.896 Y18.455 I-9.566 J-3.711
X-16.568 Y21.427 I-12.335 J-14.233
X-25.356 Y24.16 I-16.145 J-36.419
X-38.394 Y25.428 I-13.085 J-66.877
G01 X-38.394 Y27.455
G02 X-23.106 Y24.418 I-21.604 J-148.749
G03 X-15.032 Y22.498 I59.438 J232.012
X-5.227 Y20.971 I16.193 J71.734
X0.001 Y20.8 I4.412 J54.89
X11.85 Y21.858 I0.563 J60.571
X19.845 Y23.619 I-24.909 J132.117
G02 X28.452 Y25.667 I65.478 J-256.07
X38.394 Y27.455 I31.29 J-145.45
G01 X38.394 Y25.428
G03 X23.796 Y23.823 I-0.048 J-66.75
X16.538 Y21.413 I8.148 J-36.673
X11.896 Y18.455 I7.662 J-17.146
X9.111 Y14.598 I6.685 J-7.761
X8.9 Y13.799 I1.906 J-0.931
X10.086 Y12.593 I1.187 J-0.019
G01 X10.375 Y12.591
X10.375 Y8.166
G03 X9.093 Y6.728 I-0.106 J-1.196
X10.839 Y1.067 I32.567 J6.945
X10.951 Y0.778 I0.777 J0.135
X14.445 Y-5.948 I28.109 J10.332
X18.939 Y-10.469 I15.273 J10.687
X19.753 Y-11.005 I0.975 J0.594
X26.994 Y-13.631 I10.082 J16.504
X41.694 Y-12.257 I4.569 J30.435
X52.195 Y-5.523 I-9.692 J26.669
X58.025 Y2.166 I-26.286 J25.985
X58.178 Y2.666 I-0.885 J0.544
G01 X58.19 Y2.74
G03 X57.098 Y3.968 I-1.201 J0.031
G01 X10.375 Y8.166
X10.375 Y12.591
X60.581 Y12.323
G03 X61.865 Y13.174 I0.121 J1.212
X61.943 Y14.199 I-4.483 J0.857
X61.534 Y16.441 I-5.729 J0.113
X59.569 Y19.417 I-7.675 J-2.931
X55.919 Y21.959 I-9.964 J-10.416
X46.808 Y24.792 I-13.955 J-28.812
X38.394 Y25.428 I-8.277 J-53.53
G01 X38.394 Y27.455
G02 X57.398 Y29.033 I21.503 J-143.742
X60.712 Y29.018 I1.269 J-85.83
X65.97 Y28.571 I-0.587 J-38.055
X68.997 Y27.728 I-2.074 J-13.304
X70.697 Y26.649 I-2.139 J-5.249
X71.807 Y24.439 I-2.53 J-2.655
X71.708 Y21.655 I-9.381 J-1.06
X70.102 Y16.412 I-25.126 J4.829
X66.185 Y8.849 I-50.483 J21.35
X56.745 Y-3.422 I-61.78 J37.76
X51.729 Y-7.891 I-29.72 J28.309
X45.904 Y-11.181 I-16.742 J22.841
X31.434 Y-14.169 I-14.985 J36.039
X23.907 Y-13.163 I-0.325 J26.231
X14.857 Y-7.313 I5.263 J18.067
X10.296 Y0.044 I22.314 J18.926
X9.586 Y1.711 I42.218 J18.966
X7.16 Y7.799 I494.206 J200.463
G03 X6.155 Y8.545 I-1.114 J-0.451
G01 X-5.487 Y9.591
G03 X-6.697 Y8.869 I-0.106 J-1.197
X-8.81 Y3.582 I154.538 J-64.828
G02 X-9.503 Y1.864 I-129.222 J51.126
G03 X-9.704 Y1.385 I0.739 J-0.592
G02 X-13.179 Y-5.185 I-32.192 J12.823
X-16.183 Y-8.715 I-18.281 J12.514
X-16.439 Y-8.951 I-0.566 J0.357
X-24.752 Y-13.396 I-12.773 J13.892
X-33.485 Y-14.099 I-6.633 J27.808
X-47.164 Y-10.615 I2.587 J38.752
X-53.714 Y-6.296 I11.852 J25.101
X-61.61 Y2.223 I39.481 J44.512
X-62.157 Y2.945 I15.456 J12.278
G01 X-62.183 Y2.972
G02 X-68.654 Y13.263 I55.196 J41.887
X-70.725 Y18.028 I44.298 J22.086
X-71.799 Y22.29 I18.971 J7.047
X-71.807 Y24.439 I8.077 J1.105
X-70.52 Y26.809 I3.631 J-0.437
X-68.347 Y27.98 I4.23 J-5.247
X-64.05 Y28.826 I5.921 J-18.74
X-60.124 Y29.03 I4.734 J-53.222
G01 X-57.413 Y29.034
G00 Z5
X-64.674 Y22.694
Z1
G01 Z-1.2
G03 X-65.552 Y21.563 I8.833 J-7.763
G02 X-65.744 Y22.468 I5.553 J1.651
X-64.674 Y22.694 I2.085 J-7.224
G00 Z5
X-61.975 Y23.947
Z1
G01 Z-1.2
G03 X-65.08 Y20.496 I9.678 J-11.83
X-65.797 Y19.168 I8.89 J-5.657
G02 X-66.315 Y20.593 I19.96 J8.062
X-66.837 Y23.198 I10.295 J3.418
G01 X-66.759 Y23.229
G02 X-63.605 Y23.841 I4.338 J-13.921
G01 X-61.975 Y23.947
G00 Z5
X-59.542 Y25.038
Z1
G01 Z-1.2
X-58.616 Y25.029
G03 X-63.77 Y20.648 I7.608 J-14.172
X-65.691 Y16.333 I8.811 J-6.508
G02 X-67.267 Y20.285 I37.057 J17.068
X-67.87 Y23.562 I11.704 J3.848
X-67.847 Y23.794 I1.459 J-0.027
X-67.085 Y24.177 I1.56 J-2.154
X-63.694 Y24.838 I4.677 J-14.964
X-59.583 Y25.038 I5.12 J-62.888
G01 X-59.542 Y25.038
G00 Z5
X-59.574 Y26.038
Z1
G01 Z-1.2
G02 X-54.252 Y25.934 I0.24 J-123.944
G03 X-59.121 Y23.588 I9.707 J-26.372
X-62.944 Y20.087 I8.419 J-13.031
X-64.929 Y13.885 I8.094 J-6.009
G02 X-64.886 Y13.055 I-3.077 J-0.576
G03 X-64.83 Y12.487 I8.278 J0.529
G02 X-66.607 Y15.931 I52.998 J29.526
X-68.219 Y19.978 I38.04 J17.497
X-68.873 Y23.562 I12.655 J4.161
X-68.805 Y24.145 I3.48 J-0.11
X-68.577 Y24.507 I0.666 J-0.167
X-67.402 Y25.127 I2.32 J-2.974
X-63.782 Y25.835 I4.99 J-15.907
X-59.615 Y26.038 I5.192 J-63.708
G01 X-59.574 Y26.038
G00 Z5
X-59.572 Y27.038
Z1
G01 Z-1.2
G02 X-48.164 Y26.564 I0.167 J-133.5
G03 X-57.788 Y23.226 I5.354 J-30.98
X-62.118 Y19.526 I7.132 J-12.73
X-63.944 Y14.273 I7.424 J-5.524
X-63.882 Y13.584 I3.46 J-0.036
X-63.851 Y12.712 I3.757 J-0.303
X-62.456 Y6.778 I24.131 J2.542
G02 X-67.515 Y15.509 I51.723 J35.801
X-69.171 Y19.67 I39.095 J17.969
X-69.876 Y23.562 I13.63 J4.479
X-69.777 Y24.402 I4.591 J-0.115
X-69.229 Y25.272 I1.613 J-0.409
X-67.721 Y26.078 I2.974 J-3.75
X-63.87 Y26.832 I5.317 J-16.945
X-59.606 Y27.038 I5.201 J-63.413
G01 X-59.572 Y27.038
G00 Z5
X-57.424 Y28.033
Z1
G01 Z-1.2
G02 X-38.287 Y26.426 I-2.652 J-146.331
G03 X-49.267 Y25.337 I-0.461 J-51.246
X-57.271 Y22.371 I6.577 J-30.032
X-60.878 Y19.478 I6.954 J-12.366
X-62.922 Y14.828 I6.429 J-5.6
X-62.916 Y13.842 I4.442 J-0.466
G02 X-62.886 Y13.499 I-0.477 J-0.215
G03 X-62.86 Y12.841 I2.562 J-0.228
X-61.648 Y7.471 I23.394 J2.458
X-60.021 Y3.731 I24.728 J8.533
X-55.732 Y-3.009 I35.716 J17.993
G01 X-55.818 Y-2.926
G02 X-61.403 Y3.599 I43.868 J43.201
X-67.759 Y13.711 I54.413 J41.255
X-70.124 Y19.365 I39.079 J19.668
X-70.864 Y23.052 I16.434 J5.216
X-70.751 Y24.646 I5.599 J0.404
X-69.877 Y26.038 I2.567 J-0.641
X-68.034 Y27.029 I3.601 J-4.489
X-63.959 Y27.829 I5.601 J-17.753
X-57.424 Y28.033 I5.291 J-64.714
G00 Z5
X57.452 Y7.946
Z1
G01 Z-1.2
X52.812 Y8.364
G03 X60.589 Y8.323 I7.761 J734.527
X61.096 Y8.337 I0.158 J3.449
G02 X60.102 Y6.914 I-20.553 J13.298
G03 X57.452 Y7.946 I-3.135 J-4.131
G00 Z5
X63.704 Y10.584
Z1
G01 Z-1.2
X63.762 Y10.645
G02 X60.244 Y5.401 I-52.781 J31.607
G03 X57.364 Y6.951 I-3.274 J-2.632
G01 X29.123 Y9.49
X60.563 Y9.323
G03 X63.704 Y10.584 I0.136 J4.205
G00 Z5
X4.273 Y15.914
Z1
G01 Z-1.2
G03 X3.897 Y13.764 I5.596 J-2.087
G01 X-3.968 Y14.471
G03 X-4.265 Y15.907 I-5.188 J-0.324
X4.273 Y15.914 I4.213 J68.056
G00 Z5
X-5.777 Y16.932
Z1
G01 Z-1.2
X-5.827 Y17.026
G03 X-3.361 Y16.861 I4.148 J43.482
G01 X-3.329 Y16.859
X-1.13 Y16.789
G03 X5.824 Y17.022 I1.185 J68.52
X5.131 Y15.351 I11.075 J-5.572
X5.028 Y12.659 I4.932 J-1.537
G01 X-4.952 Y13.556
G03 X-5.361 Y15.996 I-5.219 J0.379
X-5.777 Y16.932 I-11.282 J-4.454
G00 Z5
X-7.613 Y18.113
Z1
G01 Z-1.2
X-7.683 Y18.209
G03 X7.684 Y18.204 I7.706 J68.984
X6.102 Y15.106 I10.069 J-7.094
X6.581 Y11.506 I4 J-1.3
X6.42 Y11.53 I-0.358 J-1.851
G01 X-5.217 Y12.576
G03 X-6.173 Y12.539 I-0.329 J-3.864
X-6.278 Y15.593 I-3.981 J1.392
X-7.613 Y18.113 I-12.167 J-4.832
G00 Z5
X64.931 Y22.404
Z1
G01 Z-1.2
X64.701 Y22.672
X65.593 Y22.533
X65.745 Y22.493
G02 X65.536 Y21.582 I-7.192 J1.17
G03 X64.931 Y22.404 I-9.738 J-6.534
G00 Z5
X61.992 Y23.94
Z1
G01 Z-1.2
X61.956 Y23.969
G02 X65.799 Y23.513 I-2.068 J-33.853
X66.847 Y23.184 I-1.166 J-5.547
X66.781 Y22.541 I-3.481 J0.032
X65.8 Y19.13 I-20.08 J3.929
G03 X61.992 Y23.94 I-12.219 J-5.762
G00 Z5
X59.077 Y25.039
Z1
G01 Z-1.2
G02 X66.005 Y24.495 I0.619 J-36.499
X67.834 Y23.823 I-1.441 J-6.746
G01 X67.836 Y23.822
G02 X67.766 Y22.363 I-5.366 J-0.474
X66.412 Y17.956 I-21.733 J4.266
G01 X65.711 Y16.388
G03 X63.273 Y21.279 I-11.649 J-2.754
X61.378 Y23.152 I-9.764 J-7.983
X58.645 Y25.034 I-11.871 J-14.314
G02 X59.077 Y25.039 I0.423 J-17.839
G00 Z5
X59.067 Y26.04
Z1
G01 Z-1.2
G02 X65.498 Y25.604 I0.486 J-40.482
X68.304 Y24.718 I-1.185 J-8.639
X68.789 Y24.194 I-0.594 J-1.036
G01 X68.826 Y24.033
G02 X68.752 Y22.187 I-6.413 J-0.667
X67.334 Y17.57 I-22.499 J4.384
X64.698 Y12.228 I-46.949 J19.845
G03 X64.925 Y13.567 I-5.004 J1.537
X63.873 Y18.546 I-9.278 J0.64
X60.762 Y22.366 I-10.406 J-5.298
X57.161 Y24.685 I-11.233 J-13.488
X54.325 Y25.902 I-15.032 J-31.116
G01 X54.243 Y25.931
G02 X59.067 Y26.04 I4.813 J-106.228
G00 Z5
X59.055 Y27.041
Z1
G01 Z-1.2
G02 X65.653 Y26.594 I0.483 J-41.789
X68.547 Y25.729 I-1.577 J-10.549
X69.596 Y24.837 I-1.148 J-2.413
X69.82 Y24.175 I-1.446 J-0.858
X69.738 Y22.013 I-7.436 J-0.801
X68.256 Y17.183 I-23.384 J4.533
X64.48 Y9.896 I-48.63 J20.577
X60.086 Y3.536 I-56.489 J34.329
G03 X57.275 Y5.957 I-3.112 J-0.771
G01 X10.553 Y10.156
G03 X8.366 Y9.533 I-0.272 J-3.196
X6.332 Y10.535 I-2.334 J-2.173
G01 X-5.307 Y11.581
G03 X-7.555 Y10.911 I-0.264 J-3.221
X-8.132 Y11.423 I-2.139 J-1.829
X-7.195 Y15.194 I-2.028 J2.506
X-10.123 Y19.533 I-11.237 J-4.426
X2.153 Y18.817 I10.04 J66.549
X10.129 Y19.533 I-1.691 J63.615
X7.07 Y14.853 I8.163 J-8.676
X9.336 Y10.69 I3.036 J-1.046
X9.939 Y10.593 I0.818 J3.16
G01 X60.569 Y10.323
G03 X63.849 Y12.926 I0.134 J3.199
X63.001 Y18.058 I-8.17 J1.286
X60.145 Y21.58 I-9.483 J-4.771
X56.747 Y23.776 I-10.557 J-12.608
X48.226 Y26.572 I-14.658 J-30.289
G02 X59.055 Y27.041 I11.388 J-137.69
G00 Z5
X59.041 Y28.041
Z1
G01 Z-1.2
G02 X65.81 Y27.583 I0.512 J-42.689
X68.997 Y26.626 I-1.733 J-11.555
X70.252 Y25.652 I-1.847 J-3.675
X70.814 Y24.306 I-2.104 J-1.669
X70.723 Y21.834 I-8.479 J-0.926
X69.179 Y16.798 I-24.229 J4.674
X65.333 Y9.373 I-49.576 J20.971
X55.687 Y-3.067 I-60.323 J36.815
G03 X58.936 Y1.755 I-28.047 J22.403
X57.187 Y4.962 I-1.954 J1.015
G01 X10.464 Y9.161
G03 X8.236 Y7.793 I-0.192 J-2.185
X7.457 Y9.033 I-2.471 J-0.688
X6.244 Y9.54 I-1.434 J-1.726
G01 X-5.397 Y10.586
G03 X-7.622 Y9.246 I-0.183 J-2.214
G01 X-7.748 Y8.938
G03 X-9.738 Y10.976 I-2.187 J-0.145
G01 X-18.28 Y11.744
X-10.139 Y11.701
G03 X-8.111 Y14.792 I-0.021 J2.224
X-11.262 Y19.228 I-10.491 J-4.115
X-14.114 Y21.28 I-12.737 J-14.695
X-1.744 Y19.801 I14.062 J65.139
X4.042 Y19.895 I1.589 J80.302
X14.137 Y21.293 I-3.846 J64.919
X10.573 Y18.585 I9.453 J-16.14
X8.037 Y14.593 I7.971 J-7.865
X8.44 Y12.344 I2.122 J-0.78
X10.375 Y11.59 I1.737 J1.598
G01 X60.575 Y11.323
G03 X62.856 Y13.042 I0.129 J2.201
X62.127 Y17.575 I-7.169 J1.172
X59.525 Y20.797 I-8.594 J-4.278
X56.332 Y22.868 I-9.891 J-11.752
X46.944 Y25.782 I-14.396 J-29.798
X38.289 Y26.426 I-8.387 J-54.229
G02 X41.67 Y26.898 I15.307 J-97.303
X59.041 Y28.041 I17.962 J-140.407
G00 Z5
X-57.413 Y29.034
Z1
G01 Z-1.2
X-57.383 Y29.034
G02 X-48.839 Y28.633 I-1.672 J-126.848
X-38.394 Y27.455 I-11.747 J-151.051
G01 X-38.394 Y25.428
G03 X-48.999 Y24.371 I-0.359 J-50.123
G02 X-49.029 Y24.366 I-0.018 J0.017
G03 X-55.955 Y21.94 I6.549 J-29.795
X-59.623 Y19.363 I6.254 J-12.8
X-61.725 Y15.851 I5.642 J-5.762
X-61.942 Y14.123 I5.298 J-1.543
X-61.878 Y13.795 I1.047 J0.034
G01 X-61.837 Y13.702
G03 X-61.868 Y12.965 I1.471 J-0.431
X-61.11 Y9.079 I21.305 J2.139
X-59.138 Y4.199 I24.421 J7.03
X-52.848 Y-4.852 I35.079 J17.667
X-42.575 Y-11.923 I20.971 J19.47
X-31.418 Y-13.969 I10.889 J27.934
X-24.582 Y-13.106 I0.26 J25.447
X-19.507 Y-10.849 I-4.803 J17.633
X-14.942 Y-6.616 I-9.786 J15.131
X-11.616 Y-0.869 I-21.765 J16.432
G02 X-11.119 Y0.27 I32.538 J-13.52
G03 X-10.936 Y0.711 I-0.992 J0.67
G02 X-10.127 Y2.976 I66.703 J-22.548
G03 X-8.745 Y8.679 I-29.367 J10.135
X-9.829 Y9.981 I-1.188 J0.113
G01 X-41.994 Y12.871
X-10.134 Y12.701
X-9.853 Y12.732
G03 X-9.028 Y14.393 I-0.313 J1.191
X-11.896 Y18.455 I-9.566 J-3.711
X-16.568 Y21.427 I-12.335 J-14.233
X-25.356 Y24.16 I-16.145 J-36.419
X-38.394 Y25.428 I-13.085 J-66.877
G01 X-38.394 Y27.455
G02 X-23.106 Y24.418 I-21.604 J-148.749
G03 X-15.032 Y22.498 I59.438 J232.012
X-5.227 Y20.971 I16.193 J71.734
X0.001 Y20.8 I4.412 J54.89
X11.85 Y21.858 I0.563 J60.571
X19.845 Y23.619 I-24.909 J132.117
G02 X28.452 Y25.667 I65.478 J-256.07
X38.394 Y27.455 I31.29 J-145.45
G01 X38.394 Y25.428
G03 X23.796 Y23.823 I-0.048 J-66.75
X16.538 Y21.413 I8.148 J-36.673
X11.896 Y18.455 I7.662 J-17.146
X9.111 Y14.598 I6.685 J-7.761
X8.9 Y13.799 I1.906 J-0.931
X10.086 Y12.593 I1.187 J-0.019
G01 X10.375 Y12.591
X10.375 Y8.166
G03 X9.093 Y6.728 I-0.106 J-1.196
X10.839 Y1.067 I32.567 J6.945
X10.951 Y0.778 I0.777 J0.135
X14.445 Y-5.948 I28.109 J10.332
X18.939 Y-10.469 I15.273 J10.687
X19.753 Y-11.005 I0.975 J0.594
X26.994 Y-13.631 I10.082 J16.504
X41.694 Y-12.257 I4.569 J30.435
X52.195 Y-5.523 I-9.692 J26.669
X58.025 Y2.166 I-26.286 J25.985
X58.178 Y2.666 I-0.885 J0.544
G01 X58.19 Y2.74
G03 X57.098 Y3.968 I-1.201 J0.031
G01 X10.375 Y8.166
X10.375 Y12.591
X60.581 Y12.323
G03 X61.865 Y13.174 I0.121 J1.212
X61.943 Y14.199 I-4.483 J0.857
X61.534 Y16.441 I-5.729 J0.113
X59.569 Y19.417 I-7.675 J-2.931
X55.919 Y21.959 I-9.964 J-10.416
X46.808 Y24.792 I-13.955 J-28.812
X38.394 Y25.428 I-8.277 J-53.53
G01 X38.394 Y27.455
G02 X57.398 Y29.033 I21.503 J-143.742
X60.712 Y29.018 I1.269 J-85.83
X65.97 Y28.571 I-0.587 J-38.055
X68.997 Y27.728 I-2.074 J-13.304
X70.697 Y26.649 I-2.139 J-5.249
X71.807 Y24.439 I-2.53 J-2.655
X71.708 Y21.655 I-9.381 J-1.06
X70.102 Y16.412 I-25.126 J4.829
X66.185 Y8.849 I-50.483 J21.35
X56.745 Y-3.422 I-61.78 J37.76
X51.729 Y-7.891 I-29.72 J28.309
X45.904 Y-11.181 I-16.742 J22.841
X31.434 Y-14.169 I-14.985 J36.039
X23.907 Y-13.163 I-0.325 J26.231
X14.857 Y-7.313 I5.263 J18.067
X10.296 Y0.044 I22.314 J18.926
X9.586 Y1.711 I42.218 J18.966
X7.16 Y7.799 I494.206 J200.463
G03 X6.155 Y8.545 I-1.114 J-0.451
G01 X-5.487 Y9.591
G03 X-6.697 Y8.869 I-0.106 J-1.197
X-8.81 Y3.582 I154.538 J-64.828
G02 X-9.503 Y1.864 I-129.222 J51.126
G03 X-9.704 Y1.385 I0.739 J-0.592
G02 X-13.179 Y-5.185 I-32.192 J12.823
X-16.183 Y-8.715 I-18.281 J12.514
X-16.439 Y-8.951 I-0.566 J0.357
X-24.752 Y-13.396 I-12.773 J13.892
X-33.485 Y-14.099 I-6.633 J27.808
X-47.164 Y-10.615 I2.587 J38.752
X-53.714 Y-6.296 I11.852 J25.101
X-61.61 Y2.223 I39.481 J44.512
X-62.157 Y2.945 I15.456 J12.278
G01 X-62.183 Y2.972
G02 X-68.654 Y13.263 I55.196 J41.887
X-70.725 Y18.028 I44.298 J22.086
X-71.799 Y22.29 I18.971 J7.047
X-71.807 Y24.439 I8.077 J1.105
X-70.52 Y26.809 I3.631 J-0.437
X-68.347 Y27.98 I4.23 J-5.247
X-64.05 Y28.826 I5.921 J-18.74
X-60.124 Y29.03 I4.734 J-53.222
G01 X-57.413 Y29.034
G00 Z5
X-64.674 Y22.694
Z0.8
G01 Z-1.4
G03 X-65.552 Y21.563 I8.833 J-7.763
G02 X-65.744 Y22.468 I5.553 J1.651
X-64.674 Y22.694 I2.085 J-7.224
G00 Z5
X-61.975 Y23.947
Z0.8
G01 Z-1.4
G03 X-65.08 Y20.496 I9.678 J-11.83
X-65.797 Y19.168 I8.89 J-5.657
G02 X-66.315 Y20.593 I19.96 J8.062
X-66.837 Y23.198 I10.295 J3.418
G01 X-66.759 Y23.229
G02 X-63.605 Y23.841 I4.338 J-13.921
G01 X-61.975 Y23.947
G00 Z5
X-59.542 Y25.038
Z0.8
G01 Z-1.4
X-58.616 Y25.029
G03 X-63.77 Y20.648 I7.608 J-14.172
X-65.691 Y16.333 I8.811 J-6.508
G02 X-67.267 Y20.285 I37.057 J17.068
X-67.87 Y23.562 I11.704 J3.848
X-67.847 Y23.794 I1.459 J-0.027
X-67.085 Y24.177 I1.56 J-2.154
X-63.694 Y24.838 I4.677 J-14.964
X-59.583 Y25.038 I5.12 J-62.888
G01 X-59.542 Y25.038
G00 Z5
X-59.574 Y26.038
Z0.8
G01 Z-1.4
G02 X-54.252 Y25.934 I0.24 J-123.944
G03 X-59.121 Y23.588 I9.707 J-26.372
X-62.944 Y20.087 I8.419 J-13.031
X-64.929 Y13.885 I8.094 J-6.009
G02 X-64.886 Y13.055 I-3.077 J-0.576
G03 X-64.83 Y12.487 I8.278 J0.529
G02 X-66.607 Y15.931 I52.998 J29.526
X-68.219 Y19.978 I38.04 J17.497
X-68.873 Y23.562 I12.655 J4.161
X-68.805 Y24.145 I3.48 J-0.11
X-68.577 Y24.507 I0.666 J-0.167
X-67.402 Y25.127 I2.32 J-2.974
X-63.782 Y25.835 I4.99 J-15.907
X-59.615 Y26.038 I5.192 J-63.708
G01 X-59.574 Y26.038
G00 Z5
X-59.572 Y27.038
Z0.8
G01 Z-1.4
G02 X-48.164 Y26.564 I0.167 J-133.5
G03 X-57.788 Y23.226 I5.354 J-30.98
X-62.118 Y19.526 I7.132 J-12.73
X-63.944 Y14.273 I7.424 J-5.524
X-63.882 Y13.584 I3.46 J-0.036
X-63.851 Y12.712 I3.757 J-0.303
X-62.456 Y6.778 I24.131 J2.542
G02 X-67.515 Y15.509 I51.723 J35.801
X-69.171 Y19.67 I39.095 J17.969
X-69.876 Y23.562 I13.63 J4.479
X-69.777 Y24.402 I4.591 J-0.115
X-69.229 Y25.272 I1.613 J-0.409
X-67.721 Y26.078 I2.974 J-3.75
X-63.87 Y26.832 I5.317 J-16.945
X-59.606 Y27.038 I5.201 J-63.413
G01 X-59.572 Y27.038
G00 Z5
X-57.424 Y28.033
Z0.8
G01 Z-1.4
G02 X-38.287 Y26.426 I-2.652 J-146.331
G03 X-49.267 Y25.337 I-0.461 J-51.246
X-57.271 Y22.371 I6.577 J-30.032
X-60.878 Y19.478 I6.954 J-12.366
X-62.922 Y14.828 I6.429 J-5.6
X-62.916 Y13.842 I4.442 J-0.466
G02 X-62.886 Y13.499 I-0.477 J-0.215
G03 X-62.86 Y12.841 I2.562 J-0.228
X-61.648 Y7.471 I23.394 J2.458
X-60.021 Y3.731 I24.728 J8.533
X-55.732 Y-3.009 I35.716 J17.993
G01 X-55.818 Y-2.926
G02 X-61.403 Y3.599 I43.868 J43.201
X-67.759 Y13.711 I54.413 J41.255
X-70.124 Y19.365 I39.079 J19.668
X-70.864 Y23.052 I16.434 J5.216
X-70.751 Y24.646 I5.599 J0.404
X-69.877 Y26.038 I2.567 J-0.641
X-68.034 Y27.029 I3.601 J-4.489
X-63.959 Y27.829 I5.601 J-17.753
X-57.424 Y28.033 I5.291 J-64.714
G00 Z5
X57.452 Y7.946
Z0.8
G01 Z-1.4
X52.812 Y8.364
G03 X60.589 Y8.323 I7.761 J734.527
X61.096 Y8.337 I0.158 J3.449
G02 X60.102 Y6.914 I-20.553 J13.298
G03 X57.452 Y7.946 I-3.135 J-4.131
G00 Z5
X63.704 Y10.584
Z0.8
G01 Z-1.4
X63.762 Y10.645
G02 X60.244 Y5.401 I-52.781 J31.607
G03 X57.364 Y6.951 I-3.274 J-2.632
G01 X29.123 Y9.49
X60.563 Y9.323
G03 X63.704 Y10.584 I0.136 J4.205
G00 Z5
X4.273 Y15.914
Z0.8
G01 Z-1.4
G03 X3.897 Y13.764 I5.596 J-2.087
G01 X-3.968 Y14.471
G03 X-4.265 Y15.907 I-5.188 J-0.324
X4.273 Y15.914 I4.213 J68.056
G00 Z5
X-5.777 Y16.932
Z0.8
G01 Z-1.4
X-5.827 Y17.026
G03 X-3.361 Y16.861 I4.148 J43.482
G01 X-3.329 Y16.859
X-1.13 Y16.789
G03 X5.824 Y17.022 I1.185 J68.52
X5.131 Y15.351 I11.075 J-5.572
X5.028 Y12.659 I4.932 J-1.537
G01 X-4.952 Y13.556
G03 X-5.361 Y15.996 I-5.219 J0.379
X-5.777 Y16.932 I-11.282 J-4.454
G00 Z5
X-7.613 Y18.113
Z0.8
G01 Z-1.4
X-7.683 Y18.209
G03 X7.684 Y18.204 I7.706 J68.984
X6.102 Y15.106 I10.069 J-7.094
X6.581 Y11.506 I4 J-1.3
X6.42 Y11.53 I-0.358 J-1.851
G01 X-5.217 Y12.576
G03 X-6.173 Y12.539 I-0.329 J-3.864
X-6.278 Y15.593 I-3.981 J1.392
X-7.613 Y18.113 I-12.167 J-4.832
G00 Z5
X64.931 Y22.404
Z0.8
G01 Z-1.4
X64.701 Y22.672
X65.593 Y22.533
X65.745 Y22.493
G02 X65.536 Y21.582 I-7.192 J1.17
G03 X64.931 Y22.404 I-9.738 J-6.534
G00 Z5
X61.992 Y23.94
Z0.8
G01 Z-1.4
X61.956 Y23.969
G02 X65.799 Y23.513 I-2.068 J-33.853
X66.847 Y23.184 I-1.166 J-5.547
X66.781 Y22.541 I-3.481 J0.032
X65.8 Y19.13 I-20.08 J3.929
G03 X61.992 Y23.94 I-12.219 J-5.762
G00 Z5
X59.077 Y25.039
Z0.8
G01 Z-1.4
G02 X66.005 Y24.495 I0.619 J-36.499
X67.834 Y23.823 I-1.441 J-6.746
G01 X67.836 Y23.822
G02 X67.766 Y22.363 I-5.366 J-0.474
X66.412 Y17.956 I-21.733 J4.266
G01 X65.711 Y16.388
G03 X63.273 Y21.279 I-11.649 J-2.754
X61.378 Y23.152 I-9.764 J-7.983
X58.645 Y25.034 I-11.871 J-14.314
G02 X59.077 Y25.039 I0.423 J-17.839
G00 Z5
X59.067 Y26.04
Z0.8
G01 Z-1.4
G02 X65.498 Y25.604 I0.486 J-40.482
X68.304 Y24.718 I-1.185 J-8.639
X68.789 Y24.194 I-0.594 J-1.036
G01 X68.826 Y24.033
G02 X68.752 Y22.187 I-6.413 J-0.667
X67.334 Y17.57 I-22.499 J4.384
X64.698 Y12.228 I-46.949 J19.845
G03 X64.925 Y13.567 I-5.004 J1.537
X63.873 Y18.546 I-9.278 J0.64
X60.762 Y22.366 I-10.406 J-5.298
X57.161 Y24.685 I-11.233 J-13.488
X54.325 Y25.902 I-15.032 J-31.116
G01 X54.243 Y25.931
G02 X59.067 Y26.04 I4.813 J-106.228
G00 Z5
X59.055 Y27.041
Z0.8
G01 Z-1.4
G02 X65.653 Y26.594 I0.483 J-41.789
X68.547 Y25.729 I-1.577 J-10.549
X69.596 Y24.837 I-1.148 J-2.413
X69.82 Y24.175 I-1.446 J-0.858
X69.738 Y22.013 I-7.436 J-0.801
X68.256 Y17.183 I-23.384 J4.533
X64.48 Y9.896 I-48.63 J20.577
X60.086 Y3.536 I-56.489 J34.329
G03 X57.275 Y5.957 I-3.112 J-0.771
G01 X10.553 Y10.156
G03 X8.366 Y9.533 I-0.272 J-3.196
X6.332 Y10.535 I-2.334 J-2.173
G01 X-5.307 Y11.581
G03 X-7.555 Y10.911 I-0.264 J-3.221
X-8.132 Y11.423 I-2.139 J-1.829
X-7.195 Y15.194 I-2.028 J2.506
X-10.123 Y19.533 I-11.237 J-4.426
X2.153 Y18.817 I10.04 J66.549
X10.129 Y19.533 I-1.691 J63.615
X7.07 Y14.853 I8.163 J-8.676
X9.336 Y10.69 I3.036 J-1.046
X9.939 Y10.593 I0.818 J3.16
G01 X60.569 Y10.323
G03 X63.849 Y12.926 I0.134 J3.199
X63.001 Y18.058 I-8.17 J1.286
X60.145 Y21.58 I-9.483 J-4.771
X56.747 Y23.776 I-10.557 J-12.608
X48.226 Y26.572 I-14.658 J-30.289
G02 X59.055 Y27.041 I11.388 J-137.69
G00 Z5
X59.041 Y28.041
Z0.8
G01 Z-1.4
G02 X65.81 Y27.583 I0.512 J-42.689
X68.997 Y26.626 I-1.733 J-11.555
X70.252 Y25.652 I-1.847 J-3.675
X70.814 Y24.306 I-2.104 J-1.669
X70.723 Y21.834 I-8.479 J-0.926
X69.179 Y16.798 I-24.229 J4.674
X65.333 Y9.373 I-49.576 J20.971
X55.687 Y-3.067 I-60.323 J36.815
G03 X58.936 Y1.755 I-28.047 J22.403
X57.187 Y4.962 I-1.954 J1.015
G01 X10.464 Y9.161
G03 X8.236 Y7.793 I-0.192 J-2.185
X7.457 Y9.033 I-2.471 J-0.688
X6.244 Y9.54 I-1.434 J-1.726
G01 X-5.397 Y10.586
G03 X-7.622 Y9.246 I-0.183 J-2.214
G01 X-7.748 Y8.938
G03 X-9.738 Y10.976 I-2.187 J-0.145
G01 X-18.28 Y11.744
X-10.139 Y11.701
G03 X-8.111 Y14.792 I-0.021 J2.224
X-11.262 Y19.228 I-10.491 J-4.115
X-14.114 Y21.28 I-12.737 J-14.695
X-1.744 Y19.801 I14.062 J65.139
X4.042 Y19.895 I1.589 J80.302
X14.137 Y21.293 I-3.846 J64.919
X10.573 Y18.585 I9.453 J-16.14
X8.037 Y14.593 I7.971 J-7.865
X8.44 Y12.344 I2.122 J-0.78
X10.375 Y11.59 I1.737 J1.598
G01 X60.575 Y11.323
G03 X62.856 Y13.042 I0.129 J2.201
X62.127 Y17.575 I-7.169 J1.172
X59.525 Y20.797 I-8.594 J-4.278
X56.332 Y22.868 I-9.891 J-11.752
X46.944 Y25.782 I-14.396 J-29.798
X38.289 Y26.426 I-8.387 J-54.229
G02 X41.67 Y26.898 I15.307 J-97.303
X59.041 Y28.041 I17.962 J-140.407
G00 Z5
X-57.413 Y29.034
Z0.8
G01 Z-1.4
X-57.383 Y29.034
G02 X-48.839 Y28.633 I-1.672 J-126.848
X-38.394 Y27.455 I-11.747 J-151.051
G01 X-38.394 Y25.428
G03 X-48.999 Y24.371 I-0.359 J-50.123
G02 X-49.029 Y24.366 I-0.018 J0.017
G03 X-55.955 Y21.94 I6.549 J-29.795
X-59.623 Y19.363 I6.254 J-12.8
X-61.725 Y15.851 I5.642 J-5.762
X-61.942 Y14.123 I5.298 J-1.543
X-61.878 Y13.795 I1.047 J0.034
G01 X-61.837 Y13.702
G03 X-61.868 Y12.965 I1.471 J-0.431
X-61.11 Y9.079 I21.305 J2.139
X-59.138 Y4.199 I24.421 J7.03
X-52.848 Y-4.852 I35.079 J17.667
X-42.575 Y-11.923 I20.971 J19.47
X-31.418 Y-13.969 I10.889 J27.934
X-24.582 Y-13.106 I0.26 J25.447
X-19.507 Y-10.849 I-4.803 J17.633
X-14.942 Y-6.616 I-9.786 J15.131
X-11.616 Y-0.869 I-21.765 J16.432
G02 X-11.119 Y0.27 I32.538 J-13.52
G03 X-10.936 Y0.711 I-0.992 J0.67
G02 X-10.127 Y2.976 I66.703 J-22.548
G03 X-8.745 Y8.679 I-29.367 J10.135
X-9.829 Y9.981 I-1.188 J0.113
G01 X-41.994 Y12.871
X-10.134 Y12.701
X-9.853 Y12.732
G03 X-9.028 Y14.393 I-0.313 J1.191
X-11.896 Y18.455 I-9.566 J-3.711
X-16.568 Y21.427 I-12.335 J-14.233
X-25.356 Y24.16 I-16.145 J-36.419
X-38.394 Y25.428 I-13.085 J-66.877
G01 X-38.394 Y27.455
G02 X-23.106 Y24.418 I-21.604 J-148.749
G03 X-15.032 Y22.498 I59.438 J232.012
X-5.227 Y20.971 I16.193 J71.734
X0.001 Y20.8 I4.412 J54.89
X11.85 Y21.858 I0.563 J60.571
X19.845 Y23.619 I-24.909 J132.117
G02 X28.452 Y25.667 I65.478 J-256.07
X38.394 Y27.455 I31.29 J-145.45
G01 X38.394 Y25.428
G03 X23.796 Y23.823 I-0.048 J-66.75
X16.538 Y21.413 I8.148 J-36.673
X11.896 Y18.455 I7.662 J-17.146
X9.111 Y14.598 I6.685 J-7.761
X8.9 Y13.799 I1.906 J-0.931
X10.086 Y12.593 I1.187 J-0.019
G01 X10.375 Y12.591
X10.375 Y8.166
G03 X9.093 Y6.728 I-0.106 J-1.196
X10.839 Y1.067 I32.567 J6.945
X10.951 Y0.778 I0.777 J0.135
X14.445 Y-5.948 I28.109 J10.332
X18.939 Y-10.469 I15.273 J10.687
X19.753 Y-11.005 I0.975 J0.594
X26.994 Y-13.631 I10.082 J16.504
X41.694 Y-12.257 I4.569 J30.435
X52.195 Y-5.523 I-9.692 J26.669
X58.025 Y2.166 I-26.286 J25.985
X58.178 Y2.666 I-0.885 J0.544
G01 X58.19 Y2.74
G03 X57.098 Y3.968 I-1.201 J0.031
G01 X10.375 Y8.166
X10.375 Y12.591
X60.581 Y12.323
G03 X61.865 Y13.174 I0.121 J1.212
X61.943 Y14.199 I-4.483 J0.857
X61.534 Y16.441 I-5.729 J0.113
X59.569 Y19.417 I-7.675 J-2.931
X55.919 Y21.959 I-9.964 J-10.416
X46.808 Y24.792 I-13.955 J-28.812
X38.394 Y25.428 I-8.277 J-53.53
G01 X38.394 Y27.455
G02 X57.398 Y29.033 I21.503 J-143.742
X60.712 Y29.018 I1.269 J-85.83
X65.97 Y28.571 I-0.587 J-38.055
X68.997 Y27.728 I-2.074 J-13.304
X70.697 Y26.649 I-2.139 J-5.249
X71.807 Y24.439 I-2.53 J-2.655
X71.708 Y21.655 I-9.381 J-1.06
X70.102 Y16.412 I-25.126 J4.829
X66.185 Y8.849 I-50.483 J21.35
X56.745 Y-3.422 I-61.78 J37.76
X51.729 Y-7.891 I-29.72 J28.309
X45.904 Y-11.181 I-16.742 J22.841
X31.434 Y-14.169 I-14.985 J36.039
X23.907 Y-13.163 I-0.325 J26.231
X14.857 Y-7.313 I5.263 J18.067
X10.296 Y0.044 I22.314 J18.926
X9.586 Y1.711 I42.218 J18.966
X7.16 Y7.799 I494.206 J200.463
G03 X6.155 Y8.545 I-1.114 J-0.451
G01 X-5.487 Y9.591
G03 X-6.697 Y8.869 I-0.106 J-1.197
X-8.81 Y3.582 I154.538 J-64.828
G02 X-9.503 Y1.864 I-129.222 J51.126
G03 X-9.704 Y1.385 I0.739 J-0.592
G02 X-13.179 Y-5.185 I-32.192 J12.823
X-16.183 Y-8.715 I-18.281 J12.514
X-16.439 Y-8.951 I-0.566 J0.357
X-24.752 Y-13.396 I-12.773 J13.892
X-33.485 Y-14.099 I-6.633 J27.808
X-47.164 Y-10.615 I2.587 J38.752
X-53.714 Y-6.296 I11.852 J25.101
X-61.61 Y2.223 I39.481 J44.512
X-62.157 Y2.945 I15.456 J12.278
G01 X-62.183 Y2.972
G02 X-68.654 Y13.263 I55.196 J41.887
X-70.725 Y18.028 I44.298 J22.086
X-71.799 Y22.29 I18.971 J7.047
X-71.807 Y24.439 I8.077 J1.105
X-70.52 Y26.809 I3.631 J-0.437
X-68.347 Y27.98 I4.23 J-5.247
X-64.05 Y28.826 I5.921 J-18.74
X-60.124 Y29.03 I4.734 J-53.222
G01 X-57.413 Y29.034
G00 Z5
X-64.674 Y22.694
Z0.6
G01 Z-1.6
G03 X-65.552 Y21.563 I8.833 J-7.763
G02 X-65.744 Y22.468 I5.553 J1.651
X-64.674 Y22.694 I2.085 J-7.224
G00 Z5
X-61.975 Y23.947
Z0.6
G01 Z-1.6
G03 X-65.08 Y20.496 I9.678 J-11.83
X-65.797 Y19.168 I8.89 J-5.657
G02 X-66.315 Y20.593 I19.96 J8.062
X-66.837 Y23.198 I10.295 J3.418
G01 X-66.759 Y23.229
G02 X-63.605 Y23.841 I4.338 J-13.921
G01 X-61.975 Y23.947
G00 Z5
X-59.542 Y25.038
Z0.6
G01 Z-1.6
X-58.616 Y25.029
G03 X-63.77 Y20.648 I7.608 J-14.172
X-65.691 Y16.333 I8.811 J-6.508
G02 X-67.267 Y20.285 I37.057 J17.068
X-67.87 Y23.562 I11.704 J3.848
X-67.847 Y23.794 I1.459 J-0.027
X-67.085 Y24.177 I1.56 J-2.154
X-63.694 Y24.838 I4.677 J-14.964
X-59.583 Y25.038 I5.12 J-62.888
G01 X-59.542 Y25.038
G00 Z5
X-59.574 Y26.038
Z0.6
G01 Z-1.6
G02 X-54.252 Y25.934 I0.24 J-123.944
G03 X-59.121 Y23.588 I9.707 J-26.372
X-62.944 Y20.087 I8.419 J-13.031
X-64.929 Y13.885 I8.094 J-6.009
G02 X-64.886 Y13.055 I-3.077 J-0.576
G03 X-64.83 Y12.487 I8.278 J0.529
G02 X-66.607 Y15.931 I52.998 J29.526
X-68.219 Y19.978 I38.04 J17.497
X-68.873 Y23.562 I12.655 J4.161
X-68.805 Y24.145 I3.48 J-0.11
X-68.577 Y24.507 I0.666 J-0.167
X-67.402 Y25.127 I2.32 J-2.974
X-63.782 Y25.835 I4.99 J-15.907
X-59.615 Y26.038 I5.192 J-63.708
G01 X-59.574 Y26.038
G00 Z5
X-59.572 Y27.038
Z0.6
G01 Z-1.6
G02 X-48.164 Y26.564 I0.167 J-133.5
G03 X-57.788 Y23.226 I5.354 J-30.98
X-62.118 Y19.526 I7.132 J-12.73
X-63.944 Y14.273 I7.424 J-5.524
X-63.882 Y13.584 I3.46 J-0.036
X-63.851 Y12.712 I3.757 J-0.303
X-62.456 Y6.778 I24.131 J2.542
G02 X-67.515 Y15.509 I51.723 J35.801
X-69.171 Y19.67 I39.095 J17.969
X-69.876 Y23.562 I13.63 J4.479
X-69.777 Y24.402 I4.591 J-0.115
X-69.229 Y25.272 I1.613 J-0.409
X-67.721 Y26.078 I2.974 J-3.75
X-63.87 Y26.832 I5.317 J-16.945
X-59.606 Y27.038 I5.201 J-63.413
G01 X-59.572 Y27.038
G00 Z5
X-57.424 Y28.033
Z0.6
G01 Z-1.6
G02 X-38.287 Y26.426 I-2.652 J-146.331
G03 X-49.267 Y25.337 I-0.461 J-51.246
X-57.271 Y22.371 I6.577 J-30.032
X-60.878 Y19.478 I6.954 J-12.366
X-62.922 Y14.828 I6.429 J-5.6
X-62.916 Y13.842 I4.442 J-0.466
G02 X-62.886 Y13.499 I-0.477 J-0.215
G03 X-62.86 Y12.841 I2.562 J-0.228
X-61.648 Y7.471 I23.394 J2.458
X-60.021 Y3.731 I24.728 J8.533
X-55.732 Y-3.009 I35.716 J17.993
G01 X-55.818 Y-2.926
G02 X-61.403 Y3.599 I43.868 J43.201
X-67.759 Y13.711 I54.413 J41.255
X-70.124 Y19.365 I39.079 J19.668
X-70.864 Y23.052 I16.434 J5.216
X-70.751 Y24.646 I5.599 J0.404
X-69.877 Y26.038 I2.567 J-0.641
X-68.034 Y27.029 I3.601 J-4.489
X-63.959 Y27.829 I5.601 J-17.753
X-57.424 Y28.033 I5.291 J-64.714
G00 Z5
X57.452 Y7.946
Z0.6
G01 Z-1.6
X52.812 Y8.364
G03 X60.589 Y8.323 I7.761 J734.527
X61.096 Y8.337 I0.158 J3.449
G02 X60.102 Y6.914 I-20.553 J13.298
G03 X57.452 Y7.946 I-3.135 J-4.131
G00 Z5
X63.704 Y10.584
Z0.6
G01 Z-1.6
X63.762 Y10.645
G02 X60.244 Y5.401 I-52.781 J31.607
G03 X57.364 Y6.951 I-3.274 J-2.632
G01 X29.123 Y9.49
X60.563 Y9.323
G03 X63.704 Y10.584 I0.136 J4.205
G00 Z5
X4.273 Y15.914
Z0.6
G01 Z-1.6
G03 X3.897 Y13.764 I5.596 J-2.087
G01 X-3.968 Y14.471
G03 X-4.265 Y15.907 I-5.188 J-0.324
X4.273 Y15.914 I4.213 J68.056
G00 Z5
X-5.777 Y16.932
Z0.6
G01 Z-1.6
X-5.827 Y17.026
G03 X-3.361 Y16.861 I4.148 J43.482
G01 X-3.329 Y16.859
X-1.13 Y16.789
G03 X5.824 Y17.022 I1.185 J68.52
X5.131 Y15.351 I11.075 J-5.572
X5.028 Y12.659 I4.932 J-1.537
G01 X-4.952 Y13.556
G03 X-5.361 Y15.996 I-5.219 J0.379
X-5.777 Y16.932 I-11.282 J-4.454
G00 Z5
X-7.613 Y18.113
Z0.6
G01 Z-1.6
X-7.683 Y18.209
G03 X7.684 Y18.204 I7.706 J68.984
X6.102 Y15.106 I10.069 J-7.094
X6.581 Y11.506 I4 J-1.3
X6.42 Y11.53 I-0.358 J-1.851
G01 X-5.217 Y12.576
G03 X-6.173 Y12.539 I-0.329 J-3.864
X-6.278 Y15.593 I-3.981 J1.392
X-7.613 Y18.113 I-12.167 J-4.832
G00 Z5
X64.931 Y22.404
Z0.6
G01 Z-1.6
X64.701 Y22.672
X65.593 Y22.533
X65.745 Y22.493
G02 X65.536 Y21.582 I-7.192 J1.17
G03 X64.931 Y22.404 I-9.738 J-6.534
G00 Z5
X61.992 Y23.94
Z0.6
G01 Z-1.6
X61.956 Y23.969
G02 X65.799 Y23.513 I-2.068 J-33.853
X66.847 Y23.184 I-1.166 J-5.547
X66.781 Y22.541 I-3.481 J0.032
X65.8 Y19.13 I-20.08 J3.929
G03 X61.992 Y23.94 I-12.219 J-5.762
G00 Z5
X59.077 Y25.039
Z0.6
G01 Z-1.6
G02 X66.005 Y24.495 I0.619 J-36.499
X67.834 Y23.823 I-1.441 J-6.746
G01 X67.836 Y23.822
G02 X67.766 Y22.363 I-5.366 J-0.474
X66.412 Y17.956 I-21.733 J4.266
G01 X65.711 Y16.388
G03 X63.273 Y21.279 I-11.649 J-2.754
X61.378 Y23.152 I-9.764 J-7.983
X58.645 Y25.034 I-11.871 J-14.314
G02 X59.077 Y25.039 I0.423 J-17.839
G00 Z5
X59.067 Y26.04
Z0.6
G01 Z-1.6
G02 X65.498 Y25.604 I0.486 J-40.482
X68.304 Y24.718 I-1.185 J-8.639
X68.789 Y24.194 I-0.594 J-1.036
G01 X68.826 Y24.033
G02 X68.752 Y22.187 I-6.413 J-0.667
X67.334 Y17.57 I-22.499 J4.384
X64.698 Y12.228 I-46.949 J19.845
G03 X64.925 Y13.567 I-5.004 J1.537
X63.873 Y18.546 I-9.278 J0.64
X60.762 Y22.366 I-10.406 J-5.298
X57.161 Y24.685 I-11.233 J-13.488
X54.325 Y25.902 I-15.032 J-31.116
G01 X54.243 Y25.931
G02 X59.067 Y26.04 I4.813 J-106.228
G00 Z5
X59.055 Y27.041
Z0.6
G01 Z-1.6
G02 X65.653 Y26.594 I0.483 J-41.789
X68.547 Y25.729 I-1.577 J-10.549
X69.596 Y24.837 I-1.148 J-2.413
X69.82 Y24.175 I-1.446 J-0.858
X69.738 Y22.013 I-7.436 J-0.801
X68.256 Y17.183 I-23.384 J4.533
X64.48 Y9.896 I-48.63 J20.577
X60.086 Y3.536 I-56.489 J34.329
G03 X57.275 Y5.957 I-3.112 J-0.771
G01 X10.553 Y10.156
G03 X8.366 Y9.533 I-0.272 J-3.196
X6.332 Y10.535 I-2.334 J-2.173
G01 X-5.307 Y11.581
G03 X-7.555 Y10.911 I-0.264 J-3.221
X-8.132 Y11.423 I-2.139 J-1.829
X-7.195 Y15.194 I-2.028 J2.506
X-10.123 Y19.533 I-11.237 J-4.426
X2.153 Y18.817 I10.04 J66.549
X10.129 Y19.533 I-1.691 J63.615
X7.07 Y14.853 I8.163 J-8.676
X9.336 Y10.69 I3.036 J-1.046
X9.939 Y10.593 I0.818 J3.16
G01 X60.569 Y10.323
G03 X63.849 Y12.926 I0.134 J3.199
X63.001 Y18.058 I-8.17 J1.286
X60.145 Y21.58 I-9.483 J-4.771
X56.747 Y23.776 I-10.557 J-12.608
X48.226 Y26.572 I-14.658 J-30.289
G02 X59.055 Y27.041 I11.388 J-137.69
G00 Z5
X59.041 Y28.041
Z0.6
G01 Z-1.6
G02 X65.81 Y27.583 I0.512 J-42.689
X68.997 Y26.626 I-1.733 J-11.555
X70.252 Y25.652 I-1.847 J-3.675
X70.814 Y24.306 I-2.104 J-1.669
X70.723 Y21.834 I-8.479 J-0.926
X69.179 Y16.798 I-24.229 J4.674
X65.333 Y9.373 I-49.576 J20.971
X55.687 Y-3.067 I-60.323 J36.815
G03 X58.936 Y1.755 I-28.047 J22.403
X57.187 Y4.962 I-1.954 J1.015
G01 X10.464 Y9.161
G03 X8.236 Y7.793 I-0.192 J-2.185
X7.457 Y9.033 I-2.471 J-0.688
X6.244 Y9.54 I-1.434 J-1.726
G01 X-5.397 Y10.586
G03 X-7.622 Y9.246 I-0.183 J-2.214
G01 X-7.748 Y8.938
G03 X-9.738 Y10.976 I-2.187 J-0.145
G01 X-18.28 Y11.744
X-10.139 Y11.701
G03 X-8.111 Y14.792 I-0.021 J2.224
X-11.262 Y19.228 I-10.491 J-4.115
X-14.114 Y21.28 I-12.737 J-14.695
X-1.744 Y19.801 I14.062 J65.139
X4.042 Y19.895 I1.589 J80.302
X14.137 Y21.293 I-3.846 J64.919
X10.573 Y18.585 I9.453 J-16.14
X8.037 Y14.593 I7.971 J-7.865
X8.44 Y12.344 I2.122 J-0.78
X10.375 Y11.59 I1.737 J1.598
G01 X60.575 Y11.323
G03 X62.856 Y13.042 I0.129 J2.201
X62.127 Y17.575 I-7.169 J1.172
X59.525 Y20.797 I-8.594 J-4.278
X56.332 Y22.868 I-9.891 J-11.752
X46.944 Y25.782 I-14.396 J-29.798
X38.289 Y26.426 I-8.387 J-54.229
G02 X41.67 Y26.898 I15.307 J-97.303
X59.041 Y28.041 I17.962 J-140.407
G00 Z5
X-57.413 Y29.034
Z0.6
G01 Z-1.6
X-57.383 Y29.034
G02 X-48.839 Y28.633 I-1.672 J-126.848
X-38.394 Y27.455 I-11.747 J-151.051
G01 X-38.394 Y25.428
G03 X-48.999 Y24.371 I-0.359 J-50.123
G02 X-49.029 Y24.366 I-0.018 J0.017
G03 X-55.955 Y21.94 I6.549 J-29.795
X-59.623 Y19.363 I6.254 J-12.8
X-61.725 Y15.851 I5.642 J-5.762
X-61.942 Y14.123 I5.298 J-1.543
X-61.878 Y13.795 I1.047 J0.034
G01 X-61.837 Y13.702
G03 X-61.868 Y12.965 I1.471 J-0.431
X-61.11 Y9.079 I21.305 J2.139
X-59.138 Y4.199 I24.421 J7.03
X-52.848 Y-4.852 I35.079 J17.667
X-42.575 Y-11.923 I20.971 J19.47
X-31.418 Y-13.969 I10.889 J27.934
X-24.582 Y-13.106 I0.26 J25.447
X-19.507 Y-10.849 I-4.803 J17.633
X-14.942 Y-6.616 I-9.786 J15.131
X-11.616 Y-0.869 I-21.765 J16.432
G02 X-11.119 Y0.27 I32.538 J-13.52
G03 X-10.936 Y0.711 I-0.992 J0.67
G02 X-10.127 Y2.976 I66.703 J-22.548
G03 X-8.745 Y8.679 I-29.367 J10.135
X-9.829 Y9.981 I-1.188 J0.113
G01 X-41.994 Y12.871
X-10.134 Y12.701
X-9.853 Y12.732
G03 X-9.028 Y14.393 I-0.313 J1.191
X-11.896 Y18.455 I-9.566 J-3.711
X-16.568 Y21.427 I-12.335 J-14.233
X-25.356 Y24.16 I-16.145 J-36.419
X-38.394 Y25.428 I-13.085 J-66.877
G01 X-38.394 Y27.455
G02 X-23.106 Y24.418 I-21.604 J-148.749
G03 X-15.032 Y22.498 I59.438 J232.012
X-5.227 Y20.971 I16.193 J71.734
X0.001 Y20.8 I4.412 J54.89
X11.85 Y21.858 I0.563 J60.571
X19.845 Y23.619 I-24.909 J132.117
G02 X28.452 Y25.667 I65.478 J-256.07
X38.394 Y27.455 I31.29 J-145.45
G01 X38.394 Y25.428
G03 X23.796 Y23.823 I-0.048 J-66.75
X16.538 Y21.413 I8.148 J-36.673
X11.896 Y18.455 I7.662 J-17.146
X9.111 Y14.598 I6.685 J-7.761
X8.9 Y13.799 I1.906 J-0.931
X10.086 Y12.593 I1.187 J-0.019
G01 X10.375 Y12.591
X10.375 Y8.166
G03 X9.093 Y6.728 I-0.106 J-1.196
X10.839 Y1.067 I32.567 J6.945
X10.951 Y0.778 I0.777 J0.135
X14.445 Y-5.948 I28.109 J10.332
X18.939 Y-10.469 I15.273 J10.687
X19.753 Y-11.005 I0.975 J0.594
X26.994 Y-13.631 I10.082 J16.504
X41.694 Y-12.257 I4.569 J30.435
X52.195 Y-5.523 I-9.692 J26.669
X58.025 Y2.166 I-26.286 J25.985
X58.178 Y2.666 I-0.885 J0.544
G01 X58.19 Y2.74
G03 X57.098 Y3.968 I-1.201 J0.031
G01 X10.375 Y8.166
X10.375 Y12.591
X60.581 Y12.323
G03 X61.865 Y13.174 I0.121 J1.212
X61.943 Y14.199 I-4.483 J0.857
X61.534 Y16.441 I-5.729 J0.113
X59.569 Y19.417 I-7.675 J-2.931
X55.919 Y21.959 I-9.964 J-10.416
X46.808 Y24.792 I-13.955 J-28.812
X38.394 Y25.428 I-8.277 J-53.53
G01 X38.394 Y27.455
G02 X57.398 Y29.033 I21.503 J-143.742
X60.712 Y29.018 I1.269 J-85.83
X65.97 Y28.571 I-0.587 J-38.055
X68.997 Y27.728 I-2.074 J-13.304
X70.697 Y26.649 I-2.139 J-5.249
X71.807 Y24.439 I-2.53 J-2.655
X71.708 Y21.655 I-9.381 J-1.06
X70.102 Y16.412 I-25.126 J4.829
X66.185 Y8.849 I-50.483 J21.35
X56.745 Y-3.422 I-61.78 J37.76
X51.729 Y-7.891 I-29.72 J28.309
X45.904 Y-11.181 I-16.742 J22.841
X31.434 Y-14.169 I-14.985 J36.039
X23.907 Y-13.163 I-0.325 J26.231
X14.857 Y-7.313 I5.263 J18.067
X10.296 Y0.044 I22.314 J18.926
X9.586 Y1.711 I42.218 J18.966
X7.16 Y7.799 I494.206 J200.463
G03 X6.155 Y8.545 I-1.114 J-0.451
G01 X-5.487 Y9.591
G03 X-6.697 Y8.869 I-0.106 J-1.197
X-8.81 Y3.582 I154.538 J-64.828
G02 X-9.503 Y1.864 I-129.222 J51.126
G03 X-9.704 Y1.385 I0.739 J-0.592
G02 X-13.179 Y-5.185 I-32.192 J12.823
X-16.183 Y-8.715 I-18.281 J12.514
X-16.439 Y-8.951 I-0.566 J0.357
X-24.752 Y-13.396 I-12.773 J13.892
X-33.485 Y-14.099 I-6.633 J27.808
X-47.164 Y-10.615 I2.587 J38.752
X-53.714 Y-6.296 I11.852 J25.101
X-61.61 Y2.223 I39.481 J44.512
X-62.157 Y2.945 I15.456 J12.278
G01 X-62.183 Y2.972
G02 X-68.654 Y13.263 I55.196 J41.887
X-70.725 Y18.028 I44.298 J22.086
X-71.799 Y22.29 I18.971 J7.047
X-71.807 Y24.439 I8.077 J1.105
X-70.52 Y26.809 I3.631 J-0.437
X-68.347 Y27.98 I4.23 J-5.247
X-64.05 Y28.826 I5.921 J-18.74
X-60.124 Y29.03 I4.734 J-53.222
G01 X-57.413 Y29.034
G00 Z5
X-64.674 Y22.694
Z0.4
G01 Z-1.8
G03 X-65.552 Y21.563 I8.833 J-7.763
G02 X-65.744 Y22.468 I5.553 J1.651
X-64.674 Y22.694 I2.085 J-7.224
G00 Z5
X-61.975 Y23.947
Z0.4
G01 Z-1.8
G03 X-65.08 Y20.496 I9.678 J-11.83
X-65.797 Y19.168 I8.89 J-5.657
G02 X-66.315 Y20.593 I19.96 J8.062
X-66.837 Y23.198 I10.295 J3.418
G01 X-66.759 Y23.229
G02 X-63.605 Y23.841 I4.338 J-13.921
G01 X-61.975 Y23.947
G00 Z5
X-59.542 Y25.038
Z0.4
G01 Z-1.8
X-58.616 Y25.029
G03 X-63.77 Y20.648 I7.608 J-14.172
X-65.691 Y16.333 I8.811 J-6.508
G02 X-67.267 Y20.285 I37.057 J17.068
X-67.87 Y23.562 I11.704 J3.848
X-67.847 Y23.794 I1.459 J-0.027
X-67.085 Y24.177 I1.56 J-2.154
X-63.694 Y24.838 I4.677 J-14.964
X-59.583 Y25.038 I5.12 J-62.888
G01 X-59.542 Y25.038
G00 Z5
X-59.574 Y26.038
Z0.4
G01 Z-1.8
G02 X-54.252 Y25.934 I0.24 J-123.944
G03 X-59.121 Y23.588 I9.707 J-26.372
X-62.944 Y20.087 I8.419 J-13.031
X-64.929 Y13.885 I8.094 J-6.009
G02 X-64.886 Y13.055 I-3.077 J-0.576
G03 X-64.83 Y12.487 I8.278 J0.529
G02 X-66.607 Y15.931 I52.998 J29.526
X-68.219 Y19.978 I38.04 J17.497
X-68.873 Y23.562 I12.655 J4.161
X-68.805 Y24.145 I3.48 J-0.11
X-68.577 Y24.507 I0.666 J-0.167
X-67.402 Y25.127 I2.32 J-2.974
X-63.782 Y25.835 I4.99 J-15.907
X-59.615 Y26.038 I5.192 J-63.708
G01 X-59.574 Y26.038
G00 Z5
X-59.572 Y27.038
Z0.4
G01 Z-1.8
G02 X-48.164 Y26.564 I0.167 J-133.5
G03 X-57.788 Y23.226 I5.354 J-30.98
X-62.118 Y19.526 I7.132 J-12.73
X-63.944 Y14.273 I7.424 J-5.524
X-63.882 Y13.584 I3.46 J-0.036
X-63.851 Y12.712 I3.757 J-0.303
X-62.456 Y6.778 I24.131 J2.542
G02 X-67.515 Y15.509 I51.723 J35.801
X-69.171 Y19.67 I39.095 J17.969
X-69.876 Y23.562 I13.63 J4.479
X-69.777 Y24.402 I4.591 J-0.115
X-69.229 Y25.272 I1.613 J-0.409
X-67.721 Y26.078 I2.974 J-3.75
X-63.87 Y26.832 I5.317 J-16.945
X-59.606 Y27.038 I5.201 J-63.413
G01 X-59.572 Y27.038
G00 Z5
X-57.424 Y28.033
Z0.4
G01 Z-1.8
G02 X-38.287 Y26.426 I-2.652 J-146.331
G03 X-49.267 Y25.337 I-0.461 J-51.246
X-57.271 Y22.371 I6.577 J-30.032
X-60.878 Y19.478 I6.954 J-12.366
X-62.922 Y14.828 I6.429 J-5.6
X-62.916 Y13.842 I4.442 J-0.466
G02 X-62.886 Y13.499 I-0.477 J-0.215
G03 X-62.86 Y12.841 I2.562 J-0.228
X-61.648 Y7.471 I23.394 J2.458
X-60.021 Y3.731 I24.728 J8.533
X-55.732 Y-3.009 I35.716 J17.993
G01 X-55.818 Y-2.926
G02 X-61.403 Y3.599 I43.868 J43.201
X-67.759 Y13.711 I54.413 J41.255
X-70.124 Y19.365 I39.079 J19.668
X-70.864 Y23.052 I16.434 J5.216
X-70.751 Y24.646 I5.599 J0.404
X-69.877 Y26.038 I2.567 J-0.641
X-68.034 Y27.029 I3.601 J-4.489
X-63.959 Y27.829 I5.601 J-17.753
X-57.424 Y28.033 I5.291 J-64.714
G00 Z5
X57.452 Y7.946
Z0.4
G01 Z-1.8
X52.812 Y8.364
G03 X60.589 Y8.323 I7.761 J734.527
X61.096 Y8.337 I0.158 J3.449
G02 X60.102 Y6.914 I-20.553 J13.298
G03 X57.452 Y7.946 I-3.135 J-4.131
G00 Z5
X63.704 Y10.584
Z0.4
G01 Z-1.8
X63.762 Y10.645
G02 X60.244 Y5.401 I-52.781 J31.607
G03 X57.364 Y6.951 I-3.274 J-2.632
G01 X29.123 Y9.49
X60.563 Y9.323
G03 X63.704 Y10.584 I0.136 J4.205
G00 Z5
X4.273 Y15.914
Z0.4
G01 Z-1.8
G03 X3.897 Y13.764 I5.596 J-2.087
G01 X-3.968 Y14.471
G03 X-4.265 Y15.907 I-5.188 J-0.324
X4.273 Y15.914 I4.213 J68.056
G00 Z5
X-5.777 Y16.932
Z0.4
G01 Z-1.8
X-5.827 Y17.026
G03 X-3.361 Y16.861 I4.148 J43.482
G01 X-3.329 Y16.859
X-1.13 Y16.789
G03 X5.824 Y17.022 I1.185 J68.52
X5.131 Y15.351 I11.075 J-5.572
X5.028 Y12.659 I4.932 J-1.537
G01 X-4.952 Y13.556
G03 X-5.361 Y15.996 I-5.219 J0.379
X-5.777 Y16.932 I-11.282 J-4.454
G00 Z5
X-7.613 Y18.113
Z0.4
G01 Z-1.8
X-7.683 Y18.209
G03 X7.684 Y18.204 I7.706 J68.984
X6.102 Y15.106 I10.069 J-7.094
X6.581 Y11.506 I4 J-1.3
X6.42 Y11.53 I-0.358 J-1.851
G01 X-5.217 Y12.576
G03 X-6.173 Y12.539 I-0.329 J-3.864
X-6.278 Y15.593 I-3.981 J1.392
X-7.613 Y18.113 I-12.167 J-4.832
G00 Z5
X64.931 Y22.404
Z0.4
G01 Z-1.8
X64.701 Y22.672
X65.593 Y22.533
X65.745 Y22.493
G02 X65.536 Y21.582 I-7.192 J1.17
G03 X64.931 Y22.404 I-9.738 J-6.534
G00 Z5
X61.992 Y23.94
Z0.4
G01 Z-1.8
X61.956 Y23.969
G02 X65.799 Y23.513 I-2.068 J-33.853
X66.847 Y23.184 I-1.166 J-5.547
X66.781 Y22.541 I-3.481 J0.032
X65.8 Y19.13 I-20.08 J3.929
G03 X61.992 Y23.94 I-12.219 J-5.762
G00 Z5
X59.077 Y25.039
Z0.4
G01 Z-1.8
G02 X66.005 Y24.495 I0.619 J-36.499
X67.834 Y23.823 I-1.441 J-6.746
G01 X67.836 Y23.822
G02 X67.766 Y22.363 I-5.366 J-0.474
X66.412 Y17.956 I-21.733 J4.266
G01 X65.711 Y16.388
G03 X63.273 Y21.279 I-11.649 J-2.754
X61.378 Y23.152 I-9.764 J-7.983
X58.645 Y25.034 I-11.871 J-14.314
G02 X59.077 Y25.039 I0.423 J-17.839
G00 Z5
X59.067 Y26.04
Z0.4
G01 Z-1.8
G02 X65.498 Y25.604 I0.486 J-40.482
X68.304 Y24.718 I-1.185 J-8.639
X68.789 Y24.194 I-0.594 J-1.036
G01 X68.826 Y24.033
G02 X68.752 Y22.187 I-6.413 J-0.667
X67.334 Y17.57 I-22.499 J4.384
X64.698 Y12.228 I-46.949 J19.845
G03 X64.925 Y13.567 I-5.004 J1.537
X63.873 Y18.546 I-9.278 J0.64
X60.762 Y22.366 I-10.406 J-5.298
X57.161 Y24.685 I-11.233 J-13.488
X54.325 Y25.902 I-15.032 J-31.116
G01 X54.243 Y25.931
G02 X59.067 Y26.04 I4.813 J-106.228
G00 Z5
X59.055 Y27.041
Z0.4
G01 Z-1.8
G02 X65.653 Y26.594 I0.483 J-41.789
X68.547 Y25.729 I-1.577 J-10.549
X69.596 Y24.837 I-1.148 J-2.413
X69.82 Y24.175 I-1.446 J-0.858
X69.738 Y22.013 I-7.436 J-0.801
X68.256 Y17.183 I-23.384 J4.533
X64.48 Y9.896 I-48.63 J20.577
X60.086 Y3.536 I-56.489 J34.329
G03 X57.275 Y5.957 I-3.112 J-0.771
G01 X10.553 Y10.156
G03 X8.366 Y9.533 I-0.272 J-3.196
X6.332 Y10.535 I-2.334 J-2.173
G01 X-5.307 Y11.581
G03 X-7.555 Y10.911 I-0.264 J-3.221
X-8.132 Y11.423 I-2.139 J-1.829
X-7.195 Y15.194 I-2.028 J2.506
X-10.123 Y19.533 I-11.237 J-4.426
X2.153 Y18.817 I10.04 J66.549
X10.129 Y19.533 I-1.691 J63.615
X7.07 Y14.853 I8.163 J-8.676
X9.336 Y10.69 I3.036 J-1.046
X9.939 Y10.593 I0.818 J3.16
G01 X60.569 Y10.323
G03 X63.849 Y12.926 I0.134 J3.199
X63.001 Y18.058 I-8.17 J1.286
X60.145 Y21.58 I-9.483 J-4.771
X56.747 Y23.776 I-10.557 J-12.608
X48.226 Y26.572 I-14.658 J-30.289
G02 X59.055 Y27.041 I11.388 J-137.69
G00 Z5
X59.041 Y28.041
Z0.4
G01 Z-1.8
G02 X65.81 Y27.583 I0.512 J-42.689
X68.997 Y26.626 I-1.733 J-11.555
X70.252 Y25.652 I-1.847 J-3.675
X70.814 Y24.306 I-2.104 J-1.669
X70.723 Y21.834 I-8.479 J-0.926
X69.179 Y16.798 I-24.229 J4.674
X65.333 Y9.373 I-49.576 J20.971
X55.687 Y-3.067 I-60.323 J36.815
G03 X58.936 Y1.755 I-28.047 J22.403
X57.187 Y4.962 I-1.954 J1.015
G01 X10.464 Y9.161
G03 X8.236 Y7.793 I-0.192 J-2.185
X7.457 Y9.033 I-2.471 J-0.688
X6.244 Y9.54 I-1.434 J-1.726
G01 X-5.397 Y10.586
G03 X-7.622 Y9.246 I-0.183 J-2.214
G01 X-7.748 Y8.938
G03 X-9.738 Y10.976 I-2.187 J-0.145
G01 X-18.28 Y11.744
X-10.139 Y11.701
G03 X-8.111 Y14.792 I-0.021 J2.224
X-11.262 Y19.228 I-10.491 J-4.115
X-14.114 Y21.28 I-12.737 J-14.695
X-1.744 Y19.801 I14.062 J65.139
X4.042 Y19.895 I1.589 J80.302
X14.137 Y21.293 I-3.846 J64.919
X10.573 Y18.585 I9.453 J-16.14
X8.037 Y14.593 I7.971 J-7.865
X8.44 Y12.344 I2.122 J-0.78
X10.375 Y11.59 I1.737 J1.598
G01 X60.575 Y11.323
G03 X62.856 Y13.042 I0.129 J2.201
X62.127 Y17.575 I-7.169 J1.172
X59.525 Y20.797 I-8.594 J-4.278
X56.332 Y22.868 I-9.891 J-11.752
X46.944 Y25.782 I-14.396 J-29.798
X38.289 Y26.426 I-8.387 J-54.229
G02 X41.67 Y26.898 I15.307 J-97.303
X59.041 Y28.041 I17.962 J-140.407
G00 Z5
X-57.413 Y29.034
Z0.4
G01 Z-1.8
X-57.383 Y29.034
G02 X-48.839 Y28.633 I-1.672 J-126.848
X-38.394 Y27.455 I-11.747 J-151.051
G01 X-38.394 Y25.428
G03 X-48.999 Y24.371 I-0.359 J-50.123
G02 X-49.029 Y24.366 I-0.018 J0.017
G03 X-55.955 Y21.94 I6.549 J-29.795
X-59.623 Y19.363 I6.254 J-12.8
X-61.725 Y15.851 I5.642 J-5.762
X-61.942 Y14.123 I5.298 J-1.543
X-61.878 Y13.795 I1.047 J0.034
G01 X-61.837 Y13.702
G03 X-61.868 Y12.965 I1.471 J-0.431
X-61.11 Y9.079 I21.305 J2.139
X-59.138 Y4.199 I24.421 J7.03
X-52.848 Y-4.852 I35.079 J17.667
X-42.575 Y-11.923 I20.971 J19.47
X-31.418 Y-13.969 I10.889 J27.934
X-24.582 Y-13.106 I0.26 J25.447
X-19.507 Y-10.849 I-4.803 J17.633
X-14.942 Y-6.616 I-9.786 J15.131
X-11.616 Y-0.869 I-21.765 J16.432
G02 X-11.119 Y0.27 I32.538 J-13.52
G03 X-10.936 Y0.711 I-0.992 J0.67
G02 X-10.127 Y2.976 I66.703 J-22.548
G03 X-8.745 Y8.679 I-29.367 J10.135
X-9.829 Y9.981 I-1.188 J0.113
G01 X-41.994 Y12.871
X-10.134 Y12.701
X-9.853 Y12.732
G03 X-9.028 Y14.393 I-0.313 J1.191
X-11.896 Y18.455 I-9.566 J-3.711
X-16.568 Y21.427 I-12.335 J-14.233
X-25.356 Y24.16 I-16.145 J-36.419
X-38.394 Y25.428 I-13.085 J-66.877
G01 X-38.394 Y27.455
G02 X-23.106 Y24.418 I-21.604 J-148.749
G03 X-15.032 Y22.498 I59.438 J232.012
X-5.227 Y20.971 I16.193 J71.734
X0.001 Y20.8 I4.412 J54.89
X11.85 Y21.858 I0.563 J60.571
X19.845 Y23.619 I-24.909 J132.117
G02 X28.452 Y25.667 I65.478 J-256.07
X38.394 Y27.455 I31.29 J-145.45
G01 X38.394 Y25.428
G03 X23.796 Y23.823 I-0.048 J-66.75
X16.538 Y21.413 I8.148 J-36.673
X11.896 Y18.455 I7.662 J-17.146
X9.111 Y14.598 I6.685 J-7.761
X8.9 Y13.799 I1.906 J-0.931
X10.086 Y12.593 I1.187 J-0.019
G01 X10.375 Y12.591
X10.375 Y8.166
G03 X9.093 Y6.728 I-0.106 J-1.196
X10.839 Y1.067 I32.567 J6.945
X10.951 Y0.778 I0.777 J0.135
X14.445 Y-5.948 I28.109 J10.332
X18.939 Y-10.469 I15.273 J10.687
X19.753 Y-11.005 I0.975 J0.594
X26.994 Y-13.631 I10.082 J16.504
X41.694 Y-12.257 I4.569 J30.435
X52.195 Y-5.523 I-9.692 J26.669
X58.025 Y2.166 I-26.286 J25.985
X58.178 Y2.666 I-0.885 J0.544
G01 X58.19 Y2.74
G03 X57.098 Y3.968 I-1.201 J0.031
G01 X10.375 Y8.166
X10.375 Y12.591
X60.581 Y12.323
G03 X61.865 Y13.174 I0.121 J1.212
X61.943 Y14.199 I-4.483 J0.857
X61.534 Y16.441 I-5.729 J0.113
X59.569 Y19.417 I-7.675 J-2.931
X55.919 Y21.959 I-9.964 J-10.416
X46.808 Y24.792 I-13.955 J-28.812
X38.394 Y25.428 I-8.277 J-53.53
G01 X38.394 Y27.455
G02 X57.398 Y29.033 I21.503 J-143.742
X60.712 Y29.018 I1.269 J-85.83
X65.97 Y28.571 I-0.587 J-38.055
X68.997 Y27.728 I-2.074 J-13.304
X70.697 Y26.649 I-2.139 J-5.249
X71.807 Y24.439 I-2.53 J-2.655
X71.708 Y21.655 I-9.381 J-1.06
X70.102 Y16.412 I-25.126 J4.829
X66.185 Y8.849 I-50.483 J21.35
X56.745 Y-3.422 I-61.78 J37.76
X51.729 Y-7.891 I-29.72 J28.309
X45.904 Y-11.181 I-16.742 J22.841
X31.434 Y-14.169 I-14.985 J36.039
X23.907 Y-13.163 I-0.325 J26.231
X14.857 Y-7.313 I5.263 J18.067
X10.296 Y0.044 I22.314 J18.926
X9.586 Y1.711 I42.218 J18.966
X7.16 Y7.799 I494.206 J200.463
G03 X6.155 Y8.545 I-1.114 J-0.451
G01 X-5.487 Y9.591
G03 X-6.697 Y8.869 I-0.106 J-1.197
X-8.81 Y3.582 I154.538 J-64.828
G02 X-9.503 Y1.864 I-129.222 J51.126
G03 X-9.704 Y1.385 I0.739 J-0.592
G02 X-13.179 Y-5.185 I-32.192 J12.823
X-16.183 Y-8.715 I-18.281 J12.514
X-16.439 Y-8.951 I-0.566 J0.357
X-24.752 Y-13.396 I-12.773 J13.892
X-33.485 Y-14.099 I-6.633 J27.808
X-47.164 Y-10.615 I2.587 J38.752
X-53.714 Y-6.296 I11.852 J25.101
X-61.61 Y2.223 I39.481 J44.512
X-62.157 Y2.945 I15.456 J12.278
G01 X-62.183 Y2.972
G02 X-68.654 Y13.263 I55.196 J41.887
X-70.725 Y18.028 I44.298 J22.086
X-71.799 Y22.29 I18.971 J7.047
X-71.807 Y24.439 I8.077 J1.105
X-70.52 Y26.809 I3.631 J-0.437
X-68.347 Y27.98 I4.23 J-5.247
X-64.05 Y28.826 I5.921 J-18.74
X-60.124 Y29.03 I4.734 J-53.222
G01 X-57.413 Y29.034
G00 Z5
X-64.674 Y22.694
Z0.2
G01 Z-2
G03 X-65.552 Y21.563 I8.833 J-7.763
G02 X-65.744 Y22.468 I5.553 J1.651
X-64.674 Y22.694 I2.085 J-7.224
G00 Z5
X-61.975 Y23.947
Z0.2
G01 Z-2
G03 X-65.08 Y20.496 I9.678 J-11.83
X-65.797 Y19.168 I8.89 J-5.657
G02 X-66.315 Y20.593 I19.96 J8.062
X-66.837 Y23.198 I10.295 J3.418
G01 X-66.759 Y23.229
G02 X-63.605 Y23.841 I4.338 J-13.921
G01 X-61.975 Y23.947
G00 Z5
X-59.542 Y25.038
Z0.2
G01 Z-2
X-58.616 Y25.029
G03 X-63.77 Y20.648 I7.608 J-14.172
X-65.691 Y16.333 I8.811 J-6.508
G02 X-67.267 Y20.285 I37.057 J17.068
X-67.87 Y23.562 I11.704 J3.848
X-67.847 Y23.794 I1.459 J-0.027
X-67.085 Y24.177 I1.56 J-2.154
X-63.694 Y24.838 I4.677 J-14.964
X-59.583 Y25.038 I5.12 J-62.888
G01 X-59.542 Y25.038
G00 Z5
X-59.574 Y26.038
Z0.2
G01 Z-2
G02 X-54.252 Y25.934 I0.24 J-123.944
G03 X-59.121 Y23.588 I9.707 J-26.372
X-62.944 Y20.087 I8.419 J-13.031
X-64.929 Y13.885 I8.094 J-6.009
G02 X-64.886 Y13.055 I-3.077 J-0.576
G03 X-64.83 Y12.487 I8.278 J0.529
G02 X-66.607 Y15.931 I52.998 J29.526
X-68.219 Y19.978 I38.04 J17.497
X-68.873 Y23.562 I12.655 J4.161
X-68.805 Y24.145 I3.48 J-0.11
X-68.577 Y24.507 I0.666 J-0.167
X-67.402 Y25.127 I2.32 J-2.974
X-63.782 Y25.835 I4.99 J-15.907
X-59.615 Y26.038 I5.192 J-63.708
G01 X-59.574 Y26.038
G00 Z5
X-59.572 Y27.038
Z0.2
G01 Z-2
G02 X-48.164 Y26.564 I0.167 J-133.5
G03 X-57.788 Y23.226 I5.354 J-30.98
X-62.118 Y19.526 I7.132 J-12.73
X-63.944 Y14.273 I7.424 J-5.524
X-63.882 Y13.584 I3.46 J-0.036
X-63.851 Y12.712 I3.757 J-0.303
X-62.456 Y6.778 I24.131 J2.542
G02 X-67.515 Y15.509 I51.723 J35.801
X-69.171 Y19.67 I39.095 J17.969
X-69.876 Y23.562 I13.63 J4.479
X-69.777 Y24.402 I4.591 J-0.115
X-69.229 Y25.272 I1.613 J-0.409
X-67.721 Y26.078 I2.974 J-3.75
X-63.87 Y26.832 I5.317 J-16.945
X-59.606 Y27.038 I5.201 J-63.413
G01 X-59.572 Y27.038
G00 Z5
X-57.424 Y28.033
Z0.2
G01 Z-2
G02 X-38.287 Y26.426 I-2.652 J-146.331
G03 X-49.267 Y25.337 I-0.461 J-51.246
X-57.271 Y22.371 I6.577 J-30.032
X-60.878 Y19.478 I6.954 J-12.366
X-62.922 Y14.828 I6.429 J-5.6
X-62.916 Y13.842 I4.442 J-0.466
G02 X-62.886 Y13.499 I-0.477 J-0.215
G03 X-62.86 Y12.841 I2.562 J-0.228
X-61.648 Y7.471 I23.394 J2.458
X-60.021 Y3.731 I24.728 J8.533
X-55.732 Y-3.009 I35.716 J17.993
G01 X-55.818 Y-2.926
G02 X-61.403 Y3.599 I43.868 J43.201
X-67.759 Y13.711 I54.413 J41.255
X-70.124 Y19.365 I39.079 J19.668
X-70.864 Y23.052 I16.434 J5.216
X-70.751 Y24.646 I5.599 J0.404
X-69.877 Y26.038 I2.567 J-0.641
X-68.034 Y27.029 I3.601 J-4.489
X-63.959 Y27.829 I5.601 J-17.753
X-57.424 Y28.033 I5.291 J-64.714
G00 Z5
X57.452 Y7.946
Z0.2
G01 Z-2
X52.812 Y8.364
G03 X60.589 Y8.323 I7.761 J734.527
X61.096 Y8.337 I0.158 J3.449
G02 X60.102 Y6.914 I-20.553 J13.298
G03 X57.452 Y7.946 I-3.135 J-4.131
G00 Z5
X63.704 Y10.584
Z0.2
G01 Z-2
X63.762 Y10.645
G02 X60.244 Y5.401 I-52.781 J31.607
G03 X57.364 Y6.951 I-3.274 J-2.632
G01 X29.123 Y9.49
X60.563 Y9.323
G03 X63.704 Y10.584 I0.136 J4.205
G00 Z5
X4.273 Y15.914
Z0.2
G01 Z-2
G03 X3.897 Y13.764 I5.596 J-2.087
